; generated by SuperSlicer 2.5.59 on 2023-03-23 at 20:52:29 UTC


;
;

;
;
; TODO: check the size of the extruder and the y-bar clearance. Optimize & test supports.

; external perimeters extrusion width = 0.67mm
; perimeters extrusion width = 0.60mm
; infill extrusion width = 0.66mm
; solid infill extrusion width = 0.84mm
; top infill extrusion width = 0.67mm
; first layer extrusion width = 0.75mm

; object:{"name":"3DBenchy_-_Multi-part_-_Complete_17_shells_-_3DBenchy","id":"3DBenchy_-_Multi-part_-_Complete_17_shells_-_3DBenchy.com.stl id:0 copy 0","object_center":[175.000000,175.000000,0.000000],"boundingbox_center":[175.000000,175.000000,24.000001],"boundingbox_size":[60.000004,31.000000,48.000002]}
; plater:{"center":[175.000000,175.000000,0.000000],"boundingbox_center":[175.000000,175.000000,24.000001],"boundingbox_size":[60.000004,31.000000,48.000002]}

;TYPE:Custom
print_start BED_TEMP=65 EXTRUDER_TEMP=215
G1 Z5 F100; Move to safe Z
M107
G21 ; set units to millimeters
G90 ; use absolute coordinates
M83 ; use relative distances for extrusion
;_TOOLCHANGE 0
M104 S215 ; set temperature
M109 S215 ; set temperature and wait for it to be reached
M190 S65 ; set bed temperature and wait for it to be reached
M107
;LAYER_CHANGE
;Z:0.3
;HEIGHT:0.3
;BEFORE_LAYER_CHANGE
;0.3


G1 Z0.3 F27000
;AFTER_LAYER_CHANGE
;0.3
G92 E0
G1 E-0.5 F1800
G1 Z0.5 F27000
M204 S2000
G1 X147.111 Y165.378
G1 Z0.3
G1 E0.5 F1800
;TYPE:Skirt
;WIDTH:0.6
G1 X146.361 Y166.09 E0.06562
G1 X145.494 Y167.399 E0.0997
G1 X145.031 Y168.674 E0.08607
G1 X144.867 Y169.855 E0.07568
G1 X144.761 Y176.934 E0.44929
G1 X144.882 Y180.357 E0.21737
G1 X145.033 Y181.332 E0.06263
G1 X145.293 Y182.154 E0.05472
G1 X146.097 Y183.585 E0.1042
G1 X146.996 Y184.522 E0.08242
G1 X147.888 Y185.142 E0.06893
G1 X148.839 Y185.57 E0.06618
G1 X149.833 Y185.832 E0.06523
G1 X175.362 Y187.372 E1.62315
G1 X177.039 Y187.267 E0.10663
G1 X178.662 Y187.031 E0.1041
G1 X180.809 Y186.487 E0.14055
G1 X181.883 Y186.113 E0.07218
G1 X183.281 Y185.516 E0.0965
G1 X184.712 Y184.767 E0.10246
G1 X187.477 Y182.898 E0.21182
G1 X188.841 Y181.675 E0.11625
G1 X190.119 Y180.223 E0.12278
G1 X191.688 Y177.74 E0.18639
G1 X192.086 Y176.853 E0.06172
G1 X192.386 Y175.519 E0.08675
G1 X192.369 Y174.342 E0.07476
G1 X192.053 Y173.047 E0.08458
G1 X191.583 Y172.063 E0.06917
G1 X190.128 Y169.944 E0.16316
G1 X188.558 Y168.183 E0.14974
G1 X186.667 Y166.541 E0.1589
G1 X184.756 Y165.262 E0.14595
G1 X182.262 Y164.029 E0.17656
G1 X180.183 Y163.328 E0.13928
G1 X177.824 Y162.826 E0.15304
G1 X175.421 Y162.63 E0.15305
G1 X173.863 Y162.656 E0.09885
G1 X150.448 Y164.094 E1.48884
G1 X148.825 Y164.433 E0.10528
G1 X147.806 Y164.901 E0.07111
G1 X147.185 Y165.327 E0.04779
G1 X147.545 Y165.764 F27000
G1 F1800
G1 X146.894 Y166.301 E0.05355
G1 X146.277 Y167.09 E0.06358
G1 X145.609 Y168.58 E0.10364
G1 X145.427 Y169.549 E0.06255
G1 X145.298 Y172.969 E0.21725
G1 X145.296 Y176.934 E0.25163
G1 X145.415 Y180.301 E0.2138
G1 X145.551 Y181.198 E0.05757
G1 X145.786 Y181.947 E0.04981
G1 X146.516 Y183.251 E0.09489
G1 X147.355 Y184.124 E0.07681
G1 X148.137 Y184.668 E0.06042
G1 X149.004 Y185.061 E0.06046
G1 X149.932 Y185.306 E0.06088
G1 X174.758 Y186.835 E1.57856
G1 X176.675 Y186.765 E0.12179
G1 X178.255 Y186.56 E0.10111
G1 X180.665 Y185.971 E0.15741
G1 X183.04 Y185.038 E0.16195
G1 X185.497 Y183.638 E0.1795
G1 X187.461 Y182.231 E0.15332
G1 X188.612 Y181.14 E0.10061
G1 X189.854 Y179.682 E0.12155
G1 X191.227 Y177.467 E0.16538
G1 X191.681 Y176.363 E0.07579
G1 X191.869 Y175.247 E0.0718
G1 X191.797 Y174.132 E0.07093
G1 X191.426 Y172.928 E0.07994
G1 X190.676 Y171.621 E0.09563
G1 X189.873 Y170.49 E0.08805
G1 X188.546 Y168.934 E0.12976
G1 X186.553 Y167.129 E0.17065
G1 X184.476 Y165.718 E0.1594
G1 X182.051 Y164.521 E0.17158
G1 X180.026 Y163.84 E0.13561
G1 X177.736 Y163.354 E0.14856
G1 X175.413 Y163.166 E0.14791
G1 X173.896 Y163.191 E0.09629
G1 X150.481 Y164.628 E1.48884
G1 X149.019 Y164.932 E0.09476
G1 X147.909 Y165.465 E0.07814
G1 X147.615 Y165.707 E0.02419
G1 X147.952 Y166.116 F27000
G1 F1800
G1 X147.289 Y166.662 E0.05449
G1 X146.723 Y167.387 E0.05837
G1 X146.127 Y168.713 E0.09228
G1 X145.959 Y169.613 E0.05807
G1 X145.834 Y172.97 E0.2132
G1 X145.932 Y180.013 E0.44705
G1 X146.129 Y181.291 E0.08207
G1 X146.664 Y182.52 E0.08505
G1 X147.442 Y183.482 E0.07854
G1 X148.385 Y184.193 E0.07496
G1 X149.17 Y184.551 E0.05475
G1 X150.031 Y184.779 E0.05653
G1 X174.759 Y186.3 E1.57233
G1 X176.643 Y186.231 E0.1197
G1 X178.182 Y186.029 E0.0985
G1 X180.52 Y185.455 E0.15279
G1 X182.798 Y184.559 E0.15532
G1 X185.06 Y183.286 E0.16478
G1 X187.111 Y181.825 E0.15976
G1 X188.215 Y180.781 E0.09647
G1 X189.413 Y179.377 E0.1171
G1 X190.766 Y177.195 E0.16298
G1 X191.171 Y176.199 E0.06818
G1 X191.335 Y175.208 E0.06377
G1 X191.267 Y174.209 E0.06353
G1 X190.93 Y173.13 E0.07177
G1 X190.222 Y171.905 E0.08981
G1 X189.438 Y170.802 E0.08585
G1 X188.165 Y169.31 E0.12446
G1 X186.213 Y167.543 E0.16716
G1 X184.195 Y166.174 E0.15474
G1 X181.84 Y165.014 E0.1666
G1 X179.869 Y164.352 E0.13194
G1 X177.648 Y163.883 E0.14408
G1 X175.406 Y163.701 E0.14278
G1 X173.929 Y163.725 E0.09373
G1 X150.514 Y165.163 E1.48884
G1 X149.214 Y165.431 E0.08424
G1 X148.187 Y165.923 E0.07224
G1 X148.021 Y166.059 E0.01364
G1 E-0.5
M204 S4000
G1 Z0.5 F27000
; printing object 3DBenchy_-_Multi-part_-_Complete_17_shells_-_3DBenchy.com.stl id:0 copy 0
; acceleration to travel
M204 S10000
G1 X167.761 Y173.763
; decel to extrusion
M204 S2000
G1 X171.709 Y175.303
; end travel
G1 Z0.3
G1 E0.5 F1800
;TYPE:Internal perimeter
;WIDTH:0.75
G1 X171.753 Y174.862 E0.03605
G1 X171.754 Y174.399 E0.03762
G1 X171.648 Y173.682 E0.05881
G1 X171.547 Y173.305 E0.03174
G1 X171.351 Y172.815 E0.04284
G1 X171.029 Y172.268 E0.05161
G1 X170.702 Y171.872 E0.04171
G1 X170.289 Y171.52 E0.04412
G1 X169.996 Y171.334 E0.02817
G1 X169.587 Y171.146 E0.03657
G1 X169.127 Y171.016 E0.03886
G1 X168.598 Y170.927 E0.04358
G1 X167.79 Y170.881 E0.06575
G1 X167.157 Y170.889 E0.05142
G1 X166.702 Y170.869 E0.037
G1 X166.179 Y170.925 E0.04271
G1 X165.517 Y171.211 E0.05858
G1 X165.153 Y171.643 E0.04591
G1 X164.609 Y171.199 E0.05704
G1 X164.308 Y171.024 E0.02821
G1 X163.862 Y170.845 E0.03909
G1 X163.229 Y170.726 E0.05233
G1 X162.698 Y170.711 E0.04312
G1 X162.253 Y170.735 E0.03619
G1 X161.751 Y170.846 E0.04179
G1 X161.232 Y171.058 E0.04553
G1 X160.829 Y171.389 E0.04236
G1 X160.13 Y170.933 E0.06787
G1 X159.343 Y170.887 E0.06402
G1 X155.72 Y170.89 E0.29438
G1 X155.087 Y171.038 E0.05273
G1 X154.728 Y171.468 E0.04558
G1 X154.199 Y171.08 E0.05327
G1 X153.609 Y170.835 E0.05187
G1 X153.06 Y170.731 E0.04538
G1 X152.592 Y170.71 E0.03812
G1 X152.297 Y170.727 E0.02398
G1 X151.786 Y170.788 E0.04181
G1 X151.291 Y170.926 E0.0417
G1 X150.936 Y171.08 E0.03143
G1 X150.259 Y171.501 E0.06482
G1 X150.264 Y170.091 E0.11462
G1 X150.306 Y169.861 E0.01898
G1 X150.361 Y169.74 E0.0108
G1 X150.44 Y169.638 E0.01047
G1 X150.557 Y169.554 E0.0117
G1 X150.683 Y169.504 E0.01103
G1 X150.832 Y169.48 E0.01227
G1 X174.179 Y168.046 E1.90018
G1 X174.912 Y168.023 E0.0596
G1 X175.33 Y168.029 E0.03395
G1 X176.053 Y168.06 E0.05885
G1 X176.967 Y168.157 E0.0746
G1 X177.632 Y168.268 E0.05479
G1 X178.637 Y168.501 E0.08379
G1 X179.625 Y168.804 E0.08394
G1 X180.158 Y169.002 E0.04619
G1 X180.711 Y169.239 E0.04889
G1 X181.291 Y169.517 E0.05228
G1 X181.949 Y169.874 E0.06086
G1 X182.674 Y170.321 E0.06915
G1 X183.487 Y170.905 E0.08133
G1 X184.142 Y171.445 E0.069
G1 X185.079 Y172.317 E0.10395
G1 X183.279 Y172.323 E0.14621
G1 X182.706 Y172.362 E0.04668
G1 X182.198 Y172.524 E0.04334
G1 X181.733 Y172.733 E0.04143
G1 X181.606 Y172.614 E0.0141
G1 X180.754 Y172.276 E0.07449
G1 X180.388 Y172.449 E0.03287
G1 X180.021 Y172.622 E0.03297
G1 X179.576 Y173.092 E0.05255
G1 X179.198 Y172.697 E0.04445
G1 X178.811 Y172.474 E0.03629
G1 X178.262 Y172.353 E0.04566
G1 X177.601 Y172.398 E0.05381
G1 X177.156 Y172.749 E0.04608
G1 X176.605 Y172.428 E0.05177
G1 X175.879 Y172.387 E0.0591
G1 X175.187 Y172.756 E0.06375
G1 X174.833 Y172.521 E0.0345
G1 X174.543 Y172.404 E0.0254
G1 X174.066 Y172.31 E0.03954
G1 X173.812 Y172.367 E0.0211
G1 X173.534 Y172.429 E0.02316
G1 X173.19 Y172.605 E0.03134
G1 X172.784 Y172.954 E0.04351
G1 X172.473 Y173.635 E0.06086
G1 X172.567 Y174.409 E0.06333
G1 X172.942 Y175.201 E0.07119
G1 X172.659 Y175.474 E0.03201
G1 X172.316 Y175.297 E0.03133
G1 X171.799 Y175.302 E0.042
G1 E-0.5
M204 S4000
G1 Z0.5 F27000
; acceleration to travel
M204 S10000
G1 X179.54 Y177.74
; decel to extrusion
M204 S2000
G1 X181.088 Y178.228
; end travel
G1 Z0.3
G1 E0.5 F1800
G1 X181.597 Y178.889 E0.06776
G1 X182.013 Y179.15 E0.03989
G1 X183.115 Y179.393 E0.09169
G1 X182.065 Y180.06 E0.10105
G1 X181.668 Y180.281 E0.03689
G1 X180.877 Y180.681 E0.07205
G1 X180.295 Y180.928 E0.05138
G1 X180.033 Y180.632 E0.03211
G1 X180.28 Y180.204 E0.04016
G1 X181.054 Y178.311 E0.16614
G1 E-0.5
M204 S4000
G1 Z0.5 F27000
; acceleration to travel
M204 S10000
G1 X184.839 Y176.461
; decel to extrusion
M204 S2000
G1 X185.596 Y176.091
; end travel
G1 Z0.3
G1 E0.5 F1800
G1 X186.041 Y175.508 E0.05956
G1 X186.344 Y175.044 E0.04507
G1 X186.651 Y174.359 E0.06093
G1 X186.955 Y174.846 E0.04662
G1 X187.024 Y175.016 E0.01493
G1 X186.221 Y176.315 E0.12404
G1 X185.68 Y176.121 E0.04667
G1 E-0.5
M204 S4000
G1 Z0.5 F27000
; acceleration to travel
M204 S10000
G1 X157.936 Y176.074
; decel to extrusion
M204 S2000
G1 X152.387 Y176.065
; end travel
G1 Z0.3
G1 E0.5 F1800
G1 X152.259 Y175.486 E0.04818
G1 X152.226 Y175.181 E0.02493
G1 X152.223 Y174.8 E0.03096
G1 X152.25 Y174.503 E0.02424
G1 X152.362 Y173.963 E0.04476
G1 X153.062 Y174.367 E0.06569
G1 X153.516 Y174.5 E0.03842
G1 X154.11 Y174.54 E0.04838
G1 X154.684 Y174.302 E0.05044
G1 X155.045 Y173.88 E0.04516
G1 X155.68 Y174.191 E0.05739
G1 X156.115 Y174.158 E0.03551
G1 X156.135 Y176.847 E0.21847
G1 X156.138 Y176.848 E0.00031
G1 X156.087 Y177.683 E0.068
G1 X156.277 Y178.34 E0.0555
G1 X156.827 Y178.871 E0.06218
G1 X157.618 Y179.095 E0.06672
G1 X158.329 Y178.997 E0.05834
G1 X158.853 Y178.661 E0.05058
G1 X159.158 Y178.292 E0.03891
G1 X159.363 Y177.747 E0.04728
G1 X159.413 Y177.185 E0.04582
G1 X159.383 Y176.647 E0.0438
G1 X159.383 Y174.136 E0.20395
G1 X159.652 Y174.132 E0.02188
G1 X160.617 Y173.815 E0.08252
G1 X160.94 Y174.095 E0.03471
G1 X160.792 Y174.488 E0.03404
G1 X160.744 Y174.978 E0.04
G1 X160.99 Y175.668 E0.0595
G1 X160.662 Y175.85 E0.03047
G1 X160.363 Y176.136 E0.03363
G1 X160.151 Y176.51 E0.03496
G1 X160.021 Y177.082 E0.04765
G1 X160.082 Y177.619 E0.04394
G1 X160.276 Y178.112 E0.043
G1 X160.655 Y178.569 E0.04824
G1 X161.054 Y178.841 E0.03918
G1 X161.451 Y179.017 E0.03534
G1 X161.885 Y179.139 E0.03658
G1 X162.372 Y179.205 E0.03998
G1 X162.878 Y179.213 E0.04108
G1 X163.246 Y179.188 E0.02998
G1 X163.85 Y179.06 E0.05013
G1 X164.442 Y178.787 E0.05298
G1 X165.171 Y178.218 E0.07515
G1 X165.36 Y178.551 E0.03116
G1 X165.78 Y178.899 E0.04428
G1 X166.279 Y179.07 E0.0429
G1 X166.711 Y179.072 E0.03506
G1 X167.17 Y179.03 E0.03748
G1 X167.862 Y179.043 E0.05621
G1 X168.457 Y179.013 E0.04837
G1 X168.869 Y178.954 E0.03382
G1 X169.544 Y178.752 E0.05723
G1 X170.013 Y178.427 E0.04639
G1 X170.222 Y178.803 E0.0349
G1 X170.769 Y179.257 E0.05772
G1 X171.265 Y179.461 E0.0436
G1 X171.812 Y179.498 E0.04453
G1 X172.309 Y179.44 E0.04065
G1 X172.823 Y179.155 E0.04777
G1 X173.177 Y178.864 E0.03722
G1 X173.749 Y179.17 E0.05267
G1 X174.437 Y179.161 E0.05594
G1 X175.146 Y178.754 E0.06636
G1 X175.463 Y179.084 E0.03718
G1 X176.272 Y179.295 E0.06795
G1 X176.125 Y179.79 E0.04191
G1 X176.125 Y180.286 E0.04029
G1 X176.261 Y180.733 E0.03796
G1 X176.414 Y181.018 E0.02632
G1 X176.636 Y181.317 E0.03026
G1 X177.284 Y181.783 E0.06485
G1 X176.345 Y181.912 E0.07702
G1 X175.34 Y181.972 E0.08183
G1 X174.798 Y181.971 E0.044
G1 X150.793 Y180.515 E1.95372
G1 X150.577 Y180.455 E0.01822
G1 X150.51 Y180.42 E0.00617
G1 X150.421 Y180.34 E0.0097
G1 X150.335 Y180.215 E0.01235
G1 X150.3 Y180.132 E0.00726
G1 X150.28 Y180.056 E0.00641
G1 X150.258 Y179.848 E0.01697
G1 X150.255 Y178.401 E0.11755
G1 X150.871 Y178.816 E0.06032
G1 X151.241 Y178.978 E0.03285
G1 X151.879 Y179.157 E0.05381
G1 X152.271 Y179.205 E0.03207
G1 X152.65 Y179.213 E0.03082
G1 X153.138 Y179.184 E0.03973
G1 X153.62 Y179.092 E0.03985
G1 X154.054 Y178.932 E0.03756
G1 X154.353 Y178.777 E0.02734
G1 X154.721 Y178.519 E0.03653
G1 X155.052 Y178.176 E0.03869
G1 X155.334 Y177.751 E0.04146
G1 X155.593 Y176.974 E0.06656
G1 X155.343 Y176.224 E0.06421
G1 X154.996 Y175.809 E0.04402
G1 X154.532 Y175.511 E0.04478
G1 X153.966 Y175.375 E0.04725
G1 X153.53 Y175.383 E0.03547
G1 X152.95 Y175.569 E0.04946
G1 X152.455 Y176.006 E0.05364
G1 E-0.5
M204 S4000
G1 Z0.5 F27000
; acceleration to travel
M204 S10000
G1 X173.113 Y174.142
; decel to extrusion
M204 S1000
G1 X175.178 Y173.955
; end travel
G1 Z0.3
G1 E0.5 F1800
;TYPE:External perimeter
G1 X174.868 Y173.533 E0.04256
G1 X174.804 Y173.325 E0.0177
G1 X174.513 Y173.131 E0.02846
G1 X174.347 Y173.065 E0.01446
G1 X174.074 Y173.011 E0.02261
G1 X173.962 Y173.036 E0.00933
G1 X173.769 Y173.079 E0.01612
G1 X173.575 Y173.178 E0.01764
G1 X173.345 Y173.376 E0.02463
G1 X173.177 Y173.744 E0.03295
G1 X173.234 Y174.216 E0.03858
G1 X173.478 Y174.731 E0.04636
G1 X173.886 Y175.449 E0.06703
G1 X174.098 Y175.775 E0.0316
G1 X173.852 Y176.149 E0.03633
G1 X173.717 Y176.525 E0.03251
G1 X173.343 Y177.181 E0.06134
G1 X173.25 Y177.435 E0.02193
G1 X173.217 Y177.636 E0.01662
G1 X173.26 Y177.961 E0.02658
G1 X173.49 Y178.254 E0.03026
G1 X173.916 Y178.482 E0.0393
G1 X174.25 Y178.477 E0.02713
G1 X174.528 Y178.318 E0.02603
G1 X174.926 Y177.738 E0.05711
G1 X175.114 Y177.555 E0.02134
G1 X175.139 Y177.506 E0.00443
G1 X175.258 Y177.65 E0.01521
G1 X175.579 Y178.215 E0.05272
G1 X175.823 Y178.47 E0.02871
G1 X176.098 Y178.541 E0.02311
G1 X176.298 Y178.553 E0.01625
G1 X176.67 Y178.478 E0.03077
G1 X176.987 Y178.229 E0.0328
G1 X177.127 Y177.932 E0.02667
G1 X177.169 Y177.636 E0.02427
G1 X177.129 Y177.309 E0.02675
G1 X177.003 Y177.022 E0.02548
G1 X176.286 Y175.822 E0.11359
G1 X176.252 Y175.735 E0.00756
G1 X176.257 Y175.674 E0.00501
G1 X176.328 Y175.493 E0.01575
G1 X176.524 Y175.109 E0.03503
G1 X176.689 Y174.703 E0.03566
G1 X176.928 Y174.3 E0.03799
G1 X177.011 Y174.001 E0.02523
G1 X177.011 Y173.824 E0.01438
G1 X176.926 Y173.564 E0.02224
G1 X176.698 Y173.276 E0.02978
G1 X176.402 Y173.103 E0.02789
G1 X176.032 Y173.082 E0.03008
G1 X175.676 Y173.272 E0.03281
G1 X175.231 Y173.883 E0.06136
;WIPE_START
M204 S4000
G1 X175.052 Y173.369 F27000
;WIPE_END
M204 S1000
G1 X180.68 Y173.069
G1 F1800
G1 X180.43 Y173.187 E0.02246
G1 X180.245 Y173.383 E0.02192
G1 X180.046 Y173.638 E0.02624
G1 X179.927 Y173.994 E0.03052
G1 X179.836 Y174.361 E0.03067
G1 X179.546 Y175.23 E0.07446
G1 X179.24 Y174.454 E0.06777
G1 X179.153 Y174.148 E0.02582
G1 X179.108 Y173.739 E0.03346
G1 X178.974 Y173.454 E0.0256
G1 X178.77 Y173.242 E0.02386
G1 X178.56 Y173.121 E0.0197
G1 X178.211 Y173.044 E0.02907
G1 X177.859 Y173.068 E0.02866
G1 X177.542 Y173.318 E0.03281
G1 X177.414 Y173.508 E0.01863
G1 X177.349 Y173.705 E0.01686
G1 X177.347 Y174.14 E0.03534
G1 X177.399 Y174.384 E0.02025
G1 X177.804 Y175.706 E0.11232
G1 X178.206 Y176.805 E0.09511
G1 X178.541 Y177.586 E0.06895
G1 X178.573 Y177.722 E0.01139
G1 X178.533 Y177.853 E0.01111
G1 X178.34 Y178.235 E0.03481
G1 X178.127 Y178.806 E0.04946
G1 X178.024 Y178.979 E0.01635
G1 X177.873 Y179.1 E0.01568
G1 X177.776 Y179.145 E0.00873
G1 X177.364 Y179.252 E0.03456
G1 X177.158 Y179.344 E0.01834
G1 X176.898 Y179.595 E0.02935
G1 X176.811 Y179.889 E0.02493
G1 X176.811 Y180.184 E0.02398
G1 X176.897 Y180.469 E0.02416
G1 X176.994 Y180.65 E0.01666
G1 X177.123 Y180.823 E0.01753
G1 X177.338 Y180.978 E0.02158
G1 X177.551 Y181.069 E0.0188
G1 X177.857 Y181.106 E0.02504
G1 X178.383 Y181.009 E0.04348
G1 X178.731 Y180.876 E0.03027
G1 X179.041 Y180.704 E0.02877
G1 X179.409 Y180.341 E0.04198
G1 X179.663 Y179.902 E0.04126
G1 X180.27 Y178.417 E0.13033
G1 X181.027 Y176.259 E0.18577
G1 X181.305 Y175.366 E0.07598
G1 X181.388 Y174.938 E0.03539
G1 X181.626 Y174.409 E0.04715
G1 X181.714 Y174.01 E0.03318
G1 X181.654 Y173.741 E0.02234
G1 X181.527 Y173.48 E0.02366
G1 X181.232 Y173.204 E0.03278
