;FLAVOR:Marlin
;TIME:6903
;Filament used: 3.78615m
;Layer height: 0.2
;MINX:80.627
;MINY:98.406
;MINZ:0.2
;MAXX:147.299
;MAXY:136.594
;MAXZ:48
;Generated with Cura_SteamEngine 4.11.0
M140 S50
M105
M190 S50
M104 S200
M105
M109 S200
M82 ;absolute extrusion mode
; Ender 3 Custom Start G-code
G92 E0 ; Reset Extruder
G28 ; Home all axes
G1 Z2.0 F3000 ; Move Z Axis up little to prevent scratching of Heat Bed
G1 X0.1 Y20 Z0.3 F5000.0 ; Move to start position
G1 X0.1 Y200.0 Z0.3 F1500.0 E15 ; Draw the first line
G1 X0.4 Y200.0 Z0.3 F5000.0 ; Move to side a little
G1 X0.4 Y20 Z0.3 F1500.0 E30 ; Draw the second line
G92 E0 ; Reset Extruder
G1 Z2.0 F3000 ; Move Z Axis up little to prevent scratching of Heat Bed
G1 X5 Y20 Z0.3 F5000.0 ; Move over to prevent blob squish
G92 E0
G92 E0
G1 F2700 E-5
;LAYER_COUNT:240
;LAYER:0
M107
G0 F6000 X85.643 Y102.457 Z0.2
;TYPE:SKIRT
G1 F2700 E0
G1 F1200 X86.409 Y101.917 E0.03117
G1 X86.841 Y101.654 E0.04799
G1 X87.093 Y101.508 E0.05768
G1 X87.923 Y101.073 E0.08885
G1 X88.546 Y100.803 E0.11143
G1 X88.765 Y100.716 E0.11927
G1 X89.65 Y100.407 E0.15045
G1 X90.107 Y100.28 E0.16622
G1 X90.303 Y100.23 E0.17295
G1 X91.439 Y100.004 E0.21147
G1 X91.604 Y99.98 E0.21702
G1 X92.368 Y99.896 E0.24258
G1 X93.27 Y99.829 E0.27267
G1 X115.486 Y98.479 E1.01294
G1 X116.379 Y98.436 E1.04267
G1 X116.654 Y98.426 E1.05183
G1 X117.442 Y98.408 E1.07804
G1 X117.865 Y98.406 E1.09211
G1 X118.286 Y98.417 E1.10612
G1 X118.782 Y98.438 E1.12263
G1 X119.105 Y98.456 E1.13339
G1 X119.718 Y98.5 E1.15383
G1 X120.121 Y98.537 E1.16729
G1 X120.58 Y98.587 E1.18265
G1 X120.9 Y98.626 E1.19337
G1 X121.311 Y98.683 E1.20717
G1 X121.645 Y98.735 E1.21841
G1 X122.262 Y98.84 E1.23923
G1 X122.676 Y98.918 E1.25324
G1 X122.981 Y98.982 E1.26361
G1 X123.303 Y99.055 E1.27459
G1 X123.535 Y99.111 E1.28253
G1 X123.827 Y99.186 E1.29255
G1 X124.821 Y99.455 E1.3268
G1 X125.28 Y99.59 E1.34272
G1 X125.667 Y99.713 E1.35622
G1 X125.934 Y99.802 E1.36558
G1 X126.453 Y99.984 E1.38388
G1 X126.83 Y100.126 E1.39727
G1 X127.229 Y100.282 E1.41152
G1 X127.725 Y100.49 E1.42941
G1 X128.374 Y100.781 E1.45307
G1 X128.645 Y100.907 E1.46301
G1 X129.245 Y101.198 E1.48519
G1 X129.409 Y101.281 E1.4913
G1 X129.693 Y101.43 E1.50197
G1 X130.017 Y101.606 E1.51423
G1 X130.325 Y101.78 E1.526
G1 X130.95 Y102.146 E1.55009
G1 X131.297 Y102.358 E1.56361
G1 X131.506 Y102.491 E1.57185
G1 X131.89 Y102.743 E1.58713
G1 X132.361 Y103.065 E1.6061
G1 X133.131 Y103.622 E1.63771
G1 X133.482 Y103.887 E1.65234
G1 X133.641 Y104.012 E1.65907
G1 X133.953 Y104.266 E1.67245
G1 X134.293 Y104.554 E1.68727
G1 X134.476 Y104.713 E1.69533
G1 X134.957 Y105.139 E1.7167
G1 X135.218 Y105.378 E1.72847
G1 X135.616 Y105.754 E1.74668
G1 X136.079 Y106.218 E1.76849
G1 X136.561 Y106.731 E1.7919
G1 X136.817 Y107.013 E1.80457
G1 X137.242 Y107.498 E1.82601
G1 X137.431 Y107.719 E1.83569
G1 X137.691 Y108.032 E1.84922
G1 X138.013 Y108.44 E1.86651
G1 X138.371 Y108.915 E1.88629
G1 X138.558 Y109.171 E1.89683
G1 X138.729 Y109.412 E1.90666
G1 X138.915 Y109.682 E1.91757
G1 X139.132 Y110.008 E1.93059
G1 X139.324 Y110.306 E1.94238
G1 X139.745 Y110.985 E1.96896
G1 X140.055 Y111.519 E1.98949
G1 X140.134 Y111.664 E1.99498
G1 X140.548 Y112.506 E2.02619
G1 X140.951 Y113.573 E2.06413
G1 X141.016 Y113.776 E2.07122
G1 X141.282 Y114.764 E2.10525
G1 X141.345 Y115.05 E2.11499
G1 X141.508 Y115.973 E2.14616
G1 X141.591 Y116.908 E2.17738
G1 X141.595 Y117.848 E2.20865
G1 X141.584 Y118.128 E2.21797
G1 X141.453 Y119.441 E2.26186
G1 X141.444 Y119.497 E2.26374
G1 X141.255 Y120.416 E2.29495
G1 X141.126 Y120.889 E2.31125
G1 X141.054 Y121.131 E2.31965
G1 X140.749 Y122.018 E2.35085
G1 X140.467 Y122.671 E2.37451
G1 X140.374 Y122.869 E2.38178
G1 X139.81 Y123.918 E2.4214
G1 X139.471 Y124.474 E2.44305
G1 X139.216 Y124.872 E2.45878
G1 X139.021 Y125.162 E2.4704
G1 X138.685 Y125.651 E2.49013
G1 X138.486 Y125.931 E2.50156
G1 X138.173 Y126.355 E2.51909
G1 X138.069 Y126.492 E2.52481
G1 X137.853 Y126.767 E2.53644
G1 X137.358 Y127.375 E2.56251
G1 X137.134 Y127.639 E2.57403
G1 X136.903 Y127.903 E2.5857
G1 X136.718 Y128.107 E2.59486
G1 X136.48 Y128.363 E2.60648
G1 X136.08 Y128.78 E2.6257
G1 X135.671 Y129.194 E2.64506
G1 X135.245 Y129.602 E2.66468
G1 X134.695 Y130.102 E2.6894
G1 X134.408 Y130.354 E2.7021
G1 X134.08 Y130.632 E2.7164
G1 X133.683 Y130.953 E2.73338
G1 X133.177 Y131.343 E2.75463
G1 X132.93 Y131.528 E2.7649
G1 X132.56 Y131.797 E2.78011
G1 X132.266 Y132.004 E2.79207
G1 X131.716 Y132.377 E2.81417
G1 X131.233 Y132.686 E2.83324
G1 X130.755 Y132.975 E2.85182
G1 X130.522 Y133.113 E2.86083
G1 X130.198 Y133.296 E2.87321
G1 X129.69 Y133.574 E2.89247
G1 X129.392 Y133.732 E2.90368
G1 X129.063 Y133.897 E2.91593
G1 X128.613 Y134.114 E2.93254
G1 X128.259 Y134.277 E2.9455
G1 X127.79 Y134.483 E2.96254
G1 X127.462 Y134.621 E2.97438
G1 X126.981 Y134.814 E2.99162
G1 X126.693 Y134.925 E3.00188
G1 X126.151 Y135.125 E3.0211
G1 X125.706 Y135.278 E3.03675
G1 X125.186 Y135.445 E3.05491
G1 X124.748 Y135.576 E3.07012
G1 X124.313 Y135.696 E3.08513
G1 X123.928 Y135.795 E3.09835
G1 X123.296 Y135.945 E3.11995
G1 X122.999 Y136.011 E3.13007
G1 X122.562 Y136.102 E3.14492
G1 X122.173 Y136.176 E3.15809
G1 X121.67 Y136.262 E3.17506
G1 X121.226 Y136.331 E3.19001
G1 X120.988 Y136.364 E3.198
G1 X120.629 Y136.41 E3.21004
G1 X120.354 Y136.441 E3.21924
G1 X119.867 Y136.491 E3.23552
G1 X119.371 Y136.531 E3.25207
G1 X118.703 Y136.568 E3.27433
G1 X118.221 Y136.584 E3.29037
G1 X117.607 Y136.594 E3.31079
G1 X117.085 Y136.59 E3.32815
G1 X116.284 Y136.565 E3.35481
G1 X115.973 Y136.551 E3.36516
G1 X93.236 Y135.169 E4.12279
G1 X92.637 Y135.124 E4.14277
G1 X92.27 Y135.09 E4.15503
G1 X91.805 Y135.039 E4.17059
G1 X90.878 Y134.898 E4.20178
G1 X89.987 Y134.683 E4.23226
G1 X89.717 Y134.606 E4.2416
G1 X88.827 Y134.311 E4.27278
G1 X88.224 Y134.061 E4.2945
G1 X88.026 Y133.972 E4.30172
G1 X87.188 Y133.551 E4.33291
G1 X86.782 Y133.314 E4.34854
G1 X86.593 Y133.198 E4.35592
G1 X85.815 Y132.674 E4.38712
G1 X85.31 Y132.278 E4.40846
G1 X85.143 Y132.139 E4.41569
G1 X84.448 Y131.508 E4.44691
G1 X83.883 Y130.906 E4.47437
G1 X83.668 Y130.659 E4.48526
G1 X83.083 Y129.926 E4.51645
G1 X82.516 Y129.068 E4.55066
G1 X82.398 Y128.87 E4.55833
G1 X81.952 Y128.045 E4.58952
G1 X81.634 Y127.324 E4.61573
G1 X81.502 Y126.994 E4.62755
G1 X81.191 Y126.109 E4.65875
G1 X80.899 Y124.915 E4.69963
G1 X80.843 Y124.613 E4.70985
G1 X80.712 Y123.684 E4.74105
G1 X80.671 Y123.112 E4.76013
G1 X80.652 Y122.636 E4.77597
G1 X80.629 Y121.514 E4.8133
G1 X80.627 Y121.288 E4.82081
G1 X80.629 Y113.119 E5.09252
G1 X80.637 Y112.554 E5.11131
G1 X80.647 Y112.212 E5.12269
G1 X80.659 Y111.947 E5.13151
G1 X80.773 Y110.791 E5.17015
G1 X80.806 Y110.574 E5.17745
G1 X81.043 Y109.429 E5.21634
G1 X81.098 Y109.22 E5.22353
G1 X81.463 Y108.087 E5.26312
G1 X81.525 Y107.925 E5.26889
G1 X82.099 Y106.668 E5.31485
G1 X82.206 Y106.468 E5.32239
G1 X82.683 Y105.661 E5.35357
G1 X83.043 Y105.14 E5.37463
G1 X83.207 Y104.917 E5.38384
G1 X83.795 Y104.186 E5.41504
G1 X84.639 Y103.323 E5.45519
G1 X84.925 Y103.061 E5.46809
G1 X85.643 Y102.457 E5.4993
G0 F6000 X85.9 Y102.764
G1 F1200 X87.041 Y102 E5.54497
G1 X87.293 Y101.854 E5.55466
G1 X88.109 Y101.428 E5.58527
G1 X88.694 Y101.175 E5.60647
G1 X88.913 Y101.088 E5.61431
G1 X90.206 Y100.668 E5.65953
G1 X90.402 Y100.618 E5.66625
G1 X91.496 Y100.399 E5.70336
G1 X91.661 Y100.375 E5.70891
G1 X92.398 Y100.294 E5.73357
G1 X93.148 Y100.238 E5.75858
G1 X115.646 Y98.871 E6.50825
G1 X116.398 Y98.835 E6.53329
G1 X116.663 Y98.826 E6.54211
G1 X117.451 Y98.808 E6.56832
G1 X117.859 Y98.806 E6.5819
G1 X118.269 Y98.816 E6.59554
G1 X118.765 Y98.837 E6.61205
G1 X119.076 Y98.855 E6.62241
G1 X119.689 Y98.899 E6.64285
G1 X120.078 Y98.934 E6.65584
G1 X120.537 Y98.984 E6.6712
G1 X120.845 Y99.022 E6.68152
G1 X121.256 Y99.079 E6.69532
G1 X121.578 Y99.129 E6.70616
G1 X122.195 Y99.234 E6.72697
G1 X122.594 Y99.31 E6.74048
G1 X122.899 Y99.374 E6.75085
G1 X123.209 Y99.444 E6.76142
G1 X123.441 Y99.5 E6.76936
G1 X123.723 Y99.572 E6.77904
G1 X124.717 Y99.841 E6.81329
G1 X125.159 Y99.971 E6.82861
G1 X125.546 Y100.094 E6.84212
G1 X125.804 Y100.18 E6.85116
G1 X126.314 Y100.359 E6.86914
G1 X126.685 Y100.499 E6.88233
G1 X127.084 Y100.655 E6.89658
G1 X127.561 Y100.855 E6.91378
G1 X128.21 Y101.146 E6.93744
G1 X128.471 Y101.267 E6.94701
G1 X129.065 Y101.555 E6.96896
G1 X129.229 Y101.638 E6.97507
G1 X129.502 Y101.782 E6.98534
G1 X129.826 Y101.958 E6.9976
G1 X130.122 Y102.125 E7.00891
G1 X130.747 Y102.491 E7.033
G1 X131.082 Y102.695 E7.04604
G1 X131.291 Y102.828 E7.05428
G1 X131.672 Y103.079 E7.06946
G1 X132.127 Y103.39 E7.08779
G1 X132.897 Y103.947 E7.1194
G1 X133.235 Y104.202 E7.13348
G1 X133.394 Y104.327 E7.14021
G1 X133.694 Y104.572 E7.15309
G1 X134.034 Y104.86 E7.16791
G1 X134.211 Y105.013 E7.17569
G1 X134.692 Y105.439 E7.19706
G1 X134.943 Y105.669 E7.20838
G1 X135.341 Y106.045 E7.22659
G1 X135.787 Y106.492 E7.2476
G1 X136.269 Y107.005 E7.27101
G1 X136.516 Y107.277 E7.28323
G1 X136.941 Y107.762 E7.30468
G1 X137.123 Y107.975 E7.314
G1 X137.383 Y108.288 E7.32753
G1 X137.694 Y108.681 E7.3442
G1 X138.052 Y109.156 E7.36398
G1 X138.232 Y109.402 E7.37412
G1 X138.403 Y109.643 E7.38395
G1 X138.582 Y109.903 E7.39445
G1 X138.799 Y110.229 E7.40747
G1 X138.984 Y110.517 E7.41886
G1 X139.405 Y111.196 E7.44543
G1 X139.704 Y111.711 E7.46524
G1 X139.783 Y111.856 E7.47073
G1 X140.188 Y112.682 E7.50133
G1 X140.57 Y113.695 E7.53733
G1 X140.635 Y113.898 E7.54442
G1 X140.892 Y114.85 E7.57722
G1 X140.955 Y115.136 E7.58696
G1 X141.114 Y116.043 E7.61759
G1 X141.193 Y116.96 E7.6482
G1 X141.195 Y117.832 E7.6772
G1 X141.184 Y118.112 E7.68652
G1 X141.058 Y119.378 E7.72884
G1 X141.049 Y119.434 E7.73073
G1 X140.743 Y120.775 E7.77647
G1 X140.671 Y121.017 E7.78487
G1 X140.37 Y121.887 E7.81549
G1 X140.105 Y122.5 E7.8377
G1 X140.012 Y122.698 E7.84498
G1 X139.468 Y123.71 E7.88319
G1 X139.129 Y124.266 E7.90485
G1 X138.884 Y124.65 E7.92
G1 X138.691 Y124.936 E7.93148
G1 X138.355 Y125.425 E7.95121
G1 X138.164 Y125.694 E7.96218
G1 X137.855 Y126.113 E7.9795
G1 X137.751 Y126.25 E7.98522
G1 X137.543 Y126.516 E7.99645
G1 X137.205 Y126.933 E8.01431
G1 X137.053 Y127.116 E8.02222
G1 X136.829 Y127.38 E8.03373
G1 X136.603 Y127.638 E8.04514
G1 X136.425 Y127.834 E8.05395
G1 X136.187 Y128.09 E8.06557
G1 X135.796 Y128.499 E8.08439
G1 X135.387 Y128.913 E8.10375
G1 X134.976 Y129.306 E8.12266
G1 X134.426 Y129.806 E8.14738
G1 X134.15 Y130.049 E8.15961
G1 X133.822 Y130.327 E8.17392
G1 X133.439 Y130.637 E8.1903
G1 X132.933 Y131.027 E8.21155
G1 X132.695 Y131.205 E8.22144
G1 X132.325 Y131.474 E8.23665
G1 X132.042 Y131.673 E8.24816
G1 X131.492 Y132.046 E8.27026
G1 X131.026 Y132.344 E8.28866
G1 X130.548 Y132.633 E8.30724
G1 X130.176 Y132.849 E8.32154
G1 X130.006 Y132.945 E8.32804
G1 X129.498 Y133.223 E8.3473
G1 X129.206 Y133.377 E8.35828
G1 X128.889 Y133.537 E8.37009
G1 X128.439 Y133.754 E8.38671
G1 X128.098 Y133.911 E8.39919
G1 X127.629 Y134.117 E8.41623
G1 X127.313 Y134.25 E8.42763
G1 X126.832 Y134.443 E8.44487
G1 X126.555 Y134.55 E8.45475
G1 X126.013 Y134.75 E8.47396
G1 X125.584 Y134.897 E8.48904
G1 X125.064 Y135.064 E8.50721
G1 X124.642 Y135.19 E8.52186
G1 X124.207 Y135.31 E8.53687
G1 X123.836 Y135.405 E8.5496
G1 X123.204 Y135.555 E8.57121
G1 X122.917 Y135.619 E8.58099
G1 X122.48 Y135.71 E8.59584
G1 X122.105 Y135.781 E8.60853
G1 X121.393 Y135.901 E8.63254
G1 X120.937 Y135.967 E8.64787
G1 X120.578 Y136.013 E8.65991
G1 X120.314 Y136.044 E8.66875
G1 X119.827 Y136.094 E8.68503
G1 X119.348 Y136.132 E8.70101
G1 X118.687 Y136.168 E8.72303
G1 X118.215 Y136.184 E8.73874
G1 X117.601 Y136.194 E8.75916
G1 X117.097 Y136.19 E8.77593
G1 X116.296 Y136.165 E8.80258
G1 X115.997 Y136.151 E8.81254
G1 X93.102 Y134.759 E9.57543
G1 X92.667 Y134.726 E9.58994
G1 X92.313 Y134.693 E9.60177
G1 X91.848 Y134.642 E9.61733
G1 X90.938 Y134.502 E9.64795
G1 X90.097 Y134.299 E9.67672
G1 X89.827 Y134.222 E9.68606
G1 X88.953 Y133.931 E9.7167
G1 X88.388 Y133.696 E9.73705
G1 X88.19 Y133.607 E9.74427
G1 X86.991 Y132.973 E9.78939
G1 X86.802 Y132.857 E9.79676
G1 X86.039 Y132.342 E9.82738
G1 X85.566 Y131.97 E9.84739
G1 X85.399 Y131.831 E9.85462
G1 X84.717 Y131.212 E9.88525
G1 X84.185 Y130.644 E9.91114
G1 X83.97 Y130.397 E9.92203
G1 X83.396 Y129.676 E9.95268
G1 X82.859 Y128.864 E9.98506
G1 X82.741 Y128.666 E9.99273
G1 X82.305 Y127.855 E10.02335
G1 X82.005 Y127.176 E10.04804
G1 X81.873 Y126.846 E10.05986
G1 X81.569 Y125.977 E10.09048
G1 X81.293 Y124.842 E10.12933
G1 X81.237 Y124.54 E10.13955
G1 X81.108 Y123.628 E10.17018
G1 X81.07 Y123.093 E10.18802
G1 X81.052 Y122.628 E10.2035
G1 X81.029 Y121.506 E10.24083
G1 X81.027 Y121.288 E10.24808
G1 X81.029 Y113.125 E10.51958
G1 X81.037 Y112.56 E10.53837
G1 X81.047 Y112.23 E10.54935
G1 X81.059 Y111.965 E10.55818
G1 X81.168 Y110.851 E10.59541
G1 X81.201 Y110.634 E10.60271
G1 X81.43 Y109.53 E10.64021
G1 X81.485 Y109.321 E10.6474
G1 X81.836 Y108.23 E10.68551
G1 X81.898 Y108.068 E10.69128
G1 X82.452 Y106.857 E10.73558
G1 X82.559 Y106.657 E10.74312
G1 X83.028 Y105.864 E10.77376
G1 X83.366 Y105.377 E10.79348
G1 X83.53 Y105.154 E10.80269
G1 X84.107 Y104.437 E10.8333
G1 X84.909 Y103.618 E10.87142
G1 X85.195 Y103.356 E10.88432
G1 X85.9 Y102.764 E10.91494
G0 F6000 X86.157 Y103.071
G1 F1200 X87.242 Y102.346 E10.95834
G1 X87.494 Y102.2 E10.96803
G1 X88.294 Y101.783 E10.99804
G1 X88.841 Y101.547 E11.01785
G1 X89.06 Y101.46 E11.02569
G1 X90.305 Y101.056 E11.06922
G1 X90.501 Y101.006 E11.07595
G1 X91.554 Y100.795 E11.11167
G1 X91.719 Y100.771 E11.11722
G1 X92.428 Y100.693 E11.14094
G1 X93.318 Y100.628 E11.17062
G1 X115.665 Y99.271 E11.91525
G1 X116.417 Y99.235 E11.94029
G1 X116.672 Y99.226 E11.94878
G1 X117.46 Y99.208 E11.975
G1 X117.852 Y99.206 E11.98803
G1 X118.252 Y99.216 E12.00134
G1 X118.748 Y99.237 E12.01785
G1 X119.047 Y99.254 E12.02781
G1 X119.66 Y99.298 E12.04826
G1 X120.035 Y99.332 E12.06078
G1 X120.494 Y99.382 E12.07614
G1 X120.79 Y99.419 E12.08606
G1 X121.201 Y99.476 E12.09986
G1 X121.511 Y99.524 E12.11029
G1 X122.128 Y99.629 E12.13111
G1 X122.512 Y99.701 E12.1441
G1 X122.817 Y99.765 E12.15447
G1 X123.115 Y99.833 E12.16463
G1 X123.347 Y99.889 E12.17257
G1 X123.619 Y99.958 E12.18191
G1 X124.613 Y100.227 E12.21616
G1 X125.038 Y100.352 E12.23089
G1 X125.425 Y100.475 E12.2444
G1 X125.673 Y100.558 E12.25309
G1 X126.174 Y100.734 E12.27076
G1 X126.539 Y100.871 E12.28372
G1 X126.938 Y101.027 E12.29797
G1 X127.397 Y101.22 E12.31453
G1 X128.046 Y101.511 E12.33819
G1 X128.298 Y101.628 E12.34743
G1 X128.884 Y101.912 E12.36909
G1 X129.048 Y101.995 E12.3752
G1 X129.311 Y102.133 E12.38508
G1 X129.635 Y102.309 E12.39734
G1 X129.92 Y102.47 E12.40823
G1 X130.545 Y102.836 E12.43232
G1 X130.867 Y103.033 E12.44488
G1 X131.299 Y103.311 E12.46196
G1 X131.455 Y103.414 E12.46818
G1 X131.892 Y103.714 E12.48581
G1 X132.662 Y104.271 E12.51742
G1 X132.988 Y104.516 E12.53098
G1 X133.147 Y104.641 E12.53771
G1 X133.436 Y104.877 E12.55012
G1 X133.776 Y105.165 E12.56494
G1 X133.946 Y105.312 E12.57241
G1 X134.427 Y105.738 E12.59378
G1 X134.669 Y105.959 E12.60468
G1 X135.067 Y106.335 E12.6229
G1 X135.496 Y106.766 E12.64312
G1 X135.978 Y107.279 E12.66653
G1 X136.215 Y107.541 E12.67828
G1 X136.64 Y108.026 E12.69973
G1 X136.815 Y108.23 E12.70867
G1 X137.075 Y108.543 E12.72221
G1 X137.375 Y108.922 E12.73828
G1 X137.733 Y109.397 E12.75807
G1 X137.906 Y109.634 E12.76782
G1 X138.077 Y109.875 E12.77765
G1 X138.249 Y110.125 E12.78775
G1 X138.466 Y110.451 E12.80077
G1 X138.644 Y110.728 E12.81172
G1 X139.065 Y111.407 E12.83829
G1 X139.353 Y111.902 E12.85734
G1 X139.432 Y112.047 E12.86283
G1 X139.828 Y112.858 E12.89285
G1 X140.189 Y113.817 E12.92693
G1 X140.254 Y114.02 E12.93402
G1 X140.501 Y114.936 E12.96558
G1 X140.564 Y115.222 E12.97532
G1 X140.719 Y116.111 E13.00533
G1 X140.795 Y117.011 E13.03537
G1 X140.795 Y117.816 E13.06215
G1 X140.784 Y118.096 E13.07147
G1 X140.663 Y119.315 E13.11221
G1 X140.654 Y119.371 E13.1141
G1 X140.359 Y120.661 E13.15811
G1 X140.287 Y120.903 E13.16651
G1 X139.992 Y121.756 E13.19653
G1 X139.743 Y122.33 E13.21734
G1 X139.65 Y122.528 E13.22461
G1 X139.127 Y123.502 E13.26138
G1 X138.788 Y124.058 E13.28304
G1 X138.552 Y124.427 E13.29761
