;FLAVOR:Marlin
;TIME:13698
;Filament used: 10.429m
;Layer height: 0.2
;MINX:65.246
;MINY:65.242
;MINZ:0.2
;MAXX:169.765
;MAXY:169.76
;MAXZ:12.8
;Generated with Cura_SteamEngine 5.2.1
M140 S50
M105
M190 S50
M104 S200
M105
M109 S200
M82 ;absolute extrusion mode
; Ender 3 Custom Start G-code
G92 E0 ; Reset Extruder
G28 ; Home all axes
G1 Z2.0 F3000 ; Move Z Axis up little to prevent scratching of Heat Bed
G1 X0.1 Y20 Z0.3 F5000.0 ; Move to start position
G1 X0.1 Y200.0 Z0.3 F1500.0 E15 ; Draw the first line
G1 X0.4 Y200.0 Z0.3 F5000.0 ; Move to side a little
G1 X0.4 Y20 Z0.3 F1500.0 E30 ; Draw the second line
G92 E0 ; Reset Extruder
G1 Z2.0 F3000 ; Move Z Axis up little to prevent scratching of Heat Bed
G1 X5 Y20 Z0.3 F5000.0 ; Move over to prevent blob squish
G92 E0
G92 E0
G1 F2700 E-5
;LAYER_COUNT:64
;LAYER:0
M107
G0 F6000 X80.321 Y80.778 Z0.2
;TYPE:SKIRT
G1 F2700 E0
G1 F1200 X80.957 Y80.151 E0.0303
G1 X81.887 Y79.262 E0.07395
G1 X82.601 Y78.606 E0.10684
G1 X83.377 Y77.928 E0.1418
G1 X84.228 Y77.208 E0.17962
G1 X84.982 Y76.594 E0.2126
G1 X85.71 Y76.031 E0.24383
G1 X86.706 Y75.284 E0.28606
G1 X87.51 Y74.705 E0.31968
G1 X88.208 Y74.229 E0.34834
G1 X89.285 Y73.517 E0.39214
G1 X90.09 Y73.007 E0.42447
G1 X90.844 Y72.555 E0.45429
G1 X92.403 Y71.663 E0.51523
G1 X92.786 Y71.454 E0.53003
G1 X93.738 Y70.961 E0.5664
G1 X94.77 Y70.446 E0.60553
G1 X95.328 Y70.177 E0.62654
G1 X96.523 Y69.641 E0.67097
G1 X97.458 Y69.241 E0.70547
G1 X98.17 Y68.947 E0.73161
G1 X99.459 Y68.458 E0.77838
G1 X100.507 Y68.083 E0.81614
G1 X101.46 Y67.762 E0.85026
G1 X102.245 Y67.52 E0.87812
G1 X103.363 Y67.192 E0.91765
G1 X104.425 Y66.902 E0.955
G1 X105.317 Y66.684 E0.98615
G1 X106.501 Y66.413 E1.02736
G1 X107.477 Y66.21 E1.06118
G1 X108.553 Y66.015 E1.09828
G1 X109.585 Y65.845 E1.13376
G1 X110.599 Y65.697 E1.16852
G1 X111.63 Y65.574 E1.20375
G1 X113.211 Y65.415 E1.25765
G1 X113.641 Y65.38 E1.27229
G1 X114.558 Y65.324 E1.30346
G1 X116.398 Y65.25 E1.36593
G1 X116.825 Y65.242 E1.38042
G1 X117.815 Y65.243 E1.41401
G1 X118.989 Y65.261 E1.45384
G1 X119.921 Y65.294 E1.48548
G1 X120.978 Y65.357 E1.5214
G1 X122.051 Y65.438 E1.55791
G1 X123.066 Y65.533 E1.59249
G1 X123.908 Y65.634 E1.62126
G1 X125.209 Y65.81 E1.6658
G1 X126.16 Y65.958 E1.69845
G1 X127.139 Y66.136 E1.73221
G1 X128.14 Y66.333 E1.76682
G1 X129.158 Y66.551 E1.80214
G1 X130.004 Y66.755 E1.83166
G1 X131.821 Y67.236 E1.89543
G1 X132.229 Y67.353 E1.90983
G1 X133.325 Y67.693 E1.94876
G1 X134.786 Y68.176 E2.00096
G1 X135.191 Y68.319 E2.01553
G1 X136.195 Y68.696 E2.05191
G1 X137.241 Y69.107 E2.09004
G1 X137.821 Y69.345 E2.11131
G1 X139.078 Y69.901 E2.15794
G1 X140.136 Y70.392 E2.19751
G1 X140.971 Y70.799 E2.22902
G1 X141.661 Y71.156 E2.25538
G1 X142.789 Y71.762 E2.29882
G1 X143.696 Y72.271 E2.3341
G1 X144.62 Y72.824 E2.37064
G1 X145.984 Y73.676 E2.4252
G1 X146.343 Y73.911 E2.43975
G1 X147.275 Y74.547 E2.47803
G1 X148.134 Y75.153 E2.51369
G1 X148.92 Y75.729 E2.54675
G1 X149.727 Y76.353 E2.58136
G1 X150.642 Y77.084 E2.62109
G1 X151.353 Y77.674 E2.65244
G1 X152.034 Y78.269 E2.68312
G1 X152.871 Y79.022 E2.72131
G1 X153.69 Y79.786 E2.75931
G1 X154.407 Y80.493 E2.79347
G1 X155.08 Y81.176 E2.826
G1 X155.88 Y82.016 E2.86535
G1 X156.571 Y82.784 E2.9004
G1 X157.236 Y83.546 E2.93471
G1 X157.909 Y84.345 E2.97015
G1 X158.463 Y85.038 E3.00025
G1 X159.27 Y86.081 E3.04499
G1 X159.842 Y86.852 E3.07756
G1 X160.424 Y87.679 E3.11187
G1 X160.972 Y88.482 E3.14485
G1 X161.577 Y89.405 E3.18229
G1 X162.17 Y90.365 E3.22057
G1 X162.705 Y91.263 E3.25603
G1 X163.212 Y92.149 E3.29066
G1 X163.663 Y92.989 E3.32301
G1 X164.23 Y94.082 E3.36478
G1 X164.617 Y94.867 E3.39447
G1 X165.065 Y95.833 E3.4306
G1 X165.453 Y96.705 E3.46298
G1 X165.905 Y97.771 E3.50226
G1 X166.261 Y98.678 E3.53531
G1 X166.684 Y99.809 E3.57628
G1 X166.986 Y100.665 E3.60707
G1 X167.321 Y101.698 E3.64391
G1 X167.632 Y102.71 E3.67983
G1 X167.905 Y103.655 E3.7132
G1 X168.138 Y104.548 E3.74451
G1 X168.556 Y106.295 E3.80545
G1 X168.646 Y106.71 E3.81986
G1 X168.851 Y107.757 E3.85605
G1 X169.13 Y109.339 E3.91055
G1 X169.197 Y109.768 E3.92528
G1 X169.319 Y110.666 E3.95603
G1 X169.45 Y111.744 E3.99287
G1 X169.538 Y112.565 E4.02088
G1 X169.648 Y113.958 E4.06828
G1 X169.713 Y115.068 E4.10601
G1 X169.75 Y115.982 E4.13704
G1 X169.765 Y116.903 E4.16829
G1 X169.765 Y118.186 E4.21181
G1 X169.746 Y119.14 E4.24419
G1 X169.699 Y120.18 E4.2795
G1 X169.632 Y121.278 E4.31682
G1 X169.553 Y122.272 E4.35065
G1 X169.439 Y123.348 E4.38736
G1 X169.236 Y124.96 E4.44248
G1 X169.173 Y125.39 E4.45722
G1 X169.008 Y126.376 E4.49114
G1 X168.807 Y127.481 E4.52924
G1 X168.615 Y128.436 E4.56229
G1 X168.378 Y129.474 E4.59841
G1 X168.116 Y130.543 E4.63575
G1 X167.871 Y131.468 E4.66821
G1 X167.552 Y132.556 E4.70668
G1 X167.072 Y134.081 E4.76091
G1 X166.934 Y134.488 E4.77549
G1 X166.605 Y135.405 E4.80854
G1 X166.235 Y136.391 E4.84427
G1 X165.841 Y137.387 E4.88061
G1 X165.416 Y138.379 E4.91722
G1 X164.756 Y139.841 E4.97164
G1 X164.571 Y140.229 E4.98622
G1 X164.094 Y141.182 E5.02238
G1 X163.566 Y142.197 E5.06119
G1 X163.107 Y143.04 E5.09376
G1 X162.697 Y143.75 E5.12157
G1 X162.031 Y144.865 E5.16563
G1 X161.509 Y145.704 E5.19915
G1 X160.936 Y146.57 E5.23438
G1 X160.374 Y147.394 E5.26822
G1 X159.731 Y148.303 E5.30599
G1 X159.159 Y149.064 E5.33829
G1 X158.515 Y149.897 E5.37401
G1 X157.832 Y150.749 E5.41106
G1 X157.293 Y151.387 E5.43939
G1 X156.06 Y152.785 E5.50263
G1 X155.778 Y153.093 E5.5168
G1 X155.03 Y153.875 E5.55351
G1 X154.29 Y154.624 E5.58923
G1 X153.563 Y155.335 E5.62373
G1 X152.754 Y156.084 E5.66113
G1 X151.567 Y157.142 E5.71507
G1 X151.237 Y157.424 E5.7298
G1 X150.476 Y158.049 E5.76321
G1 X149.532 Y158.801 E5.80415
G1 X148.822 Y159.344 E5.83448
G1 X147.926 Y159.995 E5.87205
G1 X147.18 Y160.52 E5.903
G1 X146.233 Y161.162 E5.94181
G1 X145.365 Y161.716 E5.97674
G1 X144.53 Y162.232 E6.01004
G1 X143.575 Y162.798 E6.04771
G1 X142.679 Y163.297 E6.0825
G1 X141.8 Y163.771 E6.11638
G1 X140.805 Y164.284 E6.15436
G1 X140.067 Y164.64 E6.18215
G1 X138.869 Y165.196 E6.22696
G1 X137.952 Y165.599 E6.26094
G1 X137.206 Y165.905 E6.2883
G1 X135.971 Y166.391 E6.33332
G1 X135.076 Y166.722 E6.3657
G1 X134.221 Y167.015 E6.39636
G1 X132.5 Y167.565 E6.45765
G1 X132.097 Y167.685 E6.47192
G1 X131.043 Y167.975 E6.509
G1 X130.04 Y168.235 E6.54416
G1 X129.363 Y168.401 E6.5678
G1 X128.065 Y168.682 E6.61286
G1 X127.088 Y168.874 E6.64664
G1 X125.999 Y169.068 E6.68416
G1 X124.95 Y169.226 E6.72015
G1 X124.002 Y169.355 E6.75261
G1 X122.903 Y169.484 E6.79015
G1 X121.81 Y169.581 E6.82738
G1 X120.195 Y169.693 E6.8823
G1 X119.772 Y169.714 E6.89667
G1 X118.754 Y169.744 E6.93122
G1 X117.758 Y169.759 E6.96501
G1 X116.948 Y169.76 E6.99249
G1 X115.666 Y169.727 E7.036
G1 X114.68 Y169.684 E7.06948
G1 X113.901 Y169.639 E7.09595
G1 X112.483 Y169.516 E7.14424
G1 X111.388 Y169.4 E7.18159
G1 X110.395 Y169.276 E7.21554
G1 X109.396 Y169.125 E7.24982
G1 X108.462 Y168.97 E7.28194
G1 X107.332 Y168.762 E7.32092
G1 X106.477 Y168.581 E7.35057
G1 X105.372 Y168.33 E7.38901
G1 X104.268 Y168.057 E7.42759
G1 X103.32 Y167.795 E7.46096
G1 X102.19 Y167.465 E7.5009
G1 X101.605 Y167.285 E7.52166
G1 X100.457 Y166.898 E7.56276
G1 X99.232 Y166.46 E7.60689
G1 X98.347 Y166.124 E7.63901
G1 X97.546 Y165.796 E7.66837
G1 X95.843 Y165.059 E7.73133
G1 X95.452 Y164.88 E7.74592
G1 X94.555 Y164.447 E7.77971
G1 X93.55 Y163.944 E7.81783
G1 X92.682 Y163.489 E7.85108
G1 X91.757 Y162.973 E7.88701
G1 X90.744 Y162.387 E7.92672
G1 X90.27 Y162.104 E7.94545
G1 X89.014 Y161.305 E7.99595
G1 X87.698 Y160.425 E8.04965
G1 X87.354 Y160.185 E8.06388
G1 X86.673 Y159.691 E8.09243
G1 X85.203 Y158.58 E8.15494
G1 X84.861 Y158.31 E8.16972
G1 X84.069 Y157.658 E8.20452
G1 X83.161 Y156.888 E8.24491
G1 X82.716 Y156.499 E8.26496
G1 X81.87 Y155.721 E8.30395
G1 X81.012 Y154.902 E8.3442
G1 X80.224 Y154.122 E8.38181
G1 X79.48 Y153.342 E8.41838
G1 X78.386 Y152.15 E8.47327
G1 X78.096 Y151.821 E8.48815
G1 X77.424 Y151.026 E8.52346
G1 X76.746 Y150.202 E8.55966
G1 X76.306 Y149.652 E8.58356
G1 X75.513 Y148.601 E8.62822
G1 X74.913 Y147.776 E8.66283
G1 X74.284 Y146.877 E8.70005
G1 X73.721 Y146.023 E8.73476
G1 X73.2 Y145.208 E8.76757
G1 X72.6 Y144.23 E8.8065
G1 X72.056 Y143.286 E8.84346
G1 X71.612 Y142.491 E8.87435
G1 X71.094 Y141.52 E8.91169
G1 X70.695 Y140.724 E8.94189
G1 X70.199 Y139.698 E8.98056
G1 X69.87 Y138.992 E9.00698
G1 X69.327 Y137.732 E9.05353
G1 X68.95 Y136.814 E9.08719
G1 X68.567 Y135.832 E9.12295
G1 X68.169 Y134.719 E9.16305
G1 X67.674 Y133.241 E9.21593
G1 X67.545 Y132.829 E9.23058
G1 X67.235 Y131.763 E9.26824
G1 X66.996 Y130.898 E9.29869
G1 X66.718 Y129.814 E9.33665
G1 X66.489 Y128.807 E9.37169
G1 X66.266 Y127.753 E9.40824
G1 X66.069 Y126.732 E9.44351
G1 X65.896 Y125.683 E9.47958
G1 X65.667 Y124.112 E9.53344
G1 X65.613 Y123.681 E9.54818
G1 X65.501 Y122.609 E9.58474
G1 X65.401 Y121.484 E9.62306
G1 X65.337 Y120.563 E9.65438
G1 X65.287 Y119.439 E9.69255
G1 X65.248 Y117.873 E9.74569
G1 X65.246 Y117.44 E9.76038
G1 X65.259 Y116.543 E9.79082
G1 X65.292 Y115.4 E9.82961
G1 X65.344 Y114.302 E9.8669
G1 X65.409 Y113.43 E9.89657
G1 X65.51 Y112.295 E9.93522
G1 X65.629 Y111.181 E9.97323
G1 X65.74 Y110.356 E10.00147
G1 X65.943 Y109.016 E10.04745
G1 X66.101 Y108.092 E10.07925
G1 X66.314 Y107.015 E10.1165
G1 X66.656 Y105.451 E10.17081
G1 X66.755 Y105.036 E10.18529
G1 X67.046 Y103.92 E10.22441
G1 X67.264 Y103.131 E10.25218
G1 X67.597 Y102.003 E10.29208
G1 X67.928 Y100.989 E10.32827
G1 X68.466 Y99.443 E10.3838
G1 X68.614 Y99.044 E10.39824
G1 X68.978 Y98.117 E10.43203
G1 X69.351 Y97.206 E10.46542
G1 X69.81 Y96.143 E10.5047
G1 X70.153 Y95.403 E10.53237
G1 X70.652 Y94.362 E10.57154
G1 X71.16 Y93.352 E10.60989
G1 X71.668 Y92.411 E10.64617
G1 X72.467 Y90.996 E10.7013
G1 X72.686 Y90.625 E10.71592
G1 X73.232 Y89.743 E10.75111
G1 X73.768 Y88.904 E10.78488
G1 X74.355 Y88.02 E10.82088
G1 X74.978 Y87.135 E10.8576
G1 X75.546 Y86.354 E10.89036
G1 X76.225 Y85.453 E10.92864
G1 X76.739 Y84.808 E10.95662
G1 X77.59 Y83.772 E11.0021
G1 X78.211 Y83.047 E11.03449
G1 X78.869 Y82.317 E11.06783
G1 X79.568 Y81.561 E11.10276
G1 X80.321 Y80.778 E11.13961
G0 F6000 X80.602 Y81.062
G1 F1200 X81.238 Y80.435 E11.16991
G1 X82.04 Y79.667 E11.20758
G1 X82.864 Y78.907 E11.24561
G1 X83.636 Y78.233 E11.28038
G1 X84.482 Y77.517 E11.31798
G1 X85.226 Y76.911 E11.35053
G1 X85.954 Y76.348 E11.38175
G1 X86.941 Y75.607 E11.42362
G1 X87.47 Y75.222 E11.44582
G1 X88.557 Y74.477 E11.49053
G1 X89.5 Y73.854 E11.52887
G1 X90.296 Y73.35 E11.56083
G1 X91.245 Y72.784 E11.59832
G1 X92.601 Y72.01 E11.65129
G1 X92.97 Y71.809 E11.66554
G1 X93.771 Y71.393 E11.69616
G1 X94.807 Y70.874 E11.73547
G1 X95.79 Y70.404 E11.77244
G1 X96.681 Y70.008 E11.80552
G1 X97.616 Y69.608 E11.84002
G1 X98.623 Y69.198 E11.8769
G1 X99.594 Y68.834 E11.91208
G1 X100.637 Y68.461 E11.94966
G1 X101.578 Y68.144 E11.98335
G1 X102.363 Y67.902 E12.01122
G1 X103.631 Y67.531 E12.05604
G1 X104.519 Y67.291 E12.08725
G1 X105.562 Y67.037 E12.12366
G1 X106.431 Y66.838 E12.15391
G1 X107.241 Y66.664 E12.18201
G1 X108.447 Y66.439 E12.22363
G1 X109.493 Y66.265 E12.25961
G1 X110.647 Y66.094 E12.29918
G1 X111.67 Y65.972 E12.33414
G1 X113.251 Y65.813 E12.38804
G1 X113.666 Y65.78 E12.40217
G1 X114.818 Y65.712 E12.44132
G1 X116.414 Y65.65 E12.4955
G1 X116.825 Y65.642 E12.50945
G1 X117.66 Y65.642 E12.53778
G1 X118.804 Y65.657 E12.57659
G1 X119.897 Y65.693 E12.61369
G1 X120.948 Y65.756 E12.64941
G1 X122.016 Y65.837 E12.68575
G1 X123.018 Y65.93 E12.71989
G1 X123.86 Y66.031 E12.74866
G1 X124.996 Y66.184 E12.78754
G1 X125.787 Y66.302 E12.81467
G1 X126.894 Y66.497 E12.85281
G1 X128.208 Y66.755 E12.89824
G1 X129.064 Y66.94 E12.92795
G1 X129.91 Y67.144 E12.95747
G1 X131.718 Y67.623 E13.02092
G1 X132.112 Y67.735 E13.03482
G1 X132.992 Y68.006 E13.06606
G1 X134.66 Y68.556 E13.12564
G1 X135.051 Y68.693 E13.1397
G1 X135.9 Y69.011 E13.17045
G1 X137.089 Y69.478 E13.21379
G1 X137.951 Y69.836 E13.24546
G1 X138.763 Y70.197 E13.2756
G1 X139.963 Y70.752 E13.32046
G1 X140.787 Y71.154 E13.35156
G1 X141.477 Y71.511 E13.37792
G1 X142.732 Y72.186 E13.42626
G1 X143.491 Y72.614 E13.45582
G1 X144.222 Y73.05 E13.4847
G1 X145.772 Y74.016 E13.54666
G1 X146.118 Y74.242 E13.56068
G1 X147.045 Y74.874 E13.59874
G1 X147.779 Y75.391 E13.6292
G1 X148.676 Y76.046 E13.66688
G1 X149.34 Y76.558 E13.69533
G1 X150.388 Y77.394 E13.74081
G1 X151.089 Y77.976 E13.77172
G1 X151.893 Y78.68 E13.80797
G1 X152.707 Y79.415 E13.84518
G1 X153.409 Y80.071 E13.87777
G1 X154.122 Y80.774 E13.91174
G1 X154.896 Y81.56 E13.94917
G1 X155.363 Y82.047 E13.97206
G1 X156.154 Y82.917 E14.01195
G1 X156.934 Y83.809 E14.05215
G1 X157.597 Y84.595 E14.08703
G1 X158.151 Y85.288 E14.11713
G1 X158.857 Y86.199 E14.15623
G1 X159.329 Y86.826 E14.18285
G1 X160.093 Y87.905 E14.22771
G1 X160.727 Y88.835 E14.26589
G1 X161.237 Y89.615 E14.29751
G1 X161.827 Y90.57 E14.33559
G1 X162.359 Y91.463 E14.37085
G1 X162.701 Y92.054 E14.39402
G1 X163.308 Y93.174 E14.43724
G1 X163.872 Y94.261 E14.47878
G1 X164.255 Y95.036 E14.50811
G1 X164.7 Y95.996 E14.54401
G1 X165.088 Y96.868 E14.57639
G1 X165.533 Y97.918 E14.61508
G1 X165.887 Y98.818 E14.64789
G1 X166.308 Y99.944 E14.68867
G1 X166.606 Y100.789 E14.71907
G1 X166.939 Y101.816 E14.75569
G1 X167.249 Y102.823 E14.79144
G1 X167.518 Y103.756 E14.82438
G1 X167.751 Y104.649 E14.85569
G1 X168.167 Y106.388 E14.91635
G1 X168.254 Y106.787 E14.9302
G1 X168.457 Y107.826 E14.96612
G1 X168.736 Y109.408 E15.02062
G1 X168.801 Y109.822 E15.03483
G1 X168.923 Y110.72 E15.06558
G1 X169.07 Y111.94 E15.10727
G1 X169.17 Y112.926 E15.14089
G1 X169.237 Y113.809 E15.17093
G1 X169.313 Y115.086 E15.21433
G1 X169.35 Y115.988 E15.24496
G1 X169.365 Y116.909 E15.27621
G1 X169.365 Y118.18 E15.31933
G1 X169.347 Y119.123 E15.35132
G1 X169.3 Y120.156 E15.3864
G1 X169.233 Y121.248 E15.42352
G1 X169.155 Y122.231 E15.45697
G1 X169.042 Y123.298 E15.49337
G1 X168.839 Y124.91 E15.54849
G1 X168.778 Y125.325 E15.56272
G1 X168.64 Y126.155 E15.59127
G1 X168.414 Y127.404 E15.63433
G1 X168.225 Y128.348 E15.66699
G1 X168.03 Y129.208 E15.69691
G1 X167.765 Y130.296 E15.7349
G1 X167.487 Y131.356 E15.77207
G1 X167.237 Y132.215 E15.80242
G1 X166.69 Y133.96 E15.86446
G1 X166.558 Y134.353 E15.87853
G1 X166.285 Y135.115 E15.90599
G1 X165.81 Y136.382 E15.95189
G1 X165.473 Y137.23 E15.98285
G1 X165.051 Y138.214 E16.01917
G1 X164.391 Y139.676 E16.07359
G1 X164.213 Y140.051 E16.08768
G1 X163.739 Y140.998 E16.1236
G1 X163.283 Y141.876 E16.15717
G1 X162.76 Y142.84 E16.19437
G1 X162.273 Y143.682 E16.22737
G1 X161.691 Y144.655 E16.26584
G1 X161.175 Y145.484 E16.29896
G1 X160.696 Y146.21 E16.32847
G1 X160.043 Y147.169 E16.36783
G1 X159.411 Y148.063 E16.40497
G1 X158.938 Y148.694 E16.43173
G1 X158.104 Y149.772 E16.47797
G1 X157.526 Y150.491 E16.50926
G1 X156.833 Y151.307 E16.54558
G1 X155.761 Y152.52 E16.6005
G1 X155.488 Y152.817 E16.61419
G1 X154.746 Y153.594 E16.65064
G1 X154.009 Y154.34 E16.68621
G1 X153.291 Y155.042 E16.72028
G1 X152.652 Y155.636 E16.74988
G1 X151.301 Y156.843 E16.81134
G1 X150.983 Y157.115 E16.82553
G1 X150.227 Y157.736 E16.85872
G1 X149.406 Y158.391 E16.89435
G1 X148.587 Y159.021 E16.92941
G1 X147.696 Y159.668 E16.96677
G1 X146.95 Y160.193 E16.99771
G1 X146.018 Y160.825 E17.03592
G1 X145.298 Y161.286 E17.06492
G1 X144.178 Y161.978 E17.10958
G1 X143.381 Y162.449 E17.14099
G1 X142.625 Y162.871 E17.17036
G1 X141.61 Y163.419 E17.2095
G1 X140.909 Y163.784 E17.23631
G1 X139.752 Y164.346 E17.27994
G1 X138.706 Y164.831 E17.31906
G1 X138.091 Y165.105 E17.3419
G1 X137.054 Y165.535 E17.37999
G1 X135.831 Y166.016 E17.42457
G1 X134.946 Y166.344 E17.45659
G1 X134.091 Y166.637 E17.48725
G1 X132.378 Y167.184 E17.54826
G1 X131.99 Y167.3 E17.562
G1 X131.104 Y167.545 E17.59318
G1 X130.084 Y167.811 E17.62894
G1 X128.961 Y168.082 E17.66813
G1 X127.988 Y168.289 E17.70188
G1 X127.011 Y168.481 E17.73566
G1 X125.939 Y168.673 E17.77261
G1 X125.054 Y168.807 E17.80297
G1 X123.787 Y168.979 E17.84635
G1 X122.867 Y169.085 E17.87777
G1 X121.782 Y169.182 E17.91473
G1 X120.167 Y169.294 E17.96965
G1 X119.76 Y169.314 E17.98347
G1 X118.748 Y169.344 E18.01782
G1 X117.752 Y169.359 E18.05161
G1 X116.645 Y169.356 E18.08917
