;FLAVOR:Marlin
;TIME:9218
;Filament used: 7.94361m
;Layer height: 0.2
;MINX:65.246
;MINY:65.242
;MINZ:0.2
;MAXX:169.766
;MAXY:169.76
;MAXZ:12.6
;Generated with Cura_SteamEngine 4.11.0
M140 S50
M105
M190 S50
M104 S200
M105
M109 S200
M82 ;absolute extrusion mode
; Ender 3 Custom Start G-code
G92 E0 ; Reset Extruder
G28 ; Home all axes
G1 Z2.0 F3000 ; Move Z Axis up little to prevent scratching of Heat Bed
G1 X0.1 Y20 Z0.3 F5000.0 ; Move to start position
G1 X0.1 Y200.0 Z0.3 F1500.0 E15 ; Draw the first line
G1 X0.4 Y200.0 Z0.3 F5000.0 ; Move to side a little
G1 X0.4 Y20 Z0.3 F1500.0 E30 ; Draw the second line
G92 E0 ; Reset Extruder
G1 Z2.0 F3000 ; Move Z Axis up little to prevent scratching of Heat Bed
G1 X5 Y20 Z0.3 F5000.0 ; Move over to prevent blob squish
G92 E0
G92 E0
G1 F2700 E-5
;LAYER_COUNT:64
;LAYER:0
M107
G0 F6000 X80.321 Y80.778 Z0.2
;TYPE:SKIRT
G1 F2700 E0
G1 F1200 X81.078 Y80.034 E0.03707
G1 X81.887 Y79.262 E0.07612
G1 X82.368 Y78.816 E0.09903
G1 X82.601 Y78.606 E0.10998
G1 X83.377 Y77.928 E0.14597
G1 X84.228 Y77.208 E0.1849
G1 X84.72 Y76.803 E0.20715
G1 X84.982 Y76.594 E0.21886
G1 X85.839 Y75.933 E0.25666
G1 X86.706 Y75.284 E0.29448
G1 X87.235 Y74.899 E0.31733
G1 X87.51 Y74.705 E0.32908
G1 X88.208 Y74.229 E0.35858
G1 X89.285 Y73.517 E0.40367
G1 X89.818 Y73.176 E0.42577
G1 X90.09 Y73.007 E0.43695
G1 X90.844 Y72.555 E0.46765
G1 X92.015 Y71.88 E0.51486
G1 X92.483 Y71.618 E0.53359
G1 X92.786 Y71.454 E0.54562
G1 X93.738 Y70.961 E0.58306
G1 X94.77 Y70.446 E0.62334
G1 X95.328 Y70.177 E0.64497
G1 X95.627 Y70.039 E0.65647
G1 X96.523 Y69.641 E0.69071
G1 X97.599 Y69.182 E0.73157
G1 X98.17 Y68.947 E0.75313
G1 X98.483 Y68.824 E0.76488
G1 X99.459 Y68.458 E0.80128
G1 X100.507 Y68.083 E0.84015
G1 X101.138 Y67.867 E0.86344
G1 X101.46 Y67.762 E0.87527
G1 X102.396 Y67.475 E0.90946
G1 X103.525 Y67.146 E0.95053
G1 X104.108 Y66.985 E0.97165
G1 X104.425 Y66.902 E0.98309
G1 X105.317 Y66.684 E1.01516
G1 X106.501 Y66.413 E1.05758
G1 X107.157 Y66.273 E1.08101
G1 X107.477 Y66.21 E1.0924
G1 X108.553 Y66.015 E1.13059
G1 X109.585 Y65.845 E1.16711
G1 X110.281 Y65.74 E1.19169
G1 X110.599 Y65.697 E1.2029
G1 X111.578 Y65.58 E1.23733
G1 X112.751 Y65.457 E1.27852
G1 X113.307 Y65.406 E1.29802
G1 X113.641 Y65.38 E1.30972
G1 X114.558 Y65.324 E1.34181
G1 X115.841 Y65.267 E1.38666
G1 X116.481 Y65.247 E1.40902
G1 X116.825 Y65.242 E1.42103
G1 X117.66 Y65.242 E1.45019
G1 X118.81 Y65.257 E1.49036
G1 X119.614 Y65.28 E1.51845
G1 X119.921 Y65.294 E1.52918
G1 X120.978 Y65.357 E1.56616
G1 X122.051 Y65.438 E1.60374
G1 X122.721 Y65.497 E1.62723
G1 X123.066 Y65.533 E1.63934
G1 X123.908 Y65.634 E1.66896
G1 X125.204 Y65.81 E1.71463
G1 X125.824 Y65.903 E1.73653
G1 X126.156 Y65.958 E1.74828
G1 X127.15 Y66.139 E1.78357
G1 X128.13 Y66.331 E1.81844
G1 X128.87 Y66.487 E1.84485
G1 X129.183 Y66.558 E1.85606
G1 X130.271 Y66.823 E1.89517
G1 X131.288 Y67.09 E1.93189
G1 X131.925 Y67.265 E1.95496
G1 X132.246 Y67.358 E1.96663
G1 X133.078 Y67.614 E1.99703
G1 X134.307 Y68.013 E2.04216
G1 X134.867 Y68.203 E2.06281
G1 X135.191 Y68.319 E2.07483
G1 X136.195 Y68.696 E2.11228
G1 X137.241 Y69.107 E2.15153
G1 X137.821 Y69.345 E2.17342
G1 X138.114 Y69.471 E2.18456
G1 X139.078 Y69.901 E2.22142
G1 X140.136 Y70.392 E2.26216
G1 X140.692 Y70.66 E2.28371
G1 X140.971 Y70.799 E2.2946
G1 X141.661 Y71.156 E2.32173
G1 X142.789 Y71.762 E2.36645
G1 X143.411 Y72.107 E2.39129
G1 X143.696 Y72.271 E2.40277
G1 X144.574 Y72.796 E2.4385
G1 X145.541 Y73.395 E2.47822
G1 X146.057 Y73.723 E2.49958
G1 X146.343 Y73.911 E2.51153
G1 X147.275 Y74.547 E2.55093
G1 X148.134 Y75.153 E2.58765
G1 X148.662 Y75.536 E2.61043
G1 X148.92 Y75.729 E2.62168
G1 X149.727 Y76.353 E2.6573
G1 X150.642 Y77.084 E2.6982
G1 X151.094 Y77.455 E2.71863
G1 X151.353 Y77.674 E2.73047
G1 X152.161 Y78.382 E2.76799
G1 X152.979 Y79.121 E2.80649
G1 X153.451 Y79.558 E2.82895
G1 X153.69 Y79.786 E2.84049
G1 X154.407 Y80.493 E2.87565
G1 X155.08 Y81.176 E2.90914
G1 X155.651 Y81.771 E2.93794
G1 X155.88 Y82.016 E2.94965
G1 X156.571 Y82.784 E2.98573
G1 X157.336 Y83.663 E3.02642
G1 X157.705 Y84.098 E3.04635
G1 X157.909 Y84.345 E3.05753
G1 X158.572 Y85.177 E3.09469
G1 X159.27 Y86.081 E3.13457
G1 X159.649 Y86.586 E3.15662
G1 X159.842 Y86.852 E3.1681
G1 X160.424 Y87.679 E3.20342
G1 X160.972 Y88.482 E3.23737
G1 X161.4 Y89.128 E3.26443
G1 X161.577 Y89.405 E3.27591
G1 X162.17 Y90.365 E3.31532
G1 X162.705 Y91.263 E3.35182
G1 X163.047 Y91.854 E3.37567
G1 X163.212 Y92.149 E3.38747
G1 X163.663 Y92.989 E3.42077
G1 X164.23 Y94.082 E3.46377
G1 X164.482 Y94.586 E3.48345
G1 X164.617 Y94.867 E3.49434
G1 X165.065 Y95.833 E3.53152
G1 X165.516 Y96.85 E3.57038
G1 X165.786 Y97.481 E3.59434
G1 X165.905 Y97.771 E3.60529
G1 X166.261 Y98.678 E3.63932
G1 X166.684 Y99.809 E3.68149
G1 X166.878 Y100.349 E3.70153
G1 X166.986 Y100.665 E3.71319
G1 X167.321 Y101.698 E3.75112
G1 X167.632 Y102.71 E3.78809
G1 X167.814 Y103.329 E3.81062
G1 X167.905 Y103.655 E3.82244
G1 X168.183 Y104.727 E3.86112
G1 X168.44 Y105.79 E3.89931
G1 X168.575 Y106.377 E3.92035
G1 X168.646 Y106.71 E3.93224
G1 X168.841 Y107.704 E3.96761
G1 X169.05 Y108.858 E4.00857
G1 X169.146 Y109.431 E4.02886
G1 X169.197 Y109.768 E4.04076
G1 X169.34 Y110.831 E4.07822
G1 X169.467 Y111.897 E4.11571
G1 X169.538 Y112.565 E4.13917
G1 X169.568 Y112.896 E4.15078
G1 X169.648 Y113.958 E4.18797
G1 X169.713 Y115.068 E4.2268
G1 X169.74 Y115.66 E4.2475
G1 X169.75 Y115.982 E4.25875
G1 X169.765 Y116.903 E4.29092
G1 X169.766 Y118.028 E4.33021
G1 X169.756 Y118.814 E4.35766
G1 X169.746 Y119.14 E4.36905
G1 X169.699 Y120.18 E4.40541
G1 X169.632 Y121.278 E4.44382
G1 X169.582 Y121.951 E4.46739
G1 X169.553 Y122.272 E4.47865
G1 X169.446 Y123.292 E4.51446
G1 X169.313 Y124.383 E4.55285
G1 X169.225 Y125.042 E4.57607
G1 X169.173 Y125.39 E4.58835
G1 X169.008 Y126.376 E4.62327
G1 X168.807 Y127.481 E4.66249
G1 X168.682 Y128.119 E4.68519
G1 X168.615 Y128.436 E4.69651
G1 X168.378 Y129.474 E4.73369
G1 X168.116 Y130.543 E4.77213
G1 X167.957 Y131.156 E4.79425
G1 X167.871 Y131.468 E4.80555
G1 X167.621 Y132.327 E4.83679
G1 X167.289 Y133.405 E4.87619
G1 X167.048 Y134.156 E4.90373
G1 X166.934 Y134.488 E4.91599
G1 X166.605 Y135.405 E4.95001
G1 X166.235 Y136.391 E4.98679
G1 X165.968 Y137.075 E5.01243
G1 X165.841 Y137.387 E5.0242
G1 X165.437 Y138.332 E5.06009
G1 X164.968 Y139.381 E5.10022
G1 X164.719 Y139.921 E5.12099
G1 X164.571 Y140.229 E5.13292
G1 X164.094 Y141.182 E5.17014
G1 X163.566 Y142.197 E5.21009
G1 X163.271 Y142.746 E5.23186
G1 X163.107 Y143.04 E5.24362
G1 X162.616 Y143.887 E5.27781
G1 X162.031 Y144.865 E5.31761
G1 X161.695 Y145.411 E5.33999
G1 X161.509 Y145.704 E5.35211
G1 X160.936 Y146.57 E5.38838
G1 X160.292 Y147.512 E5.42823
G1 X159.935 Y148.021 E5.44994
G1 X159.731 Y148.303 E5.4621
G1 X159.159 Y149.064 E5.49534
G1 X158.515 Y149.897 E5.53212
G1 X158.034 Y150.502 E5.55911
G1 X157.832 Y150.749 E5.57025
G1 X157.293 Y151.387 E5.59942
G1 X156.51 Y152.284 E5.641
G1 X156.002 Y152.851 E5.66759
G1 X155.778 Y153.093 E5.6791
G1 X155.03 Y153.875 E5.71689
G1 X154.29 Y154.624 E5.75367
G1 X153.804 Y155.104 E5.77752
G1 X153.563 Y155.335 E5.78918
G1 X152.796 Y156.046 E5.8257
G1 X151.963 Y156.795 E5.86483
G1 X151.5 Y157.201 E5.88633
G1 X151.237 Y157.424 E5.89837
G1 X150.476 Y158.049 E5.93276
G1 X149.532 Y158.801 E5.97491
G1 X149.088 Y159.145 E5.99453
G1 X148.822 Y159.344 E6.00613
G1 X147.926 Y159.995 E6.04481
G1 X147.058 Y160.604 E6.08184
G1 X146.511 Y160.978 E6.10498
G1 X146.233 Y161.162 E6.11662
G1 X145.365 Y161.716 E6.15258
G1 X144.383 Y162.321 E6.19286
G1 X143.85 Y162.639 E6.21454
G1 X143.575 Y162.798 E6.22563
G1 X142.679 Y163.297 E6.26145
G1 X141.8 Y163.771 E6.29633
G1 X141.093 Y164.139 E6.32416
G1 X140.805 Y164.284 E6.33542
G1 X140.067 Y164.64 E6.36404
G1 X138.869 Y165.196 E6.41016
G1 X138.254 Y165.47 E6.43367
G1 X137.952 Y165.599 E6.44514
G1 X137.063 Y165.962 E6.47868
G1 X135.971 Y166.391 E6.51965
G1 X135.374 Y166.615 E6.54192
G1 X135.076 Y166.722 E6.55298
G1 X134.221 Y167.015 E6.58454
G1 X133.051 Y167.395 E6.6275
G1 X132.422 Y167.59 E6.6505
G1 X132.097 Y167.685 E6.66233
G1 X131.043 Y167.975 E6.7005
G1 X130.04 Y168.235 E6.73669
G1 X129.363 Y168.401 E6.76103
G1 X129.045 Y168.473 E6.77242
G1 X128.065 Y168.682 E6.80741
G1 X126.938 Y168.902 E6.84751
G1 X126.323 Y169.014 E6.86934
G1 X125.999 Y169.068 E6.88082
G1 X124.95 Y169.226 E6.91786
G1 X124.002 Y169.355 E6.95128
G1 X123.221 Y169.45 E6.97875
G1 X122.903 Y169.484 E6.98992
G1 X122.047 Y169.562 E7.01994
G1 X120.879 Y169.65 E7.06084
G1 X120.113 Y169.698 E7.08765
G1 X119.772 Y169.714 E7.09957
G1 X118.754 Y169.744 E7.13514
G1 X117.592 Y169.76 E7.17572
G1 X116.982 Y169.76 E7.19702
G1 X116.661 Y169.755 E7.20824
G1 X115.607 Y169.723 E7.24506
G1 X114.497 Y169.673 E7.28387
G1 X113.863 Y169.636 E7.30604
G1 X113.517 Y169.611 E7.31816
G1 X112.673 Y169.535 E7.34775
G1 X111.345 Y169.395 E7.39439
G1 X110.728 Y169.321 E7.41609
G1 X110.404 Y169.277 E7.42751
G1 X109.411 Y169.127 E7.46258
G1 X108.307 Y168.943 E7.50167
G1 X107.654 Y168.825 E7.52484
G1 X107.332 Y168.762 E7.5363
G1 X106.477 Y168.581 E7.56682
G1 X105.372 Y168.33 E7.6064
G1 X104.589 Y168.14 E7.63453
G1 X104.268 Y168.057 E7.64611
G1 X103.32 Y167.795 E7.68046
G1 X102.19 Y167.465 E7.72157
G1 X101.605 Y167.285 E7.74295
G1 X101.286 Y167.181 E7.75467
G1 X100.306 Y166.845 E7.79085
G1 X99.232 Y166.46 E7.83069
G1 X98.667 Y166.249 E7.85175
G1 X98.347 Y166.124 E7.86375
G1 X97.546 Y165.796 E7.89398
G1 X96.481 Y165.341 E7.93442
G1 X95.768 Y165.026 E7.96165
G1 X95.452 Y164.88 E7.9738
G1 X94.555 Y164.447 E8.00859
G1 X93.55 Y163.944 E8.04784
G1 X92.981 Y163.65 E8.0702
G1 X92.682 Y163.489 E8.08206
G1 X91.757 Y162.973 E8.11905
G1 X90.744 Y162.387 E8.15992
G1 X90.27 Y162.104 E8.1792
G1 X89.99 Y161.93 E8.19072
G1 X89.062 Y161.337 E8.22918
G1 X88.156 Y160.737 E8.26713
G1 X87.628 Y160.378 E8.28942
G1 X87.354 Y160.185 E8.30113
G1 X86.673 Y159.691 E8.33051
G1 X85.634 Y158.913 E8.37584
G1 X85.134 Y158.528 E8.39788
G1 X84.861 Y158.31 E8.41008
G1 X84.069 Y157.658 E8.4459
G1 X83.161 Y156.888 E8.48748
G1 X82.716 Y156.499 E8.50812
G1 X82.481 Y156.287 E8.51918
G1 X81.87 Y155.721 E8.54826
G1 X81.012 Y154.902 E8.58969
G1 X80.462 Y154.363 E8.61658
G1 X80.224 Y154.122 E8.62841
G1 X79.517 Y153.383 E8.66413
G1 X78.843 Y152.656 E8.69875
G1 X78.327 Y152.085 E8.72562
G1 X78.096 Y151.821 E8.73787
G1 X77.424 Y151.026 E8.77423
G1 X76.746 Y150.202 E8.81149
G1 X76.306 Y149.652 E8.83609
G1 X76.098 Y149.382 E8.848
G1 X75.513 Y148.601 E8.88207
G1 X74.82 Y147.646 E8.92328
G1 X74.473 Y147.154 E8.94431
G1 X74.284 Y146.877 E8.95602
G1 X73.721 Y146.023 E8.99174
G1 X73.2 Y145.208 E9.02552
G1 X72.769 Y144.512 E9.05411
G1 X72.6 Y144.23 E9.06559
G1 X72.056 Y143.286 E9.10364
G1 X71.612 Y142.491 E9.13544
G1 X71.238 Y141.797 E9.16297
G1 X71.094 Y141.52 E9.17388
G1 X70.621 Y140.573 E9.21084
G1 X70.13 Y139.552 E9.25041
G1 X69.87 Y138.992 E9.27197
G1 X69.733 Y138.684 E9.28374
G1 X69.327 Y137.732 E9.31989
G1 X68.887 Y136.657 E9.36045
G1 X68.678 Y136.125 E9.38042
G1 X68.567 Y135.832 E9.39136
G1 X68.251 Y134.955 E9.42391
G1 X67.89 Y133.9 E9.46285
G1 X67.649 Y133.164 E9.4899
G1 X67.545 Y132.829 E9.50215
G1 X67.235 Y131.763 E9.54092
G1 X66.996 Y130.898 E9.57226
G1 X66.795 Y130.127 E9.60009
G1 X66.718 Y129.814 E9.61134
G1 X66.489 Y128.807 E9.64741
G1 X66.266 Y127.753 E9.68503
G1 X66.13 Y127.069 E9.70939
G1 X66.069 Y126.732 E9.72135
G1 X65.904 Y125.737 E9.75657
G1 X65.735 Y124.611 E9.79633
G1 X65.654 Y124.021 E9.81713
G1 X65.613 Y123.681 E9.82909
G1 X65.501 Y122.609 E9.86673
G1 X65.401 Y121.484 E9.90618
G1 X65.356 Y120.888 E9.92705
G1 X65.337 Y120.563 E9.93842
G1 X65.289 Y119.49 E9.97593
G1 X65.257 Y118.372 E10.01499
G1 X65.247 Y117.787 E10.03542
G1 X65.246 Y117.44 E10.04754
G1 X65.263 Y116.375 E10.08474
G1 X65.298 Y115.238 E10.12447
G1 X65.325 Y114.631 E10.14569
G1 X65.344 Y114.302 E10.15719
G1 X65.409 Y113.43 E10.18773
G1 X65.51 Y112.295 E10.22753
G1 X65.59 Y111.514 E10.25494
G1 X65.629 Y111.181 E10.26665
G1 X65.74 Y110.356 E10.29572
G1 X65.917 Y109.18 E10.33726
G1 X66.047 Y108.392 E10.36515
G1 X66.101 Y108.092 E10.37579
G1 X66.302 Y107.069 E10.4122
G1 X66.524 Y106.032 E10.44924
G1 X66.672 Y105.377 E10.47269
G1 X66.755 Y105.036 E10.48495
G1 X67.046 Y103.92 E10.52522
G1 X67.307 Y102.981 E10.55926
G1 X67.503 Y102.309 E10.58371
G1 X67.597 Y102.003 E10.59488
G1 X67.909 Y101.043 E10.63014
G1 X68.265 Y100.007 E10.66839
G1 X68.493 Y99.367 E10.69212
G1 X68.614 Y99.044 E10.70417
G1 X68.978 Y98.117 E10.73895
G1 X69.351 Y97.206 E10.77333
G1 X69.678 Y96.44 E10.80241
G1 X69.81 Y96.143 E10.81376
G1 X70.217 Y95.268 E10.84746
G1 X70.726 Y94.211 E10.88843
G1 X71.01 Y93.642 E10.91064
G1 X71.16 Y93.352 E10.92205
G1 X71.641 Y92.458 E10.9575
G1 X72.13 Y91.582 E10.99254
G1 X72.51 Y90.921 E11.01916
G1 X72.686 Y90.625 E11.03119
G1 X73.232 Y89.743 E11.06742
G1 X73.851 Y88.777 E11.10748
G1 X74.171 Y88.291 E11.12781
G1 X74.355 Y88.02 E11.13924
G1 X74.978 Y87.135 E11.17704
G1 X75.634 Y86.235 E11.21594
G1 X76.02 Y85.719 E11.23844
G1 X76.225 Y85.453 E11.25017
G1 X76.841 Y84.682 E11.28463
G1 X77.59 Y83.772 E11.32579
G1 X77.997 Y83.292 E11.34777
G1 X78.211 Y83.047 E11.35913
G1 X78.869 Y82.317 E11.39345
G1 X79.568 Y81.561 E11.42941
G1 X80.087 Y81.016 E11.45569
G1 X80.321 Y80.778 E11.46735
G0 F6000 X80.602 Y81.062
G1 F1200 X81.238 Y80.435 E11.49854
G1 X82.04 Y79.667 E11.53732
G1 X82.64 Y79.109 E11.56593
G1 X82.864 Y78.907 E11.57647
G1 X83.636 Y78.233 E11.61226
G1 X84.482 Y77.517 E11.65096
G1 X84.974 Y77.112 E11.67322
G1 X85.226 Y76.911 E11.68448
G1 X86.079 Y76.253 E11.7221
G1 X86.941 Y75.607 E11.75972
G1 X87.47 Y75.222 E11.78257
G1 X87.736 Y75.036 E11.7939
G1 X88.557 Y74.477 E11.82859
G1 X89.5 Y73.854 E11.86806
G1 X90.033 Y73.513 E11.89016
G1 X90.296 Y73.35 E11.90096
G1 X91.205 Y72.807 E11.93794
G1 X92.21 Y72.229 E11.97843
G1 X92.678 Y71.967 E11.99716
G1 X92.97 Y71.809 E12.00876
G1 X93.917 Y71.319 E12.04599
G1 X94.944 Y70.807 E12.08607
G1 X95.502 Y70.538 E12.1077
G1 X95.79 Y70.404 E12.11879
G1 X96.681 Y70.008 E12.15285
G1 X97.751 Y69.552 E12.19347
G1 X98.322 Y69.317 E12.21503
G1 X98.623 Y69.198 E12.22633
G1 X99.594 Y68.834 E12.26255
G1 X100.637 Y68.461 E12.30123
G1 X101.268 Y68.245 E12.32452
G1 X101.578 Y68.144 E12.33591
G1 X102.363 Y67.902 E12.3646
G1 X103.631 Y67.531 E12.41074
G1 X104.214 Y67.37 E12.43186
G1 X104.519 Y67.291 E12.44286
G1 X105.562 Y67.037 E12.48035
G1 X106.585 Y66.804 E12.51699
G1 X107.241 Y66.664 E12.54042
G1 X107.549 Y66.603 E12.55138
G1 X108.447 Y66.439 E12.58326
G1 X109.493 Y66.265 E12.6203
G1 X110.341 Y66.136 E12.65025
G1 X110.647 Y66.094 E12.66104
G1 X111.62 Y65.977 E12.69526
G1 X112.788 Y65.855 E12.73627
G1 X113.344 Y65.804 E12.75577
G1 X113.666 Y65.78 E12.76705
G1 X114.764 Y65.714 E12.80546
G1 X115.854 Y65.667 E12.84357
G1 X116.494 Y65.647 E12.86593
G1 X116.825 Y65.642 E12.87749
G1 X117.66 Y65.642 E12.90665
G1 X118.804 Y65.657 E12.94661
G1 X119.602 Y65.68 E12.97449
G1 X119.897 Y65.693 E12.9848
G1 X120.948 Y65.756 E13.02157
G1 X122.016 Y65.837 E13.05897
G1 X122.686 Y65.896 E13.08246
G1 X123.018 Y65.93 E13.09412
G1 X124.022 Y66.052 E13.12944
G1 X125.144 Y66.205 E13.16898
G1 X125.764 Y66.298 E13.19088
G1 X126.085 Y66.351 E13.20224
G1 X127.073 Y66.532 E13.23732
G1 X128.211 Y66.756 E13.27782
G1 X128.787 Y66.878 E13.29839
G1 X129.089 Y66.947 E13.3092
G1 X130.17 Y67.21 E13.34806
G1 X131.182 Y67.476 E13.3846
G1 X131.819 Y67.651 E13.40767
G1 X132.128 Y67.741 E13.41891
G1 X133.117 Y68.046 E13.45505
G1 X134.179 Y68.392 E13.49406
G1 X134.739 Y68.582 E13.51471
G1 X135.051 Y68.693 E13.52628
G1 X135.9 Y69.011 E13.55794
G1 X136.932 Y69.415 E13.59664
G1 X137.669 Y69.716 E13.62445
G1 X137.951 Y69.836 E13.63515
G1 X138.91 Y70.264 E13.67182
G1 X139.963 Y70.752 E13.71236
G1 X140.519 Y71.02 E13.73391
G1 X140.787 Y71.154 E13.74438
G1 X141.477 Y71.511 E13.77151
G1 X142.732 Y72.186 E13.82127
G1 X143.217 Y72.456 E13.84066
G1 X143.491 Y72.614 E13.8517
G1 X144.222 Y73.05 E13.88143
G1 X145.326 Y73.732 E13.92675
G1 X145.842 Y74.06 E13.9481
G1 X146.118 Y74.242 E13.95965
G1 X147.045 Y74.874 E13.99883
G1 X147.899 Y75.477 E14.03534
G1 X148.427 Y75.86 E14.05812
G1 X148.676 Y76.046 E14.06897
G1 X149.34 Y76.558 E14.09825
G1 X150.273 Y77.301 E14.13991
