;FLAVOR:Marlin
;TIME:2072
;Filament used: 1.42709m
;Layer height: 0.2
;MINX:96.5
;MINY:96.5
;MINZ:0.2
;MAXX:138.5
;MAXY:138.5
;MAXZ:20
;Generated with Cura_SteamEngine 4.11.0
M140 S50
M105
M190 S50
M104 S200
M105
M109 S200
M82 ;absolute extrusion mode
; Ender 3 Custom Start G-code
G92 E0 ; Reset Extruder
G28 ; Home all axes
G1 Z2.0 F3000 ; Move Z Axis up little to prevent scratching of Heat Bed
G1 X0.1 Y20 Z0.3 F5000.0 ; Move to start position
G1 X0.1 Y200.0 Z0.3 F1500.0 E15 ; Draw the first line
G1 X0.4 Y200.0 Z0.3 F5000.0 ; Move to side a little
G1 X0.4 Y20 Z0.3 F1500.0 E30 ; Draw the second line
G92 E0 ; Reset Extruder
G1 Z2.0 F3000 ; Move Z Axis up little to prevent scratching of Heat Bed
G1 X5 Y20 Z0.3 F5000.0 ; Move over to prevent blob squish
G92 E0
G92 E0
G1 F2700 E-5
;LAYER_COUNT:100
;LAYER:0
M107
G0 F6000 X99.698 Y99.764 Z0.2
;TYPE:SKIRT
G1 F2700 E0
G1 F1200 X100.386 Y99.127 E0.03274
G1 X101.126 Y98.551 E0.06549
G1 X101.912 Y98.039 E0.09825
G1 X102.739 Y97.597 E0.131
G1 X103.601 Y97.227 E0.16376
G1 X104.491 Y96.931 E0.19652
G1 X105.403 Y96.713 E0.22926
G1 X106.33 Y96.572 E0.26201
G1 X107.201 Y96.513 E0.2925
G1 X107.522 Y96.504 E0.30371
G1 X107.83 Y96.5 E0.31447
G1 X126.793 Y96.5 E0.97672
G1 X127.649 Y96.511 E1.00661
G1 X128.585 Y96.565 E1.03936
G1 X129.513 Y96.697 E1.07209
G1 X130.427 Y96.909 E1.10486
G1 X131.319 Y97.198 E1.1376
G1 X132.184 Y97.561 E1.17036
G1 X133.014 Y97.997 E1.20311
G1 X133.805 Y98.502 E1.23588
G1 X134.549 Y99.073 E1.26863
G1 X135.242 Y99.705 E1.30139
G1 X135.879 Y100.393 E1.33413
G1 X136.454 Y101.134 E1.36689
G1 X136.965 Y101.92 E1.39963
G1 X137.407 Y102.748 E1.43241
G1 X137.776 Y103.61 E1.46515
G1 X138.071 Y104.5 E1.4979
G1 X138.289 Y105.412 E1.53064
G1 X138.429 Y106.34 E1.56342
G1 X138.487 Y107.201 E1.59356
G1 X138.496 Y107.521 E1.60474
G1 X138.5 Y107.83 E1.61553
G1 X138.499 Y126.9 E2.28151
G1 X138.49 Y127.627 E2.3069
G1 X138.439 Y128.564 E2.33968
G1 X138.307 Y129.492 E2.37241
G1 X138.098 Y130.406 E2.40515
G1 X137.811 Y131.299 E2.43791
G1 X137.449 Y132.165 E2.47069
G1 X137.015 Y132.996 E2.50343
G1 X136.511 Y133.787 E2.53619
G1 X135.942 Y134.532 E2.56892
G1 X135.311 Y135.227 E2.60171
G1 X134.624 Y135.865 E2.63445
G1 X133.885 Y136.442 E2.66719
G1 X133.099 Y136.954 E2.69995
G1 X132.273 Y137.397 E2.73269
G1 X131.411 Y137.769 E2.76547
G1 X130.522 Y138.065 E2.7982
G1 X129.61 Y138.285 E2.83096
G1 X128.683 Y138.426 E2.86371
G1 X127.799 Y138.487 E2.89465
G1 X127.478 Y138.496 E2.90587
G1 X127.17 Y138.5 E2.91662
G1 X108.065 Y138.499 E3.58383
G1 X107.367 Y138.49 E3.60821
G1 X106.431 Y138.438 E3.64095
G1 X105.502 Y138.306 E3.67372
G1 X104.588 Y138.096 E3.70647
G1 X103.695 Y137.809 E3.73922
G1 X102.83 Y137.446 E3.77199
G1 X101.999 Y137.012 E3.80473
G1 X101.208 Y136.508 E3.83748
G1 X100.463 Y135.938 E3.87024
G1 X99.769 Y135.307 E3.903
G1 X99.132 Y134.62 E3.93572
G1 X98.555 Y133.88 E3.96849
G1 X98.043 Y133.094 E4.00125
G1 X97.6 Y132.267 E4.03401
G1 X97.229 Y131.406 E4.06675
G1 X96.933 Y130.516 E4.09951
G1 X96.714 Y129.604 E4.13226
G1 X96.573 Y128.677 E4.16501
G1 X96.513 Y127.788 E4.19613
G1 X96.504 Y127.455 E4.20776
G1 X96.5 Y127.158 E4.21813
G1 X96.501 Y108.025 E4.88632
G1 X96.51 Y107.36 E4.90954
G1 X96.563 Y106.424 E4.94228
G1 X96.695 Y105.495 E4.97505
G1 X96.906 Y104.581 E5.00781
G1 X97.194 Y103.689 E5.04055
G1 X97.557 Y102.824 E5.07331
G1 X97.992 Y101.993 E5.10607
G1 X98.496 Y101.203 E5.13879
G1 X99.066 Y100.458 E5.17155
G1 X99.698 Y99.764 E5.20433
G0 F6000 X100.089 Y99.939
G1 F1200 X100.774 Y99.323 E5.2365
G1 X101.51 Y98.77 E5.26865
G1 X102.291 Y98.282 E5.30082
G1 X103.111 Y97.864 E5.33296
G1 X103.965 Y97.519 E5.36512
G1 X104.845 Y97.249 E5.39727
G1 X105.745 Y97.057 E5.42941
G1 X106.659 Y96.943 E5.46158
G1 X107.212 Y96.913 E5.48092
G1 X107.533 Y96.904 E5.49213
G1 X107.83 Y96.9 E5.50251
G1 X126.793 Y96.9 E6.16475
G1 X127.643 Y96.911 E6.19444
G1 X128.562 Y96.964 E6.22659
G1 X129.473 Y97.097 E6.25874
G1 X130.369 Y97.308 E6.29089
G1 X131.243 Y97.596 E6.32302
G1 X132.09 Y97.959 E6.35521
G1 X132.901 Y98.394 E6.38735
G1 X133.671 Y98.898 E6.41948
G1 X134.395 Y99.467 E6.45164
G1 X135.067 Y100.097 E6.48381
G1 X135.682 Y100.782 E6.51596
G1 X136.235 Y101.518 E6.54811
G1 X136.722 Y102.299 E6.58025
G1 X137.139 Y103.12 E6.61241
G1 X137.484 Y103.974 E6.64458
G1 X137.753 Y104.854 E6.67672
G1 X137.945 Y105.755 E6.70889
G1 X138.058 Y106.668 E6.74102
G1 X138.087 Y107.212 E6.76004
G1 X138.096 Y107.532 E6.77122
G1 X138.1 Y107.83 E6.78163
G1 X138.099 Y126.895 E7.44744
G1 X138.09 Y127.622 E7.47283
G1 X138.039 Y128.541 E7.50497
G1 X137.908 Y129.453 E7.53715
G1 X137.698 Y130.349 E7.56929
G1 X137.412 Y131.224 E7.60144
G1 X137.051 Y132.071 E7.63359
G1 X136.617 Y132.883 E7.66575
G1 X136.115 Y133.655 E7.69791
G1 X135.547 Y134.38 E7.73007
G1 X134.919 Y135.053 E7.76222
G1 X134.235 Y135.669 E7.79436
G1 X133.5 Y136.223 E7.82651
G1 X132.72 Y136.712 E7.85866
G1 X131.9 Y137.131 E7.89082
G1 X131.047 Y137.477 E7.92296
G1 X130.167 Y137.748 E7.95512
G1 X129.267 Y137.941 E7.98726
G1 X128.353 Y138.056 E8.01944
G1 X127.788 Y138.087 E8.0392
G1 X127.467 Y138.096 E8.05041
G1 X127.17 Y138.1 E8.06079
G1 X108.07 Y138.099 E8.72782
G1 X107.372 Y138.09 E8.7522
G1 X106.453 Y138.038 E8.78434
G1 X105.542 Y137.907 E8.81648
G1 X104.646 Y137.697 E8.84862
G1 X103.771 Y137.41 E8.88078
G1 X102.924 Y137.048 E8.91295
G1 X102.112 Y136.614 E8.9451
G1 X101.341 Y136.112 E8.97723
G1 X100.616 Y135.544 E9.0094
G1 X99.943 Y134.915 E9.04157
G1 X99.328 Y134.231 E9.07369
G1 X98.774 Y133.496 E9.10584
G1 X98.286 Y132.715 E9.138
G1 X97.867 Y131.895 E9.17016
G1 X97.521 Y131.042 E9.2023
G1 X97.251 Y130.162 E9.23445
G1 X97.058 Y129.261 E9.26663
G1 X96.944 Y128.348 E9.29876
G1 X96.913 Y127.777 E9.31873
G1 X96.904 Y127.444 E9.33037
G1 X96.9 Y127.158 E9.34035
G1 X96.901 Y108.031 E10.00833
G1 X96.91 Y107.366 E10.03156
G1 X96.962 Y106.446 E10.06374
G1 X97.094 Y105.535 E10.09588
G1 X97.305 Y104.639 E10.12803
G1 X97.592 Y103.764 E10.16019
G1 X97.955 Y102.918 E10.19234
G1 X98.389 Y102.106 E10.22449
G1 X98.892 Y101.335 E10.25664
G1 X99.461 Y100.611 E10.2888
G1 X100.089 Y99.939 E10.32092
G0 F6000 X100.481 Y100.117
G1 F1200 X101.162 Y99.524 E10.35246
G1 X101.894 Y98.994 E10.38402
G1 X102.669 Y98.531 E10.41555
G1 X103.482 Y98.138 E10.44708
G1 X104.327 Y97.818 E10.47864
G1 X105.196 Y97.575 E10.51015
G1 X106.084 Y97.409 E10.5417
G1 X107.223 Y97.313 E10.58162
G1 X107.544 Y97.304 E10.59283
G1 X107.83 Y97.3 E10.60282
G1 X126.793 Y97.3 E11.26507
G1 X127.637 Y97.311 E11.29455
G1 X128.539 Y97.364 E11.3261
G1 X129.432 Y97.496 E11.35763
G1 X130.31 Y97.707 E11.38916
G1 X131.166 Y97.995 E11.4207
G1 X131.993 Y98.357 E11.45223
G1 X132.785 Y98.792 E11.48379
G1 X133.536 Y99.294 E11.51533
G1 X134.239 Y99.861 E11.54688
G1 X134.889 Y100.488 E11.57842
G1 X135.481 Y101.17 E11.60995
G1 X136.011 Y101.901 E11.64149
G1 X136.473 Y102.677 E11.67303
G1 X136.866 Y103.49 E11.70456
G1 X137.184 Y104.335 E11.73609
G1 X137.427 Y105.205 E11.76764
G1 X137.592 Y106.093 E11.79918
G1 X137.687 Y107.223 E11.83878
G1 X137.696 Y107.543 E11.84996
G1 X137.7 Y107.83 E11.85999
G1 X137.699 Y126.89 E12.52562
G1 X137.69 Y127.617 E12.55101
G1 X137.639 Y128.519 E12.58256
G1 X137.508 Y129.413 E12.61412
G1 X137.299 Y130.291 E12.64564
G1 X137.013 Y131.148 E12.67719
G1 X136.652 Y131.976 E12.70874
G1 X136.22 Y132.768 E12.74024
G1 X135.719 Y133.52 E12.7718
G1 X135.153 Y134.224 E12.80335
G1 X134.528 Y134.875 E12.83486
G1 X133.847 Y135.469 E12.86642
G1 X133.116 Y136 E12.89797
G1 X132.342 Y136.464 E12.92949
G1 X131.529 Y136.858 E12.96104
G1 X130.685 Y137.178 E12.99256
G1 X129.815 Y137.423 E13.02413
G1 X128.928 Y137.589 E13.05564
G1 X127.777 Y137.687 E13.09598
G1 X127.456 Y137.696 E13.1072
G1 X127.17 Y137.7 E13.11719
G1 X108.075 Y137.699 E13.78405
G1 X107.377 Y137.69 E13.80842
G1 X106.476 Y137.639 E13.83994
G1 X105.582 Y137.507 E13.8715
G1 X104.704 Y137.298 E13.90302
G1 X103.847 Y137.011 E13.93458
G1 X103.02 Y136.65 E13.96609
G1 X102.227 Y136.217 E13.99765
G1 X101.476 Y135.716 E14.02918
G1 X100.772 Y135.15 E14.06072
G1 X100.121 Y134.524 E14.09226
G1 X99.528 Y133.843 E14.1238
G1 X98.998 Y133.112 E14.15533
G1 X98.534 Y132.337 E14.18688
G1 X98.14 Y131.524 E14.21843
G1 X97.82 Y130.68 E14.24995
G1 X97.576 Y129.81 E14.28151
G1 X97.41 Y128.922 E14.31306
G1 X97.313 Y127.767 E14.35353
G1 X97.304 Y127.434 E14.36517
G1 X97.3 Y127.158 E14.37481
G1 X97.301 Y108.036 E15.04261
G1 X97.31 Y107.371 E15.06583
G1 X97.362 Y106.469 E15.09739
G1 X97.494 Y105.576 E15.12891
G1 X97.704 Y104.698 E15.16044
G1 X97.991 Y103.841 E15.192
G1 X98.353 Y103.014 E15.22353
G1 X98.786 Y102.222 E15.25505
G1 X99.288 Y101.471 E15.2866
G1 X99.855 Y100.767 E15.31817
G1 X100.481 Y100.117 E15.34968
G1 F2700 E10.34968
;MESH:xyzCalibration_cube.stl
G0 F6000 X107.914 Y106.835
G0 X107.914 Y107.914
G0 X126.718 Y108.282
G0 X126.9 Y126.9
;TYPE:WALL-INNER
G1 F2700 E15.34968
G1 F1200 X108.1 Y126.9 E16.00624
G1 X108.1 Y108.1 E16.66279
G1 X126.9 Y108.1 E17.31935
G1 X126.9 Y126.9 E17.9759
G0 F6000 X127.3 Y127.3
;TYPE:WALL-OUTER
G1 F1200 X107.7 Y127.3 E18.6604
G1 X107.7 Y107.7 E19.34489
G1 X127.3 Y107.7 E20.02938
G1 X127.3 Y127.3 E20.71388
G0 F6000 X127.03 Y127.03
G0 X126.79 Y126.51
G0 X126.51 Y126.51
;TYPE:SKIN
G1 F1200 X108.49 Y126.51 E21.34319
G1 X108.49 Y108.49 E21.97251
G1 X126.51 Y108.49 E22.60182
G1 X126.51 Y126.51 E23.23114
G0 F6000 X126.79 Y126.51
G0 X126.79 Y108.813
G0 X126.349 Y108.813
G1 F1200 X126.186 Y108.65 E23.23919
G0 F6000 X125.621 Y108.65
G1 F1200 X126.349 Y109.378 E23.27514
G0 F6000 X126.349 Y109.944
G1 F1200 X125.055 Y108.65 E23.33905
G0 F6000 X124.489 Y108.65
G1 F1200 X126.349 Y110.51 E23.43092
G0 F6000 X126.349 Y111.075
G1 F1200 X123.923 Y108.65 E23.55071
G0 F6000 X123.358 Y108.65
G1 F1200 X126.349 Y111.641 E23.69843
G0 F6000 X126.349 Y112.207
G1 F1200 X122.792 Y108.65 E23.87411
G0 F6000 X122.226 Y108.65
G1 F1200 X126.349 Y112.772 E24.07771
G0 F6000 X126.349 Y113.338
G1 F1200 X121.661 Y108.65 E24.30925
G0 F6000 X121.095 Y108.65
G1 F1200 X126.349 Y113.904 E24.56873
G0 F6000 X126.349 Y114.469
G1 F1200 X120.529 Y108.65 E24.85615
G0 F6000 X119.964 Y108.65
G1 F1200 X126.349 Y115.035 E25.1715
G0 F6000 X126.349 Y115.601
G1 F1200 X119.398 Y108.65 E25.5148
G0 F6000 X118.832 Y108.65
G1 F1200 X126.349 Y116.167 E25.88606
G0 F6000 X126.349 Y116.732
G1 F1200 X118.267 Y108.65 E26.28522
G0 F6000 X117.701 Y108.65
G1 F1200 X126.349 Y117.298 E26.71233
G0 F6000 X126.349 Y117.864
G1 F1200 X117.135 Y108.65 E27.1674
G0 F6000 X116.57 Y108.65
G1 F1200 X126.349 Y118.429 E27.65037
G0 F6000 X126.349 Y118.995
G1 F1200 X116.004 Y108.65 E28.1613
G0 F6000 X115.438 Y108.65
G1 F1200 X126.349 Y119.561 E28.70018
G0 F6000 X126.349 Y120.126
G1 F1200 X114.873 Y108.65 E29.26697
G0 F6000 X114.307 Y108.65
G1 F1200 X126.349 Y120.692 E29.8617
G0 F6000 X126.349 Y121.258
G1 F1200 X113.741 Y108.65 E30.4844
G0 F6000 X113.175 Y108.65
G1 F1200 X126.349 Y121.823 E31.13502
G0 F6000 X126.349 Y122.389
G1 F1200 X112.61 Y108.65 E31.81357
G0 F6000 X112.044 Y108.65
G1 F1200 X126.349 Y122.955 E32.52008
G0 F6000 X126.349 Y123.52
G1 F1200 X111.478 Y108.65 E33.25452
G0 F6000 X110.913 Y108.65
G1 F1200 X126.349 Y124.086 E34.01688
G0 F6000 X126.349 Y124.652
G1 F1200 X110.347 Y108.65 E34.8072
G0 F6000 X109.781 Y108.65
G1 F1200 X126.349 Y125.218 E35.62547
G0 F6000 X126.349 Y125.783
G1 F1200 X109.216 Y108.65 E36.47165
G0 F6000 X108.649 Y108.649
G1 F1200 X126.349 Y126.349 E37.34583
G0 F6000 X125.783 Y126.349
G1 F1200 X108.649 Y109.215 E38.19206
G0 F6000 X108.649 Y109.781
G1 F1200 X125.218 Y126.349 E39.01036
G0 F6000 X124.652 Y126.349
G1 F1200 X108.649 Y110.346 E39.80073
G0 F6000 X108.649 Y110.912
G1 F1200 X124.086 Y126.349 E40.56314
G0 F6000 X123.52 Y126.349
G1 F1200 X108.649 Y111.478 E41.2976
G0 F6000 X108.649 Y112.043
G1 F1200 X122.955 Y126.349 E42.00416
G0 F6000 X122.389 Y126.349
G1 F1200 X108.649 Y112.609 E42.68276
G0 F6000 X108.649 Y113.175
G1 F1200 X121.823 Y126.349 E43.33341
G0 F6000 X121.258 Y126.349
G1 F1200 X108.649 Y113.74 E43.95615
G0 F6000 X108.649 Y114.306
G1 F1200 X120.692 Y126.349 E44.55094
G0 F6000 X120.126 Y126.349
G1 F1200 X108.649 Y114.872 E45.11778
G0 F6000 X108.649 Y115.438
G1 F1200 X119.561 Y126.349 E45.65668
G0 F6000 X118.995 Y126.349
G1 F1200 X108.649 Y116.003 E46.16766
G0 F6000 X108.649 Y116.569
G1 F1200 X118.429 Y126.349 E46.65068
G0 F6000 X117.864 Y126.349
G1 F1200 X108.649 Y117.135 E47.10577
G0 F6000 X108.649 Y117.7
G1 F1200 X117.298 Y126.349 E47.53294
G0 F6000 X116.732 Y126.349
G1 F1200 X108.649 Y118.266 E47.93215
G0 F6000 X108.649 Y118.832
G1 F1200 X116.167 Y126.349 E48.30343
G0 F6000 X115.601 Y126.349
G1 F1200 X108.649 Y119.397 E48.64678
G0 F6000 X108.649 Y119.963
G1 F1200 X115.035 Y126.349 E48.96217
G0 F6000 X114.469 Y126.349
G1 F1200 X108.649 Y120.529 E49.24962
G0 F6000 X108.649 Y121.094
G1 F1200 X113.904 Y126.349 E49.50915
G0 F6000 X113.338 Y126.349
G1 F1200 X108.649 Y121.66 E49.74074
G0 F6000 X108.649 Y122.226
G1 F1200 X112.772 Y126.349 E49.94437
G0 F6000 X112.207 Y126.349
G1 F1200 X108.649 Y122.791 E50.12009
G0 F6000 X108.649 Y123.357
G1 F1200 X111.641 Y126.349 E50.26786
G0 F6000 X111.075 Y126.349
G1 F1200 X108.649 Y123.923 E50.38768
G0 F6000 X108.649 Y124.488
G1 F1200 X110.51 Y126.349 E50.47959
G0 F6000 X109.944 Y126.349
G1 F1200 X108.649 Y125.054 E50.54355
G0 F6000 X108.649 Y125.62
G1 F1200 X109.378 Y126.349 E50.57956
G0 F6000 X108.813 Y126.349
G1 F1200 X108.649 Y126.186 E50.58763
G0 F6000 X108.3 Y126.186
;MESH:NONMESH
G0 F300 X108.3 Y126.186 Z0.4
G0 F6000 X108.21 Y126.186
G0 X108.282 Y126.718
G0 X126.9 Y126.9
;TIME_ELAPSED:84.030298
;LAYER:1
M106 S85
;TYPE:WALL-INNER
;MESH:xyzCalibration_cube.stl
G1 F1350 X108.1 Y126.9 E51.24419
G1 X108.1 Y108.1 E51.90074
G1 X126.9 Y108.1 E52.5573
G1 X126.9 Y126.9 E53.21385
G0 F7500 X127.3 Y127.3
;TYPE:WALL-OUTER
G1 F1350 X107.7 Y127.3 E53.89835
G1 X107.7 Y107.7 E54.58284
G1 X127.3 Y107.7 E55.26733
G1 X127.3 Y127.3 E55.95183
G0 F7500 X127.03 Y127.03
G0 X126.79 Y126.51
G0 X126.51 Y126.51
;TYPE:SKIN
G1 F1350 X108.49 Y126.51 E56.58114
G1 X108.49 Y108.49 E57.21046
G1 X126.51 Y108.49 E57.83977
G1 X126.51 Y126.51 E58.46909
G0 F7500 X125.946 Y126.349
G1 F1350 X126.349 Y125.946 E58.48899
G0 F7500 X126.349 Y125.38
G1 F1350 X125.38 Y126.349 E58.53685
G0 F7500 X124.814 Y126.349
G1 F1350 X126.349 Y124.814 E58.61266
G0 F7500 X126.349 Y124.249
G1 F1350 X124.249 Y126.349 E58.71638
G0 F7500 X123.683 Y126.349
G1 F1350 X126.349 Y123.683 E58.84805
G0 F7500 X126.349 Y123.117
G1 F1350 X123.117 Y126.349 E59.00767
G0 F7500 X122.552 Y126.349
G1 F1350 X126.349 Y122.552 E59.1952
G0 F7500 X126.349 Y121.986
G1 F1350 X121.986 Y126.349 E59.41068
G0 F7500 X121.42 Y126.349
G1 F1350 X126.349 Y121.42 E59.65412
G0 F7500 X126.349 Y120.855
G1 F1350 X120.855 Y126.349 E59.92546
G0 F7500 X120.289 Y126.349
G1 F1350 X126.349 Y120.289 E60.22476
G0 F7500 X126.349 Y119.723
G1 F1350 X119.723 Y126.349 E60.55201
G0 F7500 X119.158 Y126.349
G1 F1350 X126.349 Y119.158 E60.90716
G0 F7500 X126.349 Y118.592
G1 F1350 X118.592 Y126.349 E61.29027
G0 F7500 X118.026 Y126.349
G1 F1350 X126.349 Y118.026 E61.70134
G0 F7500 X126.349 Y117.461
G1 F1350 X117.461 Y126.349 E62.1403
G0 F7500 X116.895 Y126.349
G1 F1350 X126.349 Y116.895 E62.60722
G0 F7500 X126.349 Y116.329
G1 F1350 X116.329 Y126.349 E63.1021
G0 F7500 X115.763 Y126.349
G1 F1350 X126.349 Y115.763 E63.62493
G0 F7500 X126.349 Y115.198
G1 F1350 X115.198 Y126.349 E64.17566
G0 F7500 X114.632 Y126.349
G1 F1350 X126.349 Y114.632 E64.75435
G0 F7500 X126.349 Y114.066
G1 F1350 X114.066 Y126.349 E65.361
G0 F7500 X113.501 Y126.349
G1 F1350 X126.349 Y113.501 E65.99554
G0 F7500 X126.349 Y112.935
G1 F1350 X112.935 Y126.349 E66.65804
G0 F7500 X112.369 Y126.349
G1 F1350 X126.349 Y112.369 E67.3485
G0 F7500 X126.349 Y111.804
G1 F1350 X111.804 Y126.349 E68.06686
G0 F7500 X111.238 Y126.349
G1 F1350 X126.349 Y111.238 E68.81317
G0 F7500 X126.349 Y110.672
G1 F1350 X110.672 Y126.349 E69.58744
G0 F7500 X110.107 Y126.349
G1 F1350 X126.349 Y110.107 E70.38961
G0 F7500 X126.349 Y109.541
G1 F1350 X109.541 Y126.349 E71.21974
G0 F7500 X108.975 Y126.349
G1 F1350 X126.349 Y108.975 E72.07782
G0 F7500 X126.109 Y108.649
G1 F1350 X108.65 Y126.108 E72.9401
G0 F7500 X108.65 Y125.543
