;FLAVOR:Marlin
;TIME:1855
;Filament used: 1.34841m
;Layer height: 0.2
;MINX:96.5
;MINY:96.5
;MINZ:0.2
;MAXX:138.5
;MAXY:138.5
;MAXZ:20
;Generated with Cura_SteamEngine 4.11.0
M140 S50
M105
M190 S50
M104 S200
M105
M109 S200
M82 ;absolute extrusion mode
; Ender 3 Custom Start G-code
G92 E0 ; Reset Extruder
G28 ; Home all axes
G1 Z2.0 F3000 ; Move Z Axis up little to prevent scratching of Heat Bed
G1 X0.1 Y20 Z0.3 F5000.0 ; Move to start position
G1 X0.1 Y200.0 Z0.3 F1500.0 E15 ; Draw the first line
G1 X0.4 Y200.0 Z0.3 F5000.0 ; Move to side a little
G1 X0.4 Y20 Z0.3 F1500.0 E30 ; Draw the second line
G92 E0 ; Reset Extruder
G1 Z2.0 F3000 ; Move Z Axis up little to prevent scratching of Heat Bed
G1 X5 Y20 Z0.3 F5000.0 ; Move over to prevent blob squish
G92 E0
G92 E0
G1 F2700 E-5
;LAYER_COUNT:100
;LAYER:0
M107
G0 F6000 X99.698 Y99.764 Z0.2
;TYPE:SKIRT
G1 F2700 E0
G1 F1200 X100.386 Y99.127 E0.03119
G1 X101.126 Y98.551 E0.06237
G1 X101.912 Y98.039 E0.09357
G1 X102.739 Y97.597 E0.12476
G1 X103.601 Y97.227 E0.15596
G1 X104.491 Y96.931 E0.18716
G1 X105.403 Y96.713 E0.21835
G1 X106.33 Y96.572 E0.24953
G1 X107.201 Y96.513 E0.27857
G1 X107.522 Y96.504 E0.28925
G1 X107.83 Y96.5 E0.29949
G1 X126.793 Y96.5 E0.93021
G1 X127.649 Y96.511 E0.95868
G1 X128.585 Y96.565 E0.98986
G1 X129.513 Y96.697 E1.02104
G1 X130.427 Y96.909 E1.05225
G1 X131.319 Y97.198 E1.08343
G1 X132.184 Y97.561 E1.11463
G1 X133.014 Y97.997 E1.14582
G1 X133.805 Y98.502 E1.17703
G1 X134.549 Y99.073 E1.20822
G1 X135.242 Y99.705 E1.23942
G1 X135.879 Y100.393 E1.2706
G1 X136.454 Y101.134 E1.3018
G1 X136.965 Y101.92 E1.33298
G1 X137.407 Y102.748 E1.3642
G1 X137.776 Y103.61 E1.39538
G1 X138.071 Y104.5 E1.42657
G1 X138.289 Y105.412 E1.45776
G1 X138.429 Y106.34 E1.48897
G1 X138.487 Y107.201 E1.51767
G1 X138.496 Y107.521 E1.52832
G1 X138.5 Y107.83 E1.5386
G1 X138.499 Y126.9 E2.17287
G1 X138.49 Y127.627 E2.19705
G1 X138.439 Y128.564 E2.22826
G1 X138.307 Y129.492 E2.25944
G1 X138.098 Y130.406 E2.29062
G1 X137.811 Y131.299 E2.32182
G1 X137.449 Y132.165 E2.35304
G1 X137.015 Y132.996 E2.38422
G1 X136.511 Y133.787 E2.41542
G1 X135.942 Y134.532 E2.4466
G1 X135.311 Y135.227 E2.47782
G1 X134.624 Y135.865 E2.509
G1 X133.885 Y136.442 E2.54018
G1 X133.099 Y136.954 E2.57138
G1 X132.273 Y137.397 E2.60256
G1 X131.411 Y137.769 E2.63378
G1 X130.522 Y138.065 E2.66495
G1 X129.61 Y138.285 E2.69615
G1 X128.683 Y138.426 E2.72734
G1 X127.799 Y138.487 E2.75681
G1 X127.478 Y138.496 E2.76749
G1 X127.17 Y138.5 E2.77774
G1 X108.065 Y138.499 E3.41317
G1 X107.367 Y138.49 E3.43639
G1 X106.431 Y138.438 E3.46757
G1 X105.502 Y138.306 E3.49878
G1 X104.588 Y138.096 E3.52997
G1 X103.695 Y137.809 E3.56117
G1 X102.83 Y137.446 E3.59237
G1 X101.999 Y137.012 E3.62355
G1 X101.208 Y136.508 E3.65474
G1 X100.463 Y135.938 E3.68594
G1 X99.769 Y135.307 E3.71714
G1 X99.132 Y134.62 E3.7483
G1 X98.555 Y133.88 E3.77951
G1 X98.043 Y133.094 E3.81071
G1 X97.6 Y132.267 E3.84192
G1 X97.229 Y131.406 E3.8731
G1 X96.933 Y130.516 E3.90429
G1 X96.714 Y129.604 E3.93549
G1 X96.573 Y128.677 E3.96668
G1 X96.513 Y127.788 E3.99631
G1 X96.504 Y127.455 E4.00739
G1 X96.5 Y127.158 E4.01727
G1 X96.501 Y108.025 E4.65364
G1 X96.51 Y107.36 E4.67576
G1 X96.563 Y106.424 E4.70694
G1 X96.695 Y105.495 E4.73815
G1 X96.906 Y104.581 E4.76935
G1 X97.194 Y103.689 E4.80052
G1 X97.557 Y102.824 E4.83172
G1 X97.992 Y101.993 E4.86292
G1 X98.496 Y101.203 E4.89409
G1 X99.066 Y100.458 E4.92529
G1 X99.698 Y99.764 E4.95651
G0 F6000 X100.089 Y99.939
G1 F1200 X100.774 Y99.323 E4.98715
G1 X101.51 Y98.77 E5.01777
G1 X102.291 Y98.282 E5.0484
G1 X103.111 Y97.864 E5.07901
G1 X103.965 Y97.519 E5.10964
G1 X104.845 Y97.249 E5.14026
G1 X105.745 Y97.057 E5.17087
G1 X106.659 Y96.943 E5.2015
G1 X107.212 Y96.913 E5.21992
G1 X107.533 Y96.904 E5.2306
G1 X107.83 Y96.9 E5.24048
G1 X126.793 Y96.9 E5.87119
G1 X127.643 Y96.911 E5.89947
G1 X128.562 Y96.964 E5.93008
G1 X129.473 Y97.097 E5.9607
G1 X130.369 Y97.308 E5.99132
G1 X131.243 Y97.596 E6.02193
G1 X132.09 Y97.959 E6.05258
G1 X132.901 Y98.394 E6.08319
G1 X133.671 Y98.898 E6.1138
G1 X134.395 Y99.467 E6.14442
G1 X135.067 Y100.097 E6.17506
G1 X135.682 Y100.782 E6.20568
G1 X136.235 Y101.518 E6.2363
G1 X136.722 Y102.299 E6.26691
G1 X137.139 Y103.12 E6.29754
G1 X137.484 Y103.974 E6.32817
G1 X137.753 Y104.854 E6.35878
G1 X137.945 Y105.755 E6.38942
G1 X138.058 Y106.668 E6.42001
G1 X138.087 Y107.212 E6.43813
G1 X138.096 Y107.532 E6.44878
G1 X138.1 Y107.83 E6.45869
G1 X138.099 Y126.895 E7.0928
G1 X138.09 Y127.622 E7.11698
G1 X138.039 Y128.541 E7.14759
G1 X137.908 Y129.453 E7.17824
G1 X137.698 Y130.349 E7.20885
G1 X137.412 Y131.224 E7.23946
G1 X137.051 Y132.071 E7.27009
G1 X136.617 Y132.883 E7.30071
G1 X136.115 Y133.655 E7.33134
G1 X135.547 Y134.38 E7.36197
G1 X134.919 Y135.053 E7.39259
G1 X134.235 Y135.669 E7.4232
G1 X133.5 Y136.223 E7.45382
G1 X132.72 Y136.712 E7.48444
G1 X131.9 Y137.131 E7.51506
G1 X131.047 Y137.477 E7.54568
G1 X130.167 Y137.748 E7.5763
G1 X129.267 Y137.941 E7.60692
G1 X128.353 Y138.056 E7.63756
G1 X127.788 Y138.087 E7.65638
G1 X127.467 Y138.096 E7.66706
G1 X127.17 Y138.1 E7.67694
G1 X108.07 Y138.099 E8.31221
G1 X107.372 Y138.09 E8.33542
G1 X106.453 Y138.038 E8.36604
G1 X105.542 Y137.907 E8.39665
G1 X104.646 Y137.697 E8.42726
G1 X103.771 Y137.41 E8.45789
G1 X102.924 Y137.048 E8.48852
G1 X102.112 Y136.614 E8.51915
G1 X101.341 Y136.112 E8.54975
G1 X100.616 Y135.544 E8.58038
G1 X99.943 Y134.915 E8.61102
G1 X99.328 Y134.231 E8.64161
G1 X98.774 Y133.496 E8.67222
G1 X98.286 Y132.715 E8.70285
G1 X97.867 Y131.895 E8.73348
G1 X97.521 Y131.042 E8.7641
G1 X97.251 Y130.162 E8.79471
G1 X97.058 Y129.261 E8.82536
G1 X96.944 Y128.348 E8.85596
G1 X96.913 Y127.777 E8.87498
G1 X96.904 Y127.444 E8.88606
G1 X96.9 Y127.158 E8.89558
G1 X96.901 Y108.031 E9.53174
G1 X96.91 Y107.366 E9.55386
G1 X96.962 Y106.446 E9.58451
G1 X97.094 Y105.535 E9.61513
G1 X97.305 Y104.639 E9.64574
G1 X97.592 Y103.764 E9.67637
G1 X97.955 Y102.918 E9.70699
G1 X98.389 Y102.106 E9.73761
G1 X98.892 Y101.335 E9.76823
G1 X99.461 Y100.611 E9.79886
G1 X100.089 Y99.939 E9.82945
G0 F6000 X100.481 Y100.117
G1 F1200 X101.162 Y99.524 E9.85948
G1 X101.894 Y98.994 E9.88954
G1 X102.669 Y98.531 E9.91957
G1 X103.482 Y98.138 E9.9496
G1 X104.327 Y97.818 E9.97966
G1 X105.196 Y97.575 E10.00967
G1 X106.084 Y97.409 E10.03971
G1 X107.223 Y97.313 E10.07773
G1 X107.544 Y97.304 E10.08841
G1 X107.83 Y97.3 E10.09793
G1 X126.793 Y97.3 E10.72864
G1 X127.637 Y97.311 E10.75671
G1 X128.539 Y97.364 E10.78676
G1 X129.432 Y97.496 E10.81679
G1 X130.31 Y97.707 E10.84682
G1 X131.166 Y97.995 E10.87686
G1 X131.993 Y98.357 E10.90689
G1 X132.785 Y98.792 E10.93694
G1 X133.536 Y99.294 E10.96698
G1 X134.239 Y99.861 E10.99702
G1 X134.889 Y100.488 E11.02706
G1 X135.481 Y101.17 E11.0571
G1 X136.011 Y101.901 E11.08713
G1 X136.473 Y102.677 E11.11717
G1 X136.866 Y103.49 E11.1472
G1 X137.184 Y104.335 E11.17723
G1 X137.427 Y105.205 E11.20728
G1 X137.592 Y106.093 E11.23732
G1 X137.687 Y107.223 E11.27503
G1 X137.696 Y107.543 E11.28568
G1 X137.7 Y107.83 E11.29523
G1 X137.699 Y126.89 E11.92916
G1 X137.69 Y127.617 E11.95335
G1 X137.639 Y128.519 E11.9834
G1 X137.508 Y129.413 E12.01345
G1 X137.299 Y130.291 E12.04347
G1 X137.013 Y131.148 E12.07351
G1 X136.652 Y131.976 E12.10356
G1 X136.22 Y132.768 E12.13356
G1 X135.719 Y133.52 E12.16362
G1 X135.153 Y134.224 E12.19366
G1 X134.528 Y134.875 E12.22368
G1 X133.847 Y135.469 E12.25373
G1 X133.116 Y136 E12.28378
G1 X132.342 Y136.464 E12.3138
G1 X131.529 Y136.858 E12.34385
G1 X130.685 Y137.178 E12.37387
G1 X129.815 Y137.423 E12.40393
G1 X128.928 Y137.589 E12.43394
G1 X127.777 Y137.687 E12.47237
G1 X127.456 Y137.696 E12.48305
G1 X127.17 Y137.7 E12.49256
G1 X108.075 Y137.699 E13.12766
G1 X107.377 Y137.69 E13.15088
G1 X106.476 Y137.639 E13.1809
G1 X105.582 Y137.507 E13.21095
G1 X104.704 Y137.298 E13.24097
G1 X103.847 Y137.011 E13.27103
G1 X103.02 Y136.65 E13.30104
G1 X102.227 Y136.217 E13.33109
G1 X101.476 Y135.716 E13.36112
G1 X100.772 Y135.15 E13.39116
G1 X100.121 Y134.524 E13.4212
G1 X99.528 Y133.843 E13.45124
G1 X98.998 Y133.112 E13.48127
G1 X98.534 Y132.337 E13.51131
G1 X98.14 Y131.524 E13.54136
G1 X97.82 Y130.68 E13.57138
G1 X97.576 Y129.81 E13.60143
G1 X97.41 Y128.922 E13.63148
G1 X97.313 Y127.767 E13.67003
G1 X97.304 Y127.434 E13.68111
G1 X97.3 Y127.158 E13.69029
G1 X97.301 Y108.036 E14.32629
G1 X97.31 Y107.371 E14.34841
G1 X97.362 Y106.469 E14.37846
G1 X97.494 Y105.576 E14.40849
G1 X97.704 Y104.698 E14.43851
G1 X97.991 Y103.841 E14.46857
G1 X98.353 Y103.014 E14.4986
G1 X98.786 Y102.222 E14.52862
G1 X99.288 Y101.471 E14.55867
G1 X99.855 Y100.767 E14.58873
G1 X100.481 Y100.117 E14.61875
G1 F2700 E9.61875
;MESH:xyzCalibration_cube.stl
G0 F6000 X107.914 Y106.835
G0 X107.914 Y107.914
G0 X126.718 Y108.282
G0 X126.9 Y126.9
;TYPE:WALL-INNER
G1 F2700 E14.61875
G1 F1200 X108.1 Y126.9 E15.24404
G1 X108.1 Y108.1 E15.86933
G1 X126.9 Y108.1 E16.49462
G1 X126.9 Y126.9 E17.11991
G0 F6000 X127.3 Y127.3
;TYPE:WALL-OUTER
G1 F1200 X107.7 Y127.3 E17.77181
G1 X107.7 Y107.7 E18.42371
G1 X127.3 Y107.7 E19.0756
G1 X127.3 Y127.3 E19.7275
G0 F6000 X127.03 Y127.03
G0 X126.79 Y126.51
G0 X126.51 Y126.51
;TYPE:SKIN
G1 F1200 X108.49 Y126.51 E20.32685
G1 X108.49 Y108.49 E20.9262
G1 X126.51 Y108.49 E21.52555
G1 X126.51 Y126.51 E22.12489
G0 F6000 X126.79 Y126.51
G0 X126.79 Y108.813
G0 X126.349 Y108.813
G1 F1200 X126.186 Y108.65 E22.13256
G0 F6000 X125.621 Y108.65
G1 F1200 X126.349 Y109.378 E22.1668
G0 F6000 X126.349 Y109.944
G1 F1200 X125.055 Y108.65 E22.22767
G0 F6000 X124.489 Y108.65
G1 F1200 X126.349 Y110.51 E22.31516
G0 F6000 X126.349 Y111.075
G1 F1200 X123.923 Y108.65 E22.42925
G0 F6000 X123.358 Y108.65
G1 F1200 X126.349 Y111.641 E22.56993
G0 F6000 X126.349 Y112.207
G1 F1200 X122.792 Y108.65 E22.73724
G0 F6000 X122.226 Y108.65
G1 F1200 X126.349 Y112.772 E22.93115
G0 F6000 X126.349 Y113.338
G1 F1200 X121.661 Y108.65 E23.15166
G0 F6000 X121.095 Y108.65
G1 F1200 X126.349 Y113.904 E23.39879
G0 F6000 X126.349 Y114.469
G1 F1200 X120.529 Y108.65 E23.67253
G0 F6000 X119.964 Y108.65
G1 F1200 X126.349 Y115.035 E23.97286
G0 F6000 X126.349 Y115.601
G1 F1200 X119.398 Y108.65 E24.29981
G0 F6000 X118.832 Y108.65
G1 F1200 X126.349 Y116.167 E24.65339
G0 F6000 X126.349 Y116.732
G1 F1200 X118.267 Y108.65 E25.03354
G0 F6000 X117.701 Y108.65
G1 F1200 X126.349 Y117.298 E25.44031
G0 F6000 X126.349 Y117.864
G1 F1200 X117.135 Y108.65 E25.87371
G0 F6000 X116.57 Y108.65
G1 F1200 X126.349 Y118.429 E26.33369
G0 F6000 X126.349 Y118.995
G1 F1200 X116.004 Y108.65 E26.82028
G0 F6000 X115.438 Y108.65
G1 F1200 X126.349 Y119.561 E27.3335
G0 F6000 X126.349 Y120.126
G1 F1200 X114.873 Y108.65 E27.8733
G0 F6000 X114.307 Y108.65
G1 F1200 X126.349 Y120.692 E28.43972
G0 F6000 X126.349 Y121.258
G1 F1200 X113.741 Y108.65 E29.03276
G0 F6000 X113.175 Y108.65
G1 F1200 X126.349 Y121.823 E29.6524
G0 F6000 X126.349 Y122.389
G1 F1200 X112.61 Y108.65 E30.29864
G0 F6000 X112.044 Y108.65
G1 F1200 X126.349 Y122.955 E30.97151
G0 F6000 X126.349 Y123.52
G1 F1200 X111.478 Y108.65 E31.67097
G0 F6000 X110.913 Y108.65
G1 F1200 X126.349 Y124.086 E32.39703
G0 F6000 X126.349 Y124.652
G1 F1200 X110.347 Y108.65 E33.14972
G0 F6000 X109.781 Y108.65
G1 F1200 X126.349 Y125.218 E33.92902
G0 F6000 X126.349 Y125.783
G1 F1200 X109.216 Y108.65 E34.73491
G0 F6000 X108.649 Y108.649
G1 F1200 X126.349 Y126.349 E35.56746
G0 F6000 X125.783 Y126.349
G1 F1200 X108.649 Y109.215 E36.37339
G0 F6000 X108.649 Y109.781
G1 F1200 X125.218 Y126.349 E37.15272
G0 F6000 X124.652 Y126.349
G1 F1200 X108.649 Y110.346 E37.90545
G0 F6000 X108.649 Y110.912
G1 F1200 X124.086 Y126.349 E38.63156
G0 F6000 X123.52 Y126.349
G1 F1200 X108.649 Y111.478 E39.33105
G0 F6000 X108.649 Y112.043
G1 F1200 X122.955 Y126.349 E40.00396
G0 F6000 X122.389 Y126.349
G1 F1200 X108.649 Y112.609 E40.65025
G0 F6000 X108.649 Y113.175
G1 F1200 X121.823 Y126.349 E41.26991
G0 F6000 X121.258 Y126.349
G1 F1200 X108.649 Y113.74 E41.863
G0 F6000 X108.649 Y114.306
G1 F1200 X120.692 Y126.349 E42.42947
G0 F6000 X120.126 Y126.349
G1 F1200 X108.649 Y114.872 E42.96931
G0 F6000 X108.649 Y115.438
G1 F1200 X119.561 Y126.349 E43.48255
G0 F6000 X118.995 Y126.349
G1 F1200 X108.649 Y116.003 E43.9692
G0 F6000 X108.649 Y116.569
G1 F1200 X118.429 Y126.349 E44.42922
G0 F6000 X117.864 Y126.349
G1 F1200 X108.649 Y117.135 E44.86264
G0 F6000 X108.649 Y117.7
G1 F1200 X117.298 Y126.349 E45.26946
G0 F6000 X116.732 Y126.349
G1 F1200 X108.649 Y118.266 E45.64966
G0 F6000 X108.649 Y118.832
G1 F1200 X116.167 Y126.349 E46.00326
G0 F6000 X115.601 Y126.349
G1 F1200 X108.649 Y119.397 E46.33026
G0 F6000 X108.649 Y119.963
G1 F1200 X115.035 Y126.349 E46.63064
G0 F6000 X114.469 Y126.349
G1 F1200 X108.649 Y120.529 E46.9044
G0 F6000 X108.649 Y121.094
G1 F1200 X113.904 Y126.349 E47.15158
G0 F6000 X113.338 Y126.349
G1 F1200 X108.649 Y121.66 E47.37213
G0 F6000 X108.649 Y122.226
G1 F1200 X112.772 Y126.349 E47.56607
G0 F6000 X112.207 Y126.349
G1 F1200 X108.649 Y122.791 E47.73342
G0 F6000 X108.649 Y123.357
G1 F1200 X111.641 Y126.349 E47.87416
G0 F6000 X111.075 Y126.349
G1 F1200 X108.649 Y123.923 E47.98827
G0 F6000 X108.649 Y124.488
G1 F1200 X110.51 Y126.349 E48.0758
G0 F6000 X109.944 Y126.349
G1 F1200 X108.649 Y125.054 E48.13672
G0 F6000 X108.649 Y125.62
G1 F1200 X109.378 Y126.349 E48.17101
G0 F6000 X108.813 Y126.349
G1 F1200 X108.649 Y126.186 E48.1787
G0 F6000 X108.3 Y126.186
;MESH:NONMESH
G0 F300 X108.3 Y126.186 Z0.4
G0 F6000 X108.21 Y126.186
G0 X108.282 Y126.718
G0 X126.9 Y126.9
;TIME_ELAPSED:84.030298
;LAYER:1
M106 S85
;TYPE:WALL-INNER
;MESH:xyzCalibration_cube.stl
G1 F1350 X108.1 Y126.9 E48.80399
G1 X108.1 Y108.1 E49.42928
G1 X126.9 Y108.1 E50.05457
G1 X126.9 Y126.9 E50.67986
G0 F7500 X127.3 Y127.3
;TYPE:WALL-OUTER
G1 F1350 X107.7 Y127.3 E51.33176
G1 X107.7 Y107.7 E51.98366
G1 X127.3 Y107.7 E52.63556
G1 X127.3 Y127.3 E53.28745
G0 F7500 X127.03 Y127.03
G0 X126.79 Y126.51
G0 X126.51 Y126.51
;TYPE:SKIN
G1 F1350 X108.49 Y126.51 E53.8868
G1 X108.49 Y108.49 E54.48615
G1 X126.51 Y108.49 E55.0855
G1 X126.51 Y126.51 E55.68484
G0 F7500 X125.946 Y126.349
G1 F1350 X126.349 Y125.946 E55.7038
G0 F7500 X126.349 Y125.38
G1 F1350 X125.38 Y126.349 E55.74938
G0 F7500 X124.814 Y126.349
G1 F1350 X126.349 Y124.814 E55.82158
G0 F7500 X126.349 Y124.249
G1 F1350 X124.249 Y126.349 E55.92036
G0 F7500 X123.683 Y126.349
G1 F1350 X126.349 Y123.683 E56.04576
G0 F7500 X126.349 Y123.117
G1 F1350 X123.117 Y126.349 E56.19778
G0 F7500 X122.552 Y126.349
G1 F1350 X126.349 Y122.552 E56.37638
G0 F7500 X126.349 Y121.986
G1 F1350 X121.986 Y126.349 E56.5816
G0 F7500 X121.42 Y126.349
G1 F1350 X126.349 Y121.42 E56.81345
G0 F7500 X126.349 Y120.855
G1 F1350 X120.855 Y126.349 E57.07187
G0 F7500 X120.289 Y126.349
G1 F1350 X126.349 Y120.289 E57.35691
G0 F7500 X126.349 Y119.723
G1 F1350 X119.723 Y126.349 E57.66858
G0 F7500 X119.158 Y126.349
G1 F1350 X126.349 Y119.158 E58.00682
G0 F7500 X126.349 Y118.592
G1 F1350 X118.592 Y126.349 E58.37169
G0 F7500 X118.026 Y126.349
G1 F1350 X126.349 Y118.026 E58.76318
G0 F7500 X126.349 Y117.461
G1 F1350 X117.461 Y126.349 E59.18124
G0 F7500 X116.895 Y126.349
G1 F1350 X126.349 Y116.895 E59.62593
G0 F7500 X126.349 Y116.329
G1 F1350 X116.329 Y126.349 E60.09724
G0 F7500 X115.763 Y126.349
G1 F1350 X126.349 Y115.763 E60.59517
G0 F7500 X126.349 Y115.198
G1 F1350 X115.198 Y126.349 E61.11968
G0 F7500 X114.632 Y126.349
G1 F1350 X126.349 Y114.632 E61.67081
G0 F7500 X126.349 Y114.066
G1 F1350 X114.066 Y126.349 E62.24857
G0 F7500 X113.501 Y126.349
G1 F1350 X126.349 Y113.501 E62.8529
G0 F7500 X126.349 Y112.935
G1 F1350 X112.935 Y126.349 E63.48385
G0 F7500 X112.369 Y126.349
G1 F1350 X126.349 Y112.369 E64.14143
G0 F7500 X126.349 Y111.804
G1 F1350 X111.804 Y126.349 E64.82558
G0 F7500 X111.238 Y126.349
G1 F1350 X126.349 Y111.238 E65.53635
G0 F7500 X126.349 Y110.672
G1 F1350 X110.672 Y126.349 E66.27375
G0 F7500 X110.107 Y126.349
G1 F1350 X126.349 Y110.107 E67.03773
G0 F7500 X126.349 Y109.541
G1 F1350 X109.541 Y126.349 E67.82832
G0 F7500 X108.975 Y126.349
G1 F1350 X126.349 Y108.975 E68.64554
G0 F7500 X126.109 Y108.649
G1 F1350 X108.65 Y126.108 E69.46676
G0 F7500 X108.65 Y125.543
