; This code was generated by Leviticus Rhodens Non-planar code.
; Ender 3 Custom Start G-code
G92 E0 ; Reset Extruder
G28 ; Home all axes
G1 Z2.0 F3000 ; Move Z Axis up little to prevent scratching of Heat Bed
G1 X0.1 Y20 Z0.3 F5000.0 ; Move to start position
M140 S50 ;I think these next few lines are heating. I will know if it heats
M105
M190 S50
M104 S200
M105
M109 S200G1 X0.1 Y200.0 Z0.3 F1500.0 E15 ; Draw the first line
G1 X0.4 Y200.0 Z0.3 F5000.0 ; Move to side a little
G1 X0.4 Y20 Z0.3 F1500.0 E30 ; Draw the second line
G92 E0 ; Reset Extruder
G1 Z2.0 F3000 ; Move Z Axis up little to prevent scratching of Heat Bed
G1 X5 Y20 Z0.3 F5000.0 ; Move over to prevent blob squish
G90 ; make all co-ordinates absolute 
M83 ; make E relative 
;TYPE SKIN
;------------
;LAYER 0
;TYPE SKIN
G1 F1200.00 X110.000 Y110.500 Z0.133333 E0.0165698
G1 F1200.00 X110.476 Y110.155 Z0.253935 E0.0168494
G1 F1200.00 X110.294 Y109.595 Z0.179398 E0.0162177
G1 F1200.00 X109.706 Y109.595 Z0.179399 E0.0169602
G1 F1200.00 X109.524 Y110.155 Z0.253934 E0.0163904
G1 F1200.00 X110.000 Y110.500 Z0.133333 E0.0165698
G1 F1200.00 X110.000 Y110.896 Z0.133333 E0.0141174
G1 F1200.00 X110.527 Y110.725 Z0.220601 E0.0147472
G1 F1200.00 X110.852 Y110.277 Z0.253935 E0.0202212
G1 F1200.00 X110.852 Y109.723 Z0.146066 E0.0162083
G1 F1200.00 X110.527 Y109.275 Z0.179398 E0.0132144
G1 F1200.00 X110.000 Y109.104 Z0.266667 E0.0190776
G1 F1200.00 X109.473 Y109.275 Z0.179399 E0.0184479
G1 F1200.00 X109.148 Y109.723 Z0.146065 E0.0129738
G1 F1200.00 X109.148 Y110.277 Z0.253934 E0.0169867
G1 F1200.00 X109.473 Y110.725 Z0.220602 E0.0199807
G1 F1200.00 X110.000 Y110.896 Z0.133333 E0.0141174
G1 F1200.00 X110.000 Y111.292 Z0.133333 E0.0127299
G1 F1200.00 X110.525 Y111.180 Z0.179399 E0.0129890
G1 F1200.00 X110.960 Y110.864 Z0.253934 E0.0182350
G1 F1200.00 X111.228 Y110.399 Z0.253935 E0.0212180
G1 F1200.00 X111.285 Y109.865 Z0.179399 E0.0178157
G1 F1200.00 X111.119 Y109.354 Z0.133333 E0.0127299
G1 F1200.00 X110.759 Y108.955 Z0.179398 E0.0129890
G1 F1200.00 X110.269 Y108.737 Z0.253934 E0.0182350
G1 F1200.00 X109.731 Y108.737 Z0.253935 E0.0212180
G1 F1200.00 X109.241 Y108.955 Z0.179399 E0.0178157
G1 F1200.00 X108.881 Y109.354 Z0.133333 E0.0127299
G1 F1200.00 X108.715 Y109.865 Z0.179398 E0.0129890
G1 F1200.00 X108.772 Y110.399 Z0.253934 E0.0182349
G1 F1200.00 X109.040 Y110.864 Z0.253935 E0.0212180
G1 F1200.00 X109.475 Y111.180 Z0.179400 E0.0178157
G1 F1200.00 X110.000 Y111.292 Z0.133333 E0.0127299
G1 F1200.00 X110.000 Y111.688 Z0.133333 E0.0120878
G1 F1200.00 X110.521 Y111.605 Z0.160814 E0.0122093
G1 F1200.00 X110.992 Y111.365 Z0.220601 E0.0159486
G1 F1200.00 X111.365 Y110.992 Z0.263404 E0.0202229
G1 F1200.00 X111.605 Y110.521 Z0.253935 E0.0215083
G1 F1200.00 X111.687 Y110.000 Z0.200000 E0.0187452
G1 F1200.00 X111.605 Y109.479 Z0.146066 E0.0142114
G1 F1200.00 X111.365 Y109.008 Z0.136596 E0.0116448
G1 F1200.00 X110.992 Y108.635 Z0.179398 E0.0131614
G1 F1200.00 X110.521 Y108.395 Z0.239185 E0.0175108
G1 F1200.00 X110.000 Y108.313 Z0.266667 E0.0211072
G1 F1200.00 X109.479 Y108.395 Z0.239186 E0.0209858
G1 F1200.00 X109.008 Y108.635 Z0.179399 E0.0172465
G1 F1200.00 X108.635 Y109.008 Z0.136596 E0.0129722
G1 F1200.00 X108.395 Y109.479 Z0.146065 E0.0116867
G1 F1200.00 X108.313 Y110.000 Z0.199999 E0.0144498
G1 F1200.00 X108.395 Y110.521 Z0.253934 E0.0189836
G1 F1200.00 X108.635 Y110.992 Z0.263404 E0.0215502
G1 F1200.00 X109.008 Y111.365 Z0.220602 E0.0200337
G1 F1200.00 X109.479 Y111.605 Z0.160815 E0.0156843
G1 F1200.00 X110.000 Y111.687 Z0.133333 E0.0120878
G1 F1200.00 X110.000 Y112.083 Z0.133333 E0.0117516
G1 F1200.00 X110.518 Y112.018 Z0.151402 E0.0118163
G1 F1200.00 X111.004 Y111.826 Z0.195814 E0.0144728
G1 F1200.00 X111.426 Y111.519 Z0.242495 E0.0182810
G1 F1200.00 X111.759 Y111.116 Z0.266141 E0.0211766
G1 F1200.00 X111.981 Y110.644 Z0.253935 E0.0215901
G1 F1200.00 X112.079 Y110.131 Z0.212492 E0.0192973
G1 F1200.00 X112.046 Y109.610 Z0.164278 E0.0155410
G1 F1200.00 X111.885 Y109.113 Z0.135428 E0.0123575
G1 F1200.00 X111.605 Y108.672 Z0.141579 E0.0114723
G1 F1200.00 X111.225 Y108.315 Z0.179398 E0.0133653
G1 F1200.00 X110.767 Y108.063 Z0.228385 E0.0170103
G1 F1200.00 X110.261 Y107.933 Z0.261985 E0.0204317
G1 F1200.00 X109.739 Y107.933 Z0.261985 E0.0217746
G1 F1200.00 X109.233 Y108.063 Z0.228386 E0.0203113
G1 F1200.00 X108.775 Y108.315 Z0.179399 E0.0168348
G1 F1200.00 X108.395 Y108.672 Z0.141580 E0.0132298
G1 F1200.00 X108.115 Y109.113 Z0.135428 E0.0114502
G1 F1200.00 X107.954 Y109.610 Z0.164278 E0.0124608
G1 F1200.00 X107.921 Y110.131 Z0.212491 E0.0157138
G1 F1200.00 X108.019 Y110.644 Z0.253934 E0.0194458
G1 F1200.00 X108.241 Y111.116 Z0.266141 E0.0216338
G1 F1200.00 X108.574 Y111.519 Z0.242496 E0.0210919
G1 F1200.00 X108.996 Y111.826 Z0.195815 E0.0181137
G1 F1200.00 X109.482 Y112.018 Z0.151403 E0.0143137
G1 F1200.00 X110.000 Y112.083 Z0.133333 E0.0117516
G1 F1200.00 X110.000 Y112.479 Z0.133333 E0.0115561
G1 F1200.00 X110.515 Y112.425 Z0.146066 E0.0115941
G1 F1200.00 X111.008 Y112.265 Z0.179399 E0.0135432
G1 F1200.00 X111.457 Y112.006 Z0.220601 E0.0166590
G1 F1200.00 X111.842 Y111.659 Z0.253934 E0.0197513
G1 F1200.00 X112.147 Y111.240 Z0.266667 E0.0216389
G1 F1200.00 X112.358 Y110.766 Z0.253935 E0.0216010
G1 F1200.00 X112.466 Y110.259 Z0.220601 E0.0196518
G1 F1200.00 X112.466 Y109.741 Z0.179399 E0.0165361
G1 F1200.00 X112.358 Y109.234 Z0.146066 E0.0134438
G1 F1200.00 X112.147 Y108.760 Z0.133333 E0.0115561
G1 F1200.00 X111.842 Y108.341 Z0.146065 E0.0115941
G1 F1200.00 X111.457 Y107.994 Z0.179398 E0.0135432
G1 F1200.00 X111.008 Y107.735 Z0.220601 E0.0166589
G1 F1200.00 X110.515 Y107.575 Z0.253934 E0.0197512
G1 F1200.00 X110.000 Y107.521 Z0.266667 E0.0216389
G1 F1200.00 X109.485 Y107.575 Z0.253935 E0.0216010
G1 F1200.00 X108.992 Y107.735 Z0.220602 E0.0196519
G1 F1200.00 X108.543 Y107.994 Z0.179399 E0.0165361
G1 F1200.00 X108.158 Y108.341 Z0.146066 E0.0134438
G1 F1200.00 X107.853 Y108.760 Z0.133333 E0.0115561
G1 F1200.00 X107.642 Y109.234 Z0.146065 E0.0115940
G1 F1200.00 X107.534 Y109.741 Z0.179398 E0.0135431
G1 F1200.00 X107.534 Y110.259 Z0.220600 E0.0166589
G1 F1200.00 X107.642 Y110.766 Z0.253934 E0.0197512
G1 F1200.00 X107.853 Y111.240 Z0.266667 E0.0216389
G1 F1200.00 X108.158 Y111.659 Z0.253935 E0.0216010
G1 F1200.00 X108.543 Y112.006 Z0.220602 E0.0196519
G1 F1200.00 X108.992 Y112.265 Z0.179400 E0.0165361
G1 F1200.00 X109.485 Y112.425 Z0.146066 E0.0134438
G1 F1200.00 X110.000 Y112.479 Z0.133333 E0.0115561
G1 F1200.00 X110.000 Y112.875 Z0.133333 E0.0114330
G1 F1200.00 X110.513 Y112.829 Z0.142770 E0.0114570
G1 F1200.00 X111.010 Y112.692 Z0.168409 E0.0129362
G1 F1200.00 X111.475 Y112.468 Z0.202991 E0.0154519
G1 F1200.00 X111.892 Y112.165 Z0.236726 E0.0182920
G1 F1200.00 X112.248 Y111.793 Z0.260065 E0.0206523
G1 F1200.00 X112.532 Y111.362 Z0.266398 E0.0218648
G1 F1200.00 X112.734 Y110.888 Z0.253935 E0.0215860
G1 F1200.00 X112.849 Y110.386 Z0.226202 E0.0198950
G1 F1200.00 X112.872 Y109.871 Z0.191051 E0.0172705
G1 F1200.00 X112.803 Y109.360 Z0.158434 E0.0144554
G1 F1200.00 X112.644 Y108.870 Z0.137584 E0.0122468
G1 F1200.00 X112.399 Y108.416 Z0.134405 E0.0112699
G1 F1200.00 X112.078 Y108.013 Z0.149795 E0.0118012
G1 F1200.00 X111.690 Y107.674 Z0.179398 E0.0136904
G1 F1200.00 X111.247 Y107.410 Z0.214834 E0.0164026
G1 F1200.00 X110.765 Y107.229 Z0.246070 E0.0191699
G1 F1200.00 X110.258 Y107.137 Z0.264264 E0.0212091
G1 F1200.00 X109.742 Y107.137 Z0.264264 E0.0219426
G1 F1200.00 X109.235 Y107.229 Z0.246071 E0.0211630
G1 F1200.00 X108.753 Y107.410 Z0.214835 E0.0190909
G1 F1200.00 X108.310 Y107.674 Z0.179399 E0.0163128
G1 F1200.00 X107.922 Y108.013 Z0.149796 E0.0136154
G1 F1200.00 X107.601 Y108.416 Z0.134405 E0.0117622
G1 F1200.00 X107.356 Y108.870 Z0.137584 E0.0112779
G1 F1200.00 X107.197 Y109.360 Z0.158433 E0.0122996
G1 F1200.00 X107.128 Y109.871 Z0.191050 E0.0145380
G1 F1200.00 X107.151 Y110.386 Z0.226201 E0.0173595
G1 F1200.00 X107.266 Y110.888 Z0.253934 E0.0199652
G1 F1200.00 X107.468 Y111.362 Z0.266398 E0.0216176
G1 F1200.00 X107.752 Y111.793 Z0.260065 E0.0218487
G1 F1200.00 X108.108 Y112.165 Z0.236727 E0.0205932
G1 F1200.00 X108.525 Y112.468 Z0.202992 E0.0182066
G1 F1200.00 X108.990 Y112.692 Z0.168410 E0.0153644
G1 F1200.00 X109.487 Y112.829 Z0.142771 E0.0128713
G1 F1200.00 X110.000 Y112.875 Z0.133333 E0.0114331
G1 F1200.00 X110.000 Y113.271 Z0.133333 E0.0113508
G1 F1200.00 X110.512 Y113.231 Z0.140600 E0.0113667
G1 F1200.00 X111.011 Y113.111 Z0.160814 E0.0125229
G1 F1200.00 X111.485 Y112.914 Z0.189571 E0.0145672
G1 F1200.00 X111.923 Y112.646 Z0.220601 E0.0170542
G1 F1200.00 X112.313 Y112.313 Z0.247140 E0.0194415
G1 F1200.00 X112.646 Y111.923 Z0.263404 E0.0212090
G1 F1200.00 X112.914 Y111.485 Z0.265846 E0.0219712
G1 F1200.00 X113.111 Y111.011 Z0.253935 E0.0215620
G1 F1200.00 X113.231 Y110.512 Z0.230266 E0.0200706
G1 F1200.00 X113.271 Y110.000 Z0.200000 E0.0178221
G1 F1200.00 X113.231 Y109.488 Z0.169734 E0.0153067
G1 F1200.00 X113.111 Y108.989 Z0.146066 E0.0130727
G1 F1200.00 X112.914 Y108.515 Z0.134154 E0.0116070
G1 F1200.00 X112.646 Y108.077 Z0.136596 E0.0112292
G1 F1200.00 X112.313 Y107.687 Z0.152859 E0.0120216
G1 F1200.00 X111.923 Y107.354 Z0.179398 E0.0138115
G1 F1200.00 X111.485 Y107.086 Z0.210429 E0.0162087
G1 F1200.00 X111.011 Y106.889 Z0.239185 E0.0186907
G1 F1200.00 X110.512 Y106.769 Z0.259400 E0.0207164
G1 F1200.00 X110.000 Y106.729 Z0.266667 E0.0218442
G1 F1200.00 X109.488 Y106.769 Z0.259401 E0.0218283
G1 F1200.00 X108.989 Y106.889 Z0.239186 E0.0206722
G1 F1200.00 X108.515 Y107.086 Z0.210430 E0.0186278
G1 F1200.00 X108.077 Y107.354 Z0.179399 E0.0161409
G1 F1200.00 X107.687 Y107.687 Z0.152860 E0.0137535
G1 F1200.00 X107.354 Y108.077 Z0.136596 E0.0119861
G1 F1200.00 X107.086 Y108.515 Z0.134154 E0.0112239
G1 F1200.00 X106.889 Y108.989 Z0.146065 E0.0116330
G1 F1200.00 X106.769 Y109.488 Z0.169733 E0.0131244
G1 F1200.00 X106.729 Y110.000 Z0.199999 E0.0153729
G1 F1200.00 X106.769 Y110.512 Z0.230265 E0.0178883
G1 F1200.00 X106.889 Y111.011 Z0.253934 E0.0201223
G1 F1200.00 X107.086 Y111.485 Z0.265846 E0.0215880
G1 F1200.00 X107.354 Y111.923 Z0.263404 E0.0219658
G1 F1200.00 X107.687 Y112.313 Z0.247141 E0.0211734
G1 F1200.00 X108.077 Y112.646 Z0.220602 E0.0193836
G1 F1200.00 X108.515 Y112.914 Z0.189572 E0.0169863
G1 F1200.00 X108.989 Y113.111 Z0.160815 E0.0145044
G1 F1200.00 X109.488 Y113.231 Z0.140600 E0.0124787
G1 F1200.00 X110.000 Y113.271 Z0.133333 E0.0113509
G1 F1200.00 X110.000 Y113.667 Z0.133333 E0.0112933
G1 F1200.00 X110.510 Y113.631 Z0.139097 E0.0113043
G1 F1200.00 X111.011 Y113.525 Z0.155391 E0.0122306
G1 F1200.00 X111.491 Y113.350 Z0.179399 E0.0139119
G1 F1200.00 X111.943 Y113.110 Z0.206968 E0.0160576
G1 F1200.00 X112.357 Y112.809 Z0.233333 E0.0182967
G1 F1200.00 X112.725 Y112.453 Z0.253934 E0.0202420
G1 F1200.00 X113.040 Y112.050 Z0.265210 E0.0215571
G1 F1200.00 X113.296 Y111.607 Z0.265210 E0.0220146
G1 F1200.00 X113.487 Y111.133 Z0.253935 E0.0215355
G1 F1200.00 X113.611 Y110.637 Z0.233334 E0.0202026
G1 F1200.00 X113.664 Y110.128 Z0.206969 E0.0182463
G1 F1200.00 X113.647 Y109.617 Z0.179399 E0.0160049
G1 F1200.00 X113.558 Y109.113 Z0.155392 E0.0138660
G1 F1200.00 X113.400 Y108.626 Z0.139097 E0.0121994
G1 F1200.00 X113.175 Y108.167 Z0.133333 E0.0112933
G1 F1200.00 X112.889 Y107.743 Z0.139097 E0.0113043
G1 F1200.00 X112.547 Y107.362 Z0.155391 E0.0122305
G1 F1200.00 X112.155 Y107.034 Z0.179398 E0.0139119
G1 F1200.00 X111.721 Y106.763 Z0.206968 E0.0160576
G1 F1200.00 X111.254 Y106.554 Z0.233333 E0.0182967
G1 F1200.00 X110.762 Y106.413 Z0.253934 E0.0202419
G1 F1200.00 X110.256 Y106.342 Z0.265210 E0.0215570
G1 F1200.00 X109.744 Y106.342 Z0.265210 E0.0220146
G1 F1200.00 X109.238 Y106.413 Z0.253935 E0.0215355
G1 F1200.00 X108.746 Y106.554 Z0.233334 E0.0202026
G1 F1200.00 X108.279 Y106.763 Z0.206969 E0.0182463
G1 F1200.00 X107.845 Y107.034 Z0.179399 E0.0160050
G1 F1200.00 X107.453 Y107.362 Z0.155392 E0.0138660
G1 F1200.00 X107.111 Y107.743 Z0.139097 E0.0121994
G1 F1200.00 X106.825 Y108.167 Z0.133333 E0.0112933
G1 F1200.00 X106.600 Y108.626 Z0.139097 E0.0113043
G1 F1200.00 X106.442 Y109.113 Z0.155391 E0.0122305
G1 F1200.00 X106.353 Y109.617 Z0.179398 E0.0139119
G1 F1200.00 X106.336 Y110.128 Z0.206968 E0.0160576
G1 F1200.00 X106.389 Y110.637 Z0.233333 E0.0182966
G1 F1200.00 X106.513 Y111.133 Z0.253934 E0.0202419
G1 F1200.00 X106.704 Y111.607 Z0.265210 E0.0215570
G1 F1200.00 X106.960 Y112.050 Z0.265210 E0.0220146
G1 F1200.00 X107.275 Y112.453 Z0.253935 E0.0215355
G1 F1200.00 X107.643 Y112.809 Z0.233334 E0.0202026
G1 F1200.00 X108.057 Y113.110 Z0.206970 E0.0182463
G1 F1200.00 X108.509 Y113.350 Z0.179400 E0.0160050
G1 F1200.00 X108.989 Y113.525 Z0.155392 E0.0138661
G1 F1200.00 X109.490 Y113.631 Z0.139097 E0.0121994
G1 F1200.00 X110.000 Y113.667 Z0.133333 E0.0112933
G1 F1200.00 X110.000 Y114.062 Z0.133333 E0.0112514
G1 F1200.00 X110.509 Y114.030 Z0.138015 E0.0112593
G1 F1200.00 X111.010 Y113.935 Z0.151402 E0.0120170
G1 F1200.00 X111.496 Y113.777 Z0.171615 E0.0134179
G1 F1200.00 X111.957 Y113.560 Z0.195814 E0.0152655
G1 F1200.00 X112.388 Y113.287 Z0.220601 E0.0173001
G1 F1200.00 X112.781 Y112.961 Z0.242495 E0.0192360
G1 F1200.00 X113.130 Y112.590 Z0.258420 E0.0208014
G1 F1200.00 X113.430 Y112.177 Z0.266141 E0.0217763
G1 F1200.00 X113.676 Y111.730 Z0.264572 E0.0220239
G1 F1200.00 X113.864 Y111.255 Z0.253935 E0.0215094
G1 F1200.00 X113.991 Y110.761 Z0.235722 E0.0203050
G1 F1200.00 X114.054 Y110.255 Z0.212492 E0.0185799
G1 F1200.00 X114.054 Y109.745 Z0.187508 E0.0165764
G1 F1200.00 X113.991 Y109.239 Z0.164278 E0.0145759
G1 F1200.00 X113.864 Y108.745 Z0.146066 E0.0128593
G1 F1200.00 X113.676 Y108.270 Z0.135428 E0.0116677
G1 F1200.00 X113.430 Y107.823 Z0.133859 E0.0111685
G1 F1200.00 X113.130 Y107.410 Z0.141579 E0.0114317
G1 F1200.00 X112.781 Y107.039 Z0.157505 E0.0124205
G1 F1200.00 X112.388 Y106.713 Z0.179398 E0.0139960
G1 F1200.00 X111.957 Y106.440 Z0.204186 E0.0159368
G1 F1200.00 X111.496 Y106.223 Z0.228385 E0.0179704
G1 F1200.00 X111.010 Y106.065 Z0.248598 E0.0198112
G1 F1200.00 X110.509 Y105.970 Z0.261985 E0.0212006
G1 F1200.00 X110.000 Y105.938 Z0.266667 E0.0219436
G1 F1200.00 X109.491 Y105.970 Z0.261985 E0.0219357
G1 F1200.00 X108.990 Y106.065 Z0.248598 E0.0211781
G1 F1200.00 X108.505 Y106.223 Z0.228386 E0.0197771
G1 F1200.00 X108.043 Y106.440 Z0.204187 E0.0179296
G1 F1200.00 X107.612 Y106.713 Z0.179399 E0.0158950
G1 F1200.00 X107.219 Y107.039 Z0.157506 E0.0139591
G1 F1200.00 X106.870 Y107.410 Z0.141580 E0.0123937
G1 F1200.00 X106.570 Y107.823 Z0.133859 E0.0114187
G1 F1200.00 X106.324 Y108.270 Z0.135428 E0.0111711
G1 F1200.00 X106.136 Y108.745 Z0.146065 E0.0116856
G1 F1200.00 X106.009 Y109.239 Z0.164278 E0.0128900
G1 F1200.00 X105.946 Y109.745 Z0.187507 E0.0146150
G1 F1200.00 X105.946 Y110.255 Z0.212491 E0.0166185
G1 F1200.00 X106.009 Y110.761 Z0.235721 E0.0186191
G1 F1200.00 X106.136 Y111.255 Z0.253934 E0.0203357
G1 F1200.00 X106.324 Y111.730 Z0.264572 E0.0215273
G1 F1200.00 X106.570 Y112.177 Z0.266141 E0.0220265
G1 F1200.00 X106.870 Y112.590 Z0.258421 E0.0217633
G1 F1200.00 X107.219 Y112.961 Z0.242496 E0.0207745
G1 F1200.00 X107.612 Y113.287 Z0.220602 E0.0191991
G1 F1200.00 X108.043 Y113.560 Z0.195815 E0.0172583
G1 F1200.00 X108.504 Y113.777 Z0.171616 E0.0152247
G1 F1200.00 X108.990 Y113.935 Z0.151403 E0.0133839
G1 F1200.00 X109.491 Y114.030 Z0.138015 E0.0119944
G1 F1200.00 X110.000 Y114.062 Z0.133333 E0.0112515
G1 F1200.00 X110.000 Y114.458 Z0.133333 E0.0112201
G1 F1200.00 X110.508 Y114.429 Z0.137210 E0.0112259
G1 F1200.00 X111.010 Y114.342 Z0.148391 E0.0118565
G1 F1200.00 X111.498 Y114.199 Z0.165573 E0.0130386
G1 F1200.00 X111.967 Y114.001 Z0.186761 E0.0146346
G1 F1200.00 X112.410 Y113.751 Z0.209488 E0.0164588
G1 F1200.00 X112.822 Y113.451 Z0.231111 E0.0182993
G1 F1200.00 X113.197 Y113.107 Z0.249116 E0.0199417
G1 F1200.00 X113.531 Y112.722 Z0.261408 E0.0211953
G1 F1200.00 X113.818 Y112.302 Z0.266558 E0.0219140
G1 F1200.00 X114.055 Y111.852 Z0.263966 E0.0220144
G1 F1200.00 X114.240 Y111.378 Z0.253935 E0.0214847
G1 F1200.00 X114.370 Y110.885 Z0.237630 E0.0203866
G1 F1200.00 X114.442 Y110.382 Z0.216948 E0.0188478
G1 F1200.00 X114.457 Y109.873 Z0.194295 E0.0170473
G1 F1200.00 X114.413 Y109.366 Z0.172306 E0.0151944
G1 F1200.00 X114.312 Y108.867 Z0.153538 E0.0135047
G1 F1200.00 X114.155 Y108.382 Z0.140174 E0.0121748
G1 F1200.00 X113.943 Y107.919 Z0.133768 E0.0113593
G1 F1200.00 X113.680 Y107.484 Z0.135066 E0.0111530
G1 F1200.00 X113.369 Y107.080 Z0.143916 E0.0115800
G1 F1200.00 X113.015 Y106.715 Z0.159290 E0.0125906
G1 F1200.00 X112.621 Y106.393 Z0.179398 E0.0140672
G1 F1200.00 X112.192 Y106.118 Z0.201903 E0.0158382
G1 F1200.00 X111.736 Y105.893 Z0.224187 E0.0176974
G1 F1200.00 X111.256 Y105.722 Z0.243657 E0.0194287
G1 F1200.00 X110.760 Y105.607 Z0.258049 E0.0208308
G1 F1200.00 X110.255 Y105.549 Z0.265690 E0.0217404
G1 F1200.00 X109.745 Y105.549 Z0.265690 E0.0220519
G1 F1200.00 X109.240 Y105.607 Z0.258050 E0.0217290
G1 F1200.00 X108.744 Y105.722 Z0.243658 E0.0208092
G1 F1200.00 X108.265 Y105.893 Z0.224188 E0.0193995
G1 F1200.00 X107.808 Y106.118 Z0.201904 E0.0176640
G1 F1200.00 X107.379 Y106.393 Z0.179399 E0.0158044
G1 F1200.00 X106.985 Y106.715 Z0.159291 E0.0140371
G1 F1200.00 X106.631 Y107.080 Z0.143917 E0.0125675
G1 F1200.00 X106.320 Y107.484 Z0.135066 E0.0115667
G1 F1200.00 X106.057 Y107.919 Z0.133768 E0.0111511
G1 F1200.00 X105.845 Y108.382 Z0.140173 E0.0113689
G1 F1200.00 X105.688 Y108.867 Z0.153537 E0.0121948
G1 F1200.00 X105.587 Y109.365 Z0.172305 E0.0135329
G1 F1200.00 X105.543 Y109.873 Z0.194294 E0.0152274
G1 F1200.00 X105.558 Y110.382 Z0.216947 E0.0170812
G1 F1200.00 X105.630 Y110.885 Z0.237629 E0.0188788
G1 F1200.00 X105.760 Y111.378 Z0.253934 E0.0204111
G1 F1200.00 X105.945 Y111.852 Z0.263966 E0.0214998
G1 F1200.00 X106.182 Y112.302 Z0.266558 E0.0220183
G1 F1200.00 X106.469 Y112.722 Z0.261409 E0.0219063
G1 F1200.00 X106.803 Y113.107 Z0.249117 E0.0211768
G1 F1200.00 X107.178 Y113.451 Z0.231112 E0.0199147
G1 F1200.00 X107.590 Y113.751 Z0.209489 E0.0182668
G1 F1200.00 X108.033 Y114.001 Z0.186762 E0.0164247
G1 F1200.00 X108.502 Y114.199 Z0.165574 E0.0146028
G1 F1200.00 X108.990 Y114.342 Z0.148391 E0.0130128
G1 F1200.00 X109.492 Y114.429 Z0.137211 E0.0118398
G1 F1200.00 X110.000 Y114.458 Z0.133333 E0.0112201
G1 F1200.00 X110.000 Y114.854 Z0.133333 E0.0111960
G1 F1200.00 X110.507 Y114.828 Z0.136596 E0.0112004
G1 F1200.00 X111.009 Y114.748 Z0.146066 E0.0117331
G1 F1200.00 X111.500 Y114.617 Z0.160814 E0.0127420
G1 F1200.00 X111.974 Y114.435 Z0.179399 E0.0141283
G1 F1200.00 X112.427 Y114.204 Z0.200000 E0.0157562
G1 F1200.00 X112.853 Y113.927 Z0.220601 E0.0174666
G1 F1200.00 X113.248 Y113.607 Z0.239186 E0.0190918
G1 F1200.00 X113.607 Y113.248 Z0.253934 E0.0204729
G1 F1200.00 X113.927 Y112.853 Z0.263404 E0.0214746
G1 F1200.00 X114.204 Y112.427 Z0.266667 E0.0219990
G1 F1200.00 X114.434 Y111.974 Z0.263404 E0.0219946
G1 F1200.00 X114.617 Y111.500 Z0.253935 E0.0214619
G1 F1200.00 X114.748 Y111.009 Z0.239186 E0.0204530
G1 F1200.00 X114.828 Y110.507 Z0.220601 E0.0190668
G1 F1200.00 X114.854 Y110.000 Z0.200000 E0.0174388
G1 F1200.00 X114.828 Y109.493 Z0.179399 E0.0157285
G1 F1200.00 X114.748 Y108.991 Z0.160815 E0.0141032
G1 F1200.00 X114.617 Y108.500 Z0.146066 E0.0127221
G1 F1200.00 X114.435 Y108.026 Z0.136596 E0.0117204
G1 F1200.00 X114.204 Y107.573 Z0.133333 E0.0111960
G1 F1200.00 X113.927 Y107.147 Z0.136596 E0.0112004
G1 F1200.00 X113.607 Y106.752 Z0.146065 E0.0117331
G1 F1200.00 X113.248 Y106.393 Z0.160814 E0.0127420
G1 F1200.00 X112.853 Y106.073 Z0.179398 E0.0141282
G1 F1200.00 X112.427 Y105.796 Z0.200000 E0.0157562
G1 F1200.00 X111.974 Y105.566 Z0.220601 E0.0174665
G1 F1200.00 X111.500 Y105.383 Z0.239185 E0.0190918
G1 F1200.00 X111.009 Y105.252 Z0.253934 E0.0204729
G1 F1200.00 X110.507 Y105.172 Z0.263404 E0.0214746
G1 F1200.00 X110.000 Y105.146 Z0.266667 E0.0219990
G1 F1200.00 X109.493 Y105.172 Z0.263404 E0.0219946
G1 F1200.00 X108.991 Y105.252 Z0.253935 E0.0214619
G1 F1200.00 X108.500 Y105.383 Z0.239186 E0.0204531
G1 F1200.00 X108.026 Y105.565 Z0.220602 E0.0190668
G1 F1200.00 X107.573 Y105.796 Z0.200001 E0.0174388
G1 F1200.00 X107.147 Y106.073 Z0.179399 E0.0157285
G1 F1200.00 X106.752 Y106.393 Z0.160815 E0.0141032
G1 F1200.00 X106.393 Y106.752 Z0.146066 E0.0127221
G1 F1200.00 X106.073 Y107.147 Z0.136596 E0.0117204
G1 F1200.00 X105.796 Y107.573 Z0.133333 E0.0111960
G1 F1200.00 X105.566 Y108.026 Z0.136596 E0.0112004
G1 F1200.00 X105.383 Y108.500 Z0.146065 E0.0117331
G1 F1200.00 X105.252 Y108.991 Z0.160814 E0.0127420
G1 F1200.00 X105.172 Y109.493 Z0.179398 E0.0141282
G1 F1200.00 X105.146 Y110.000 Z0.199999 E0.0157562
G1 F1200.00 X105.172 Y110.507 Z0.220600 E0.0174665
G1 F1200.00 X105.252 Y111.009 Z0.239185 E0.0190918
G1 F1200.00 X105.383 Y111.500 Z0.253934 E0.0204729
G1 F1200.00 X105.565 Y111.974 Z0.263403 E0.0214746
G1 F1200.00 X105.796 Y112.427 Z0.266667 E0.0219990
G1 F1200.00 X106.073 Y112.853 Z0.263404 E0.0219946
G1 F1200.00 X106.393 Y113.248 Z0.253935 E0.0214619
G1 F1200.00 X106.752 Y113.607 Z0.239186 E0.0204531
G1 F1200.00 X107.147 Y113.927 Z0.220602 E0.0190668
G1 F1200.00 X107.573 Y114.204 Z0.200001 E0.0174389
G1 F1200.00 X108.026 Y114.434 Z0.179400 E0.0157285
G1 F1200.00 X108.500 Y114.617 Z0.160815 E0.0141033
G1 F1200.00 X108.991 Y114.748 Z0.146066 E0.0127222
G1 F1200.00 X109.493 Y114.828 Z0.136597 E0.0117204
G1 F1200.00 X110.000 Y114.854 Z0.133333 E0.0111960
G1 F1200.00 X110.000 Y115.250 Z0.133333 E0.0111771
G1 F1200.00 X110.507 Y115.225 Z0.136117 E0.0111805
G1 F1200.00 X111.009 Y115.152 Z0.144235 E0.0116363
G1 F1200.00 X111.501 Y115.031 Z0.157010 E0.0125063
G1 F1200.00 X111.980 Y114.862 Z0.173376 E0.0137180
G1 F1200.00 X112.440 Y114.649 Z0.191964 E0.0151702
G1 F1200.00 X112.877 Y114.391 Z0.211224 E0.0167415
G1 F1200.00 X113.287 Y114.093 Z0.229546 E0.0183009
G1 F1200.00 X113.667 Y113.757 Z0.245401 E0.0197179
G1 F1200.00 X114.013 Y113.385 Z0.257465 E0.0208744
G1 F1200.00 X114.321 Y112.982 Z0.264729 E0.0216738
G1 F1200.00 X114.588 Y112.551 Z0.266589 E0.0220492
G1 F1200.00 X114.813 Y112.097 Z0.262888 E0.0219694
G1 F1200.00 X114.993 Y111.622 Z0.253935 E0.0214409
G1 F1200.00 X115.126 Y111.133 Z0.240478 E0.0205081
G1 F1200.00 X115.212 Y110.633 Z0.223641 E0.0192486
G1 F1200.00 X115.248 Y110.127 Z0.204829 E0.0177678
G1 F1200.00 X115.236 Y109.620 Z0.185615 E0.0161892
G1 F1200.00 X115.175 Y109.116 Z0.167601 E0.0146447
G1 F1200.00 X115.066 Y108.621 Z0.152294 E0.0132633
G1 F1200.00 X114.909 Y108.138 Z0.140970 E0.0121604
G1 F1200.00 X114.706 Y107.673 Z0.134575 E0.0114279
G1 F1200.00 X114.460 Y107.230 Z0.133645 E0.0111272
G1 F1200.00 X114.172 Y106.812 Z0.138255 E0.0112833
G1 F1200.00 X113.844 Y106.425 Z0.148021 E0.0118832
G1 F1200.00 X113.481 Y106.070 Z0.162129 E0.0128767
G1 F1200.00 X113.086 Y105.753 Z0.179398 E0.0141810
G1 F1200.00 X112.662 Y105.475 Z0.198389 E0.0156871
G1 F1200.00 X112.212 Y105.239 Z0.217513 E0.0172692
G1 F1200.00 X111.743 Y105.048 Z0.235176 E0.0187952
G1 F1200.00 X111.256 Y104.903 Z0.249900 E0.0201377
G1 F1200.00 X110.759 Y104.805 Z0.260458 E0.0211845
G1 F1200.00 X110.254 Y104.756 Z0.265967 E0.0218483
G1 F1200.00 X109.746 Y104.756 Z0.265967 E0.0220736
G1 F1200.00 X109.241 Y104.805 Z0.260459 E0.0218417
G1 F1200.00 X108.744 Y104.903 Z0.249901 E0.0211717
G1 F1200.00 X108.257 Y105.048 Z0.235177 E0.0201198
G1 F1200.00 X107.788 Y105.239 Z0.217514 E0.0187738
G1 F1200.00 X107.338 Y105.475 Z0.198390 E0.0172460
G1 F1200.00 X106.914 Y105.753 Z0.179399 E0.0156641
G1 F1200.00 X106.519 Y106.070 Z0.162130 E0.0141601
G1 F1200.00 X106.156 Y106.425 Z0.148022 E0.0128596
G1 F1200.00 X105.828 Y106.812 Z0.138255 E0.0118713
G1 F1200.00 X105.540 Y107.230 Z0.133645 E0.0112777
G1 F1200.00 X105.294 Y107.673 Z0.134575 E0.0111283
G1 F1200.00 X105.091 Y108.138 Z0.140969 E0.0114357
G1 F1200.00 X104.934 Y108.621 Z0.152293 E0.0121741
G1 F1200.00 X104.825 Y109.116 Z0.167600 E0.0132819
G1 F1200.00 X104.764 Y109.620 Z0.185614 E0.0146665
G1 F1200.00 X104.752 Y110.127 Z0.204828 E0.0162125
G1 F1200.00 X104.788 Y110.633 Z0.223640 E0.0177905
G1 F1200.00 X104.874 Y111.133 Z0.240477 E0.0192690
G1 F1200.00 X105.007 Y111.622 Z0.253934 E0.0205244
G1 F1200.00 X105.187 Y112.097 Z0.262887 E0.0214518
G1 F1200.00 X105.412 Y112.551 Z0.266589 E0.0219739
G1 F1200.00 X105.679 Y112.982 Z0.264730 E0.0220470
G1 F1200.00 X105.987 Y113.385 Z0.257465 E0.0216650
G1 F1200.00 X106.333 Y113.757 Z0.245402 E0.0208598
G1 F1200.00 X106.713 Y114.093 Z0.229547 E0.0196987
G1 F1200.00 X107.123 Y114.391 Z0.211225 E0.0182787
G1 F1200.00 X107.560 Y114.649 Z0.191965 E0.0167182
G1 F1200.00 X108.020 Y114.862 Z0.173377 E0.0151477
G1 F1200.00 X108.499 Y115.031 Z0.157011 E0.0136982
G1 F1200.00 X108.991 Y115.152 Z0.144236 E0.0124909
G1 F1200.00 X109.493 Y115.225 Z0.136117 E0.0116264
G1 F1200.00 X110.000 Y115.250 Z0.133333 E0.0111772
G1 F1200.00 X110.000 Y115.646 Z0.133333 E0.0111621
G1 F1200.00 X110.506 Y115.623 Z0.135736 E0.0111647
G1 F1200.00 X111.008 Y115.555 Z0.142770 E0.0115589
G1 F1200.00 X111.502 Y115.442 Z0.153929 E0.0123163
G1 F1200.00 X111.984 Y115.286 Z0.168409 E0.0133822
G1 F1200.00 X112.450 Y115.087 Z0.185165 E0.0146799
G1 F1200.00 X112.896 Y114.847 Z0.202991 E0.0161158
G1 F1200.00 X113.319 Y114.568 Z0.220601 E0.0175864
G1 F1200.00 X113.715 Y114.252 Z0.236726 E0.0189857
G1 F1200.00 X114.081 Y113.902 Z0.250205 E0.0202129
G1 F1200.00 X114.414 Y113.520 Z0.260065 E0.0211795
G1 F1200.00 X114.712 Y113.110 Z0.265595 E0.0218159
G1 F1200.00 X114.972 Y112.675 Z0.266398 E0.0220762
G1 F1200.00 X115.191 Y112.219 Z0.262416 E0.0219416
G1 F1200.00 X115.370 Y111.745 Z0.253935 E0.0214218
G1 F1200.00 X115.504 Y111.256 Z0.241566 E0.0205543
G1 F1200.00 X115.595 Y110.758 Z0.226202 E0.0194017
G1 F1200.00 X115.640 Y110.253 Z0.208949 E0.0180469
G1 F1200.00 X115.640 Y109.747 Z0.191051 E0.0165877
G1 F1200.00 X115.595 Y109.242 Z0.173799 E0.0151291
G1 F1200.00 X115.504 Y108.744 Z0.158434 E0.0137765
G1 F1200.00 X115.370 Y108.255 Z0.146066 E0.0126271
G1 F1200.00 X115.192 Y107.781 Z0.137584 E0.0117639
G1 F1200.00 X114.972 Y107.325 Z0.133602 E0.0112491
G1 F1200.00 X114.712 Y106.890 Z0.134405 E0.0111197
G1 F1200.00 X114.414 Y106.480 Z0.139935 E0.0113852
G1 F1200.00 X114.081 Y106.098 Z0.149795 E0.0120263
G1 F1200.00 X113.715 Y105.748 Z0.163273 E0.0129969
G1 F1200.00 X113.319 Y105.432 Z0.179398 E0.0142271
G1 F1200.00 X112.896 Y105.153 Z0.197009 E0.0156280
G1 F1200.00 X112.450 Y104.913 Z0.214834 E0.0170989
G1 F1200.00 X111.984 Y104.714 Z0.231591 E0.0185336
G1 F1200.00 X111.502 Y104.558 Z0.246070 E0.0198287
G1 F1200.00 X111.008 Y104.445 Z0.257230 E0.0208910
G1 F1200.00 X110.506 Y104.377 Z0.264264 E0.0216438
G1 F1200.00 X110.000 Y104.354 Z0.266667 E0.0220329
G1 F1200.00 X109.494 Y104.377 Z0.264264 E0.0220303
G1 F1200.00 X108.992 Y104.445 Z0.257230 E0.0216361
G1 F1200.00 X108.498 Y104.558 Z0.246071 E0.0208788
G1 F1200.00 X108.016 Y104.714 Z0.231592 E0.0198128
G1 F1200.00 X107.550 Y104.913 Z0.214835 E0.0185152
G1 F1200.00 X107.104 Y105.153 Z0.197010 E0.0170793
G1 F1200.00 X106.681 Y105.432 Z0.179399 E0.0156087
G1 F1200.00 X106.285 Y105.748 Z0.163274 E0.0142094
G1 F1200.00 X105.919 Y106.098 Z0.149796 E0.0129822
G1 F1200.00 X105.586 Y106.480 Z0.139936 E0.0120155
G1 F1200.00 X105.288 Y106.890 Z0.134405 E0.0113791
G1 F1200.00 X105.028 Y107.325 Z0.133602 E0.0111188
G1 F1200.00 X104.809 Y107.781 Z0.137584 E0.0112534
G1 F1200.00 X104.630 Y108.255 Z0.146065 E0.0117732
G1 F1200.00 X104.496 Y108.744 Z0.158433 E0.0126407
G1 F1200.00 X104.405 Y109.242 Z0.173798 E0.0137933
G1 F1200.00 X104.360 Y109.747 Z0.191050 E0.0151481
G1 F1200.00 X104.360 Y110.253 Z0.208948 E0.0166073
G1 F1200.00 X104.405 Y110.758 Z0.226201 E0.0180658
G1 F1200.00 X104.496 Y111.256 Z0.241565 E0.0194185
G1 F1200.00 X104.630 Y111.745 Z0.253934 E0.0205679
G1 F1200.00 X104.808 Y112.219 Z0.262415 E0.0214311
G1 F1200.00 X105.028 Y112.675 Z0.266398 E0.0219460
G1 F1200.00 X105.288 Y113.110 Z0.265595 E0.0220753
G1 F1200.00 X105.586 Y113.520 Z0.260065 E0.0218098
G1 F1200.00 X105.919 Y113.902 Z0.250205 E0.0211687
G1 F1200.00 X106.285 Y114.252 Z0.236727 E0.0201981
G1 F1200.00 X106.681 Y114.568 Z0.220602 E0.0189680
G1 F1200.00 X107.104 Y114.847 Z0.202992 E0.0175670
G1 F1200.00 X107.550 Y115.087 Z0.185166 E0.0160962
G1 F1200.00 X108.016 Y115.286 Z0.168410 E0.0146615
G1 F1200.00 X108.498 Y115.442 Z0.153930 E0.0133663
G1 F1200.00 X108.992 Y115.555 Z0.142771 E0.0123040
G1 F1200.00 X109.494 Y115.623 Z0.135736 E0.0115512
G1 F1200.00 X110.000 Y115.646 Z0.133333 E0.0111621
G1 F1200.00 X110.000 Y116.042 Z0.133333 E0.0111498
G1 F1200.00 X110.506 Y116.020 Z0.135428 E0.0111519
G1 F1200.00 X111.008 Y115.957 Z0.141580 E0.0114962
G1 F1200.00 X111.503 Y115.852 Z0.151402 E0.0121610
G1 F1200.00 X111.987 Y115.706 Z0.164278 E0.0131046
G1 F1200.00 X112.457 Y115.519 Z0.179399 E0.0142676
G1 F1200.00 X112.911 Y115.294 Z0.195814 E0.0155770
G1 F1200.00 X113.343 Y115.032 Z0.212492 E0.0169506
G1 F1200.00 X113.753 Y114.735 Z0.228385 E0.0183019
G1 F1200.00 X114.136 Y114.404 Z0.242495 E0.0195462
G1 F1200.00 X114.490 Y114.043 Z0.253934 E0.0206052
G1 F1200.00 X114.812 Y113.653 Z0.261985 E0.0214124
G1 F1200.00 X115.101 Y113.237 Z0.266141 E0.0219170
G1 F1200.00 X115.354 Y112.799 Z0.266141 E0.0220874
G1 F1200.00 X115.570 Y112.341 Z0.261985 E0.0219129
G1 F1200.00 X115.746 Y111.867 Z0.253935 E0.0214043
G1 F1200.00 X115.882 Y111.380 Z0.242495 E0.0205938
G1 F1200.00 X115.977 Y110.883 Z0.228386 E0.0195321
G1 F1200.00 X116.030 Y110.379 Z0.212492 E0.0182860
G1 F1200.00 X116.040 Y109.873 Z0.195814 E0.0169339
G1 F1200.00 X116.009 Y109.368 Z0.179399 E0.0155606
G1 F1200.00 X115.935 Y108.868 Z0.164278 E0.0142525
G1 F1200.00 X115.819 Y108.375 Z0.151402 E0.0130917
G1 F1200.00 X115.663 Y107.894 Z0.141580 E0.0121512
G1 F1200.00 X115.467 Y107.428 Z0.135428 E0.0114900
G1 F1200.00 X115.232 Y106.979 Z0.133333 E0.0111498
G1 F1200.00 X114.961 Y106.552 Z0.135428 E0.0111519
G1 F1200.00 X114.655 Y106.149 Z0.141579 E0.0114962
G1 F1200.00 X114.317 Y105.773 Z0.151402 E0.0121610
G1 F1200.00 X113.948 Y105.426 Z0.164278 E0.0131045
G1 F1200.00 X113.551 Y105.112 Z0.179398 E0.0142676
G1 F1200.00 X113.130 Y104.832 Z0.195814 E0.0155770
G1 F1200.00 X112.686 Y104.588 Z0.212492 E0.0169505
G1 F1200.00 X112.224 Y104.383 Z0.228385 E0.0183019
G1 F1200.00 X111.746 Y104.216 Z0.242495 E0.0195462
G1 F1200.00 X111.256 Y104.090 Z0.253934 E0.0206052
G1 F1200.00 X110.757 Y104.006 Z0.261985 E0.0214124
G1 F1200.00 X110.253 Y103.964 Z0.266141 E0.0219170
G1 F1200.00 X109.747 Y103.964 Z0.266141 E0.0220874
G1 F1200.00 X109.243 Y104.006 Z0.261985 E0.0219129
G1 F1200.00 X108.744 Y104.090 Z0.253935 E0.0214044
G1 F1200.00 X108.254 Y104.216 Z0.242495 E0.0205938
G1 F1200.00 X107.776 Y104.383 Z0.228386 E0.0195321
G1 F1200.00 X107.314 Y104.588 Z0.212493 E0.0182861
G1 F1200.00 X106.870 Y104.832 Z0.195815 E0.0169339
G1 F1200.00 X106.449 Y105.112 Z0.179399 E0.0155606
G1 F1200.00 X106.052 Y105.426 Z0.164279 E0.0142525
G1 F1200.00 X105.683 Y105.773 Z0.151403 E0.0130917
G1 F1200.00 X105.345 Y106.149 Z0.141580 E0.0121512
G1 F1200.00 X105.039 Y106.552 Z0.135428 E0.0114900
G1 F1200.00 X104.768 Y106.979 Z0.133333 E0.0111498
G1 F1200.00 X104.533 Y107.428 Z0.135428 E0.0111519
G1 F1200.00 X104.337 Y107.894 Z0.141579 E0.0114962
G1 F1200.00 X104.181 Y108.375 Z0.151402 E0.0121610
G1 F1200.00 X104.065 Y108.868 Z0.164278 E0.0131045
G1 F1200.00 X103.991 Y109.368 Z0.179398 E0.0142675
G1 F1200.00 X103.960 Y109.873 Z0.195813 E0.0155770
G1 F1200.00 X103.970 Y110.379 Z0.212491 E0.0169505
G1 F1200.00 X104.023 Y110.883 Z0.228385 E0.0183019
G1 F1200.00 X104.118 Y111.380 Z0.242494 E0.0195462
G1 F1200.00 X104.254 Y111.867 Z0.253934 E0.0206052
G1 F1200.00 X104.430 Y112.341 Z0.261985 E0.0214124
G1 F1200.00 X104.646 Y112.799 Z0.266141 E0.0219170
G1 F1200.00 X104.899 Y113.237 Z0.266141 E0.0220874
G1 F1200.00 X105.188 Y113.653 Z0.261985 E0.0219129
G1 F1200.00 X105.510 Y114.043 Z0.253935 E0.0214044
G1 F1200.00 X105.864 Y114.404 Z0.242496 E0.0205938
G1 F1200.00 X106.247 Y114.735 Z0.228386 E0.0195322
G1 F1200.00 X106.657 Y115.032 Z0.212493 E0.0182861
G1 F1200.00 X107.089 Y115.294 Z0.195815 E0.0169339
G1 F1200.00 X107.543 Y115.519 Z0.179400 E0.0155607
G1 F1200.00 X108.013 Y115.706 Z0.164279 E0.0142525
G1 F1200.00 X108.497 Y115.852 Z0.151403 E0.0130917
G1 F1200.00 X108.992 Y115.957 Z0.141580 E0.0121512
G1 F1200.00 X109.494 Y116.020 Z0.135428 E0.0114901
G1 F1200.00 X110.000 Y116.042 Z0.133333 E0.0111498
G1 F1200.00 X110.000 Y116.438 Z0.133333 E0.0111398
G1 F1200.00 X110.505 Y116.418 Z0.135175 E0.0111414
G1 F1200.00 X111.007 Y116.358 Z0.140600 E0.0114446
G1 F1200.00 X111.503 Y116.260 Z0.149306 E0.0120326
G1 F1200.00 X111.989 Y116.122 Z0.160814 E0.0128728
G1 F1200.00 X112.464 Y115.947 Z0.174488 E0.0139188
G1 F1200.00 X112.923 Y115.736 Z0.189571 E0.0151128
G1 F1200.00 X113.364 Y115.489 Z0.205231 E0.0163889
G1 F1200.00 X113.784 Y115.208 Z0.220601 E0.0176766
G1 F1200.00 X114.181 Y114.895 Z0.234833 E0.0189045
G1 F1200.00 X114.552 Y114.552 Z0.247140 E0.0200051
G1 F1200.00 X114.895 Y114.181 Z0.256843 E0.0209173
G1 F1200.00 X115.208 Y113.784 Z0.263404 E0.0215907
G1 F1200.00 X115.489 Y113.364 Z0.266461 E0.0219883
G1 F1200.00 X115.736 Y112.923 Z0.265846 E0.0220880
G1 F1200.00 X115.947 Y112.464 Z0.261592 E0.0218843
G1 F1200.00 X116.122 Y111.989 Z0.253935 E0.0213884
G1 F1200.00 X116.260 Y111.503 Z0.243297 E0.0206278
G1 F1200.00 X116.358 Y111.007 Z0.230266 E0.0196444
G1 F1200.00 X116.418 Y110.505 Z0.215563 E0.0184927
G1 F1200.00 X116.437 Y110.000 Z0.200000 E0.0172363
G1 F1200.00 X116.418 Y109.495 Z0.184437 E0.0159445
G1 F1200.00 X116.358 Y108.993 Z0.169734 E0.0146889
G1 F1200.00 X116.260 Y108.497 Z0.156704 E0.0135387
G1 F1200.00 X116.122 Y108.011 Z0.146066 E0.0125576
G1 F1200.00 X115.947 Y107.536 Z0.138408 E0.0117997
G1 F1200.00 X115.736 Y107.077 Z0.134154 E0.0113069
G1 F1200.00 X115.489 Y106.636 Z0.133539 E0.0111065
G1 F1200.00 X115.208 Y106.216 Z0.136596 E0.0112095
G1 F1200.00 X114.895 Y105.819 Z0.143157 E0.0116103
G1 F1200.00 X114.552 Y105.448 Z0.152859 E0.0122866
G1 F1200.00 X114.181 Y105.105 Z0.165166 E0.0132012
G1 F1200.00 X113.784 Y104.792 Z0.179398 E0.0143035
G1 F1200.00 X113.364 Y104.511 Z0.194769 E0.0155325
G1 F1200.00 X112.923 Y104.264 Z0.210429 E0.0168204
G1 F1200.00 X112.464 Y104.053 Z0.225512 E0.0180959
G1 F1200.00 X111.989 Y103.878 Z0.239185 E0.0192887
G1 F1200.00 X111.503 Y103.740 Z0.250693 E0.0203328
G1 F1200.00 X111.007 Y103.642 Z0.259400 E0.0211704
G1 F1200.00 X110.505 Y103.582 Z0.264825 E0.0217553
G1 F1200.00 X110.000 Y103.563 Z0.266667 E0.0220553
G1 F1200.00 X109.495 Y103.582 Z0.264825 E0.0220536
G1 F1200.00 X108.993 Y103.642 Z0.259401 E0.0217504
G1 F1200.00 X108.497 Y103.740 Z0.250694 E0.0211625
G1 F1200.00 X108.011 Y103.878 Z0.239186 E0.0203223
G1 F1200.00 X107.536 Y104.053 Z0.225513 E0.0192763
G1 F1200.00 X107.077 Y104.264 Z0.210430 E0.0180822
G1 F1200.00 X106.636 Y104.511 Z0.194770 E0.0168061
G1 F1200.00 X106.216 Y104.792 Z0.179399 E0.0155185
G1 F1200.00 X105.819 Y105.105 Z0.165167 E0.0142905
G1 F1200.00 X105.448 Y105.448 Z0.152860 E0.0131900
G1 F1200.00 X105.105 Y105.819 Z0.143158 E0.0122778
G1 F1200.00 X104.792 Y106.216 Z0.136596 E0.0116043
G1 F1200.00 X104.511 Y106.636 Z0.133539 E0.0112067
G1 F1200.00 X104.264 Y107.077 Z0.134154 E0.0111070
G1 F1200.00 X104.053 Y107.536 Z0.138408 E0.0113108
G1 F1200.00 X103.878 Y108.011 Z0.146065 E0.0118066
G1 F1200.00 X103.740 Y108.497 Z0.156703 E0.0125672
G1 F1200.00 X103.642 Y108.993 Z0.169733 E0.0135506
G1 F1200.00 X103.582 Y109.495 Z0.184436 E0.0147023
G1 F1200.00 X103.563 Y110.000 Z0.199999 E0.0159587
G1 F1200.00 X103.582 Y110.505 Z0.215562 E0.0172504
G1 F1200.00 X103.642 Y111.007 Z0.230265 E0.0185061
G1 F1200.00 X103.740 Y111.503 Z0.243296 E0.0196563
G1 F1200.00 X103.878 Y111.989 Z0.253934 E0.0206374
G1 F1200.00 X104.053 Y112.463 Z0.261592 E0.0213953
G1 F1200.00 X104.264 Y112.923 Z0.265846 E0.0218881
G1 F1200.00 X104.511 Y113.364 Z0.266461 E0.0220885
G1 F1200.00 X104.792 Y113.784 Z0.263404 E0.0219855
G1 F1200.00 X105.105 Y114.181 Z0.256843 E0.0215848
G1 F1200.00 X105.448 Y114.552 Z0.247141 E0.0209084
G1 F1200.00 X105.819 Y114.895 Z0.234834 E0.0199939
G1 F1200.00 X106.216 Y115.208 Z0.220602 E0.0188916
G1 F1200.00 X106.636 Y115.489 Z0.205232 E0.0176626
G1 F1200.00 X107.077 Y115.736 Z0.189572 E0.0163747
G1 F1200.00 X107.536 Y115.947 Z0.174489 E0.0150991
G1 F1200.00 X108.011 Y116.122 Z0.160815 E0.0139064
G1 F1200.00 X108.497 Y116.260 Z0.149307 E0.0128623
G1 F1200.00 X108.993 Y116.358 Z0.140600 E0.0120247
G1 F1200.00 X109.495 Y116.418 Z0.135176 E0.0114397
G1 F1200.00 X110.000 Y116.437 Z0.133333 E0.0111398
G1 F1200.00 X110.000 Y116.833 Z0.133333 E0.0111314
G1 F1200.00 X110.505 Y116.815 Z0.134966 E0.0111328
G1 F1200.00 X111.007 Y116.759 Z0.139784 E0.0114018
G1 F1200.00 X111.503 Y116.666 Z0.147550 E0.0119252
G1 F1200.00 X111.991 Y116.537 Z0.157886 E0.0126775
G1 F1200.00 X112.468 Y116.372 Z0.170284 E0.0136218
G1 F1200.00 X112.932 Y116.172 Z0.184138 E0.0147119
G1 F1200.00 X113.380 Y115.939 Z0.198768 E0.0158942
G1 F1200.00 X113.810 Y115.673 Z0.213459 E0.0171111
G1 F1200.00 X114.218 Y115.376 Z0.227490 E0.0183027
G1 F1200.00 X114.604 Y115.050 Z0.240176 E0.0194109
G1 F1200.00 X114.964 Y114.696 Z0.250893 E0.0203812
G1 F1200.00 X115.297 Y114.317 Z0.259118 E0.0211663
G1 F1200.00 X115.602 Y113.914 Z0.264448 E0.0217276
G1 F1200.00 X115.875 Y113.489 Z0.266621 E0.0220376
G1 F1200.00 X116.117 Y113.046 Z0.265532 E0.0220812
G1 F1200.00 X116.325 Y112.586 Z0.261233 E0.0218563
G1 F1200.00 X116.499 Y112.112 Z0.253935 E0.0213738
G1 F1200.00 X116.637 Y111.626 Z0.243995 E0.0206573
G1 F1200.00 X116.739 Y111.131 Z0.231901 E0.0197421
G1 F1200.00 X116.804 Y110.631 Z0.218244 E0.0186728
G1 F1200.00 X116.832 Y110.126 Z0.203694 E0.0175019
G1 F1200.00 X116.823 Y109.621 Z0.188963 E0.0162866
G1 F1200.00 X116.776 Y109.119 Z0.174773 E0.0150867
G1 F1200.00 X116.693 Y108.620 Z0.161818 E0.0139607
G1 F1200.00 X116.572 Y108.130 Z0.150733 E0.0129638
G1 F1200.00 X116.416 Y107.650 Z0.142061 E0.0121449
G1 F1200.00 X116.225 Y107.182 Z0.136226 E0.0115441
G1 F1200.00 X116.000 Y106.730 Z0.133515 E0.0111908
G1 F1200.00 X115.742 Y106.296 Z0.134061 E0.0111023
G1 F1200.00 X115.453 Y105.882 Z0.137835 E0.0112829
G1 F1200.00 X115.134 Y105.491 Z0.144654 E0.0117238
G1 F1200.00 X114.787 Y105.124 Z0.154184 E0.0124034
G1 F1200.00 X114.414 Y104.783 Z0.165958 E0.0132884
G1 F1200.00 X114.017 Y104.472 Z0.179398 E0.0143355
G1 F1200.00 X113.597 Y104.190 Z0.193848 E0.0154933
G1 F1200.00 X113.158 Y103.940 Z0.208600 E0.0167053
G1 F1200.00 X112.702 Y103.724 Z0.222929 E0.0179119
G1 F1200.00 X112.231 Y103.541 Z0.236136 E0.0190542
G1 F1200.00 X111.748 Y103.394 Z0.247574 E0.0200762
G1 F1200.00 X111.256 Y103.283 Z0.256681 E0.0209278
G1 F1200.00 X110.756 Y103.209 Z0.263012 E0.0215673
G1 F1200.00 X110.253 Y103.171 Z0.266257 E0.0219634
G1 F1200.00 X109.748 Y103.171 Z0.266257 E0.0220967
G1 F1200.00 X109.244 Y103.209 Z0.263012 E0.0219607
G1 F1200.00 X108.744 Y103.283 Z0.256681 E0.0215620
G1 F1200.00 X108.252 Y103.394 Z0.247574 E0.0209202
G1 F1200.00 X107.769 Y103.541 Z0.236137 E0.0200667
G1 F1200.00 X107.298 Y103.724 Z0.222930 E0.0190432
G1 F1200.00 X106.842 Y103.940 Z0.208601 E0.0179000
G1 F1200.00 X106.403 Y104.190 Z0.193849 E0.0166930
G1 F1200.00 X105.983 Y104.472 Z0.179399 E0.0154813
G1 F1200.00 X105.586 Y104.783 Z0.165958 E0.0143243
G1 F1200.00 X105.213 Y105.124 Z0.154185 E0.0132786
G1 F1200.00 X104.866 Y105.490 Z0.144655 E0.0123955
G1 F1200.00 X104.547 Y105.882 Z0.137835 E0.0117181
G1 F1200.00 X104.258 Y106.296 Z0.134061 E0.0112798
G1 F1200.00 X104.000 Y106.730 Z0.133515 E0.0111018
G1 F1200.00 X103.775 Y107.182 Z0.136226 E0.0111931
G1 F1200.00 X103.584 Y107.650 Z0.142060 E0.0115490
G1 F1200.00 X103.428 Y108.130 Z0.150732 E0.0121522
G1 F1200.00 X103.307 Y108.620 Z0.161817 E0.0129730
G1 F1200.00 X103.224 Y109.118 Z0.174772 E0.0139714
G1 F1200.00 X103.177 Y109.621 Z0.188962 E0.0150985
G1 F1200.00 X103.168 Y110.126 Z0.203693 E0.0162989
G1 F1200.00 X103.196 Y110.630 Z0.218243 E0.0175140
G1 F1200.00 X103.261 Y111.131 Z0.231900 E0.0186841
G1 F1200.00 X103.363 Y111.626 Z0.243994 E0.0197521
G1 F1200.00 X103.501 Y112.112 Z0.253934 E0.0206656
G1 F1200.00 X103.675 Y112.586 Z0.261232 E0.0213798
G1 F1200.00 X103.883 Y113.046 Z0.265531 E0.0218599
G1 F1200.00 X104.125 Y113.489 Z0.266621 E0.0220822
G1 F1200.00 X104.398 Y113.914 Z0.264448 E0.0220358
G1 F1200.00 X104.703 Y114.317 Z0.259119 E0.0217232
G1 F1200.00 X105.036 Y114.696 Z0.250894 E0.0211595
G1 F1200.00 X105.396 Y115.050 Z0.240176 E0.0203723
G1 F1200.00 X105.782 Y115.376 Z0.227491 E0.0194003
G1 F1200.00 X106.190 Y115.673 Z0.213460 E0.0182911
G1 F1200.00 X106.620 Y115.939 Z0.198769 E0.0170988
G1 F1200.00 X107.068 Y116.172 Z0.184139 E0.0158821
G1 F1200.00 X107.531 Y116.372 Z0.170285 E0.0147003
G1 F1200.00 X108.009 Y116.537 Z0.157887 E0.0136115
G1 F1200.00 X108.497 Y116.666 Z0.147551 E0.0126689
G1 F1200.00 X108.993 Y116.759 Z0.139784 E0.0119188
G1 F1200.00 X109.495 Y116.815 Z0.134966 E0.0113978
G1 F1200.00 X110.000 Y116.833 Z0.133333 E0.0111314
G1 F1200.00 X110.000 Y117.229 Z0.133333 E0.0111243
G1 F1200.00 X110.504 Y117.212 Z0.134790 E0.0111255
G1 F1200.00 X111.006 Y117.159 Z0.139097 E0.0113657
G1 F1200.00 X111.503 Y117.071 Z0.146066 E0.0118347
G1 F1200.00 X111.993 Y116.949 Z0.155391 E0.0125117
G1 F1200.00 X112.473 Y116.793 Z0.166667 E0.0133674
G1 F1200.00 X112.940 Y116.604 Z0.179399 E0.0143642
G1 F1200.00 X113.394 Y116.383 Z0.193031 E0.0154587
G1 F1200.00 X113.831 Y116.131 Z0.206968 E0.0166029
G1 F1200.00 X114.249 Y115.849 Z0.220601 E0.0177468
G1 F1200.00 X114.647 Y115.538 Z0.233333 E0.0188406
G1 F1200.00 X115.022 Y115.200 Z0.244609 E0.0198363
G1 F1200.00 X115.372 Y114.837 Z0.253934 E0.0206904
G1 F1200.00 X115.697 Y114.451 Z0.260903 E0.0213657
G1 F1200.00 X115.993 Y114.043 Z0.265210 E0.0218326
G1 F1200.00 X116.261 Y113.615 Z0.266667 E0.0220707
G1 F1200.00 X116.498 Y113.169 Z0.265210 E0.0220696
G1 F1200.00 X116.703 Y112.708 Z0.260903 E0.0218293
G1 F1200.00 X116.875 Y112.234 Z0.253935 E0.0213604
G1 F1200.00 X117.014 Y111.749 Z0.244609 E0.0206833
G1 F1200.00 X117.119 Y111.255 Z0.233334 E0.0198276
G1 F1200.00 X117.190 Y110.756 Z0.220601 E0.0188308
G1 F1200.00 X117.225 Y110.252 Z0.206969 E0.0177364
G1 F1200.00 X117.225 Y109.748 Z0.193032 E0.0165922
G1 F1200.00 X117.190 Y109.244 Z0.179399 E0.0154482
G1 F1200.00 X117.119 Y108.745 Z0.166667 E0.0143545
G1 F1200.00 X117.014 Y108.251 Z0.155392 E0.0133588
G1 F1200.00 X116.875 Y107.766 Z0.146066 E0.0125046
G1 F1200.00 X116.703 Y107.292 Z0.139097 E0.0118293
G1 F1200.00 X116.498 Y106.831 Z0.134790 E0.0113624
G1 F1200.00 X116.261 Y106.385 Z0.133333 E0.0111243
G1 F1200.00 X115.993 Y105.958 Z0.134790 E0.0111255
G1 F1200.00 X115.697 Y105.549 Z0.139097 E0.0113657
G1 F1200.00 X115.372 Y105.163 Z0.146065 E0.0118346
G1 F1200.00 X115.022 Y104.800 Z0.155391 E0.0125117
G1 F1200.00 X114.647 Y104.462 Z0.166666 E0.0133674
G1 F1200.00 X114.249 Y104.151 Z0.179398 E0.0143642
G1 F1200.00 X113.831 Y103.869 Z0.193031 E0.0154586
G1 F1200.00 X113.394 Y103.617 Z0.206968 E0.0166028
G1 F1200.00 X112.940 Y103.396 Z0.220601 E0.0177468
G1 F1200.00 X112.473 Y103.207 Z0.233333 E0.0188405
G1 F1200.00 X111.993 Y103.051 Z0.244608 E0.0198362
G1 F1200.00 X111.503 Y102.929 Z0.253934 E0.0206904
G1 F1200.00 X111.006 Y102.841 Z0.260903 E0.0213657
G1 F1200.00 X110.504 Y102.788 Z0.265210 E0.0218326
G1 F1200.00 X110.000 Y102.771 Z0.266667 E0.0220707
G1 F1200.00 X109.496 Y102.788 Z0.265210 E0.0220696
G1 F1200.00 X108.994 Y102.841 Z0.260903 E0.0218293
G1 F1200.00 X108.497 Y102.929 Z0.253935 E0.0213604
G1 F1200.00 X108.007 Y103.051 Z0.244609 E0.0206833
G1 F1200.00 X107.527 Y103.207 Z0.233334 E0.0198277
G1 F1200.00 X107.060 Y103.396 Z0.220602 E0.0188308
G1 F1200.00 X106.606 Y103.617 Z0.206969 E0.0177364
G1 F1200.00 X106.169 Y103.869 Z0.193032 E0.0165922
G1 F1200.00 X105.751 Y104.151 Z0.179399 E0.0154482
G1 F1200.00 X105.353 Y104.462 Z0.166667 E0.0143545
G1 F1200.00 X104.978 Y104.800 Z0.155392 E0.0133588
G1 F1200.00 X104.628 Y105.163 Z0.146066 E0.0125046
G1 F1200.00 X104.303 Y105.549 Z0.139097 E0.0118293
G1 F1200.00 X104.007 Y105.957 Z0.134790 E0.0113624
G1 F1200.00 X103.739 Y106.385 Z0.133333 E0.0111243
G1 F1200.00 X103.502 Y106.831 Z0.134790 E0.0111255
G1 F1200.00 X103.297 Y107.292 Z0.139097 E0.0113657
G1 F1200.00 X103.125 Y107.766 Z0.146065 E0.0118346
G1 F1200.00 X102.986 Y108.251 Z0.155391 E0.0125117
G1 F1200.00 X102.881 Y108.745 Z0.166666 E0.0133674
G1 F1200.00 X102.810 Y109.244 Z0.179398 E0.0143642
G1 F1200.00 X102.775 Y109.748 Z0.193031 E0.0154586
G1 F1200.00 X102.775 Y110.252 Z0.206968 E0.0166028
G1 F1200.00 X102.810 Y110.756 Z0.220600 E0.0177468
G1 F1200.00 X102.881 Y111.255 Z0.233333 E0.0188405
G1 F1200.00 X102.986 Y111.749 Z0.244608 E0.0198362
G1 F1200.00 X103.125 Y112.234 Z0.253934 E0.0206904
G1 F1200.00 X103.297 Y112.708 Z0.260903 E0.0213657
G1 F1200.00 X103.502 Y113.169 Z0.265210 E0.0218326
G1 F1200.00 X103.739 Y113.615 Z0.266667 E0.0220707
G1 F1200.00 X104.007 Y114.042 Z0.265210 E0.0220696
G1 F1200.00 X104.303 Y114.451 Z0.260903 E0.0218293
G1 F1200.00 X104.628 Y114.837 Z0.253935 E0.0213604
G1 F1200.00 X104.978 Y115.200 Z0.244609 E0.0206833
G1 F1200.00 X105.353 Y115.538 Z0.233334 E0.0198277
G1 F1200.00 X105.751 Y115.848 Z0.220602 E0.0188309
G1 F1200.00 X106.169 Y116.131 Z0.206970 E0.0177364
G1 F1200.00 X106.606 Y116.383 Z0.193032 E0.0165922
G1 F1200.00 X107.060 Y116.604 Z0.179400 E0.0154483
G1 F1200.00 X107.527 Y116.793 Z0.166668 E0.0143545
G1 F1200.00 X108.007 Y116.949 Z0.155392 E0.0133588
G1 F1200.00 X108.497 Y117.071 Z0.146066 E0.0125046
G1 F1200.00 X108.994 Y117.159 Z0.139097 E0.0118294
G1 F1200.00 X109.496 Y117.212 Z0.134790 E0.0113625
G1 F1200.00 X110.000 Y117.229 Z0.133333 E0.0111244
G1 F1200.00 X110.000 Y117.625 Z0.133333 E0.0111184
G1 F1200.00 X110.504 Y117.608 Z0.134641 E0.0111193
G1 F1200.00 X111.006 Y117.558 Z0.138514 E0.0113352
G1 F1200.00 X111.503 Y117.475 Z0.144799 E0.0117576
G1 F1200.00 X111.994 Y117.360 Z0.153251 E0.0123699
G1 F1200.00 X112.476 Y117.212 Z0.163537 E0.0131481
G1 F1200.00 X112.947 Y117.032 Z0.175253 E0.0140616
G1 F1200.00 X113.405 Y116.822 Z0.187941 E0.0150747
G1 F1200.00 X113.849 Y116.582 Z0.201102 E0.0161475
G1 F1200.00 X114.275 Y116.314 Z0.214220 E0.0172380
G1 F1200.00 X114.683 Y116.017 Z0.226780 E0.0183033
G1 F1200.00 X115.071 Y115.695 Z0.238288 E0.0193017
G1 F1200.00 X115.436 Y115.347 Z0.248295 E0.0201940
G1 F1200.00 X115.778 Y114.976 Z0.256406 E0.0209452
G1 F1200.00 X116.094 Y114.583 Z0.262304 E0.0215258
G1 F1200.00 X116.383 Y114.170 Z0.265757 E0.0219129
G1 F1200.00 X116.645 Y113.739 Z0.266630 E0.0220915
G1 F1200.00 X116.878 Y113.292 Z0.264888 E0.0220546
G1 F1200.00 X117.080 Y112.830 Z0.260601 E0.0218034
G1 F1200.00 X117.252 Y112.356 Z0.253935 E0.0213480
G1 F1200.00 X117.392 Y111.872 Z0.245152 E0.0207062
G1 F1200.00 X117.499 Y111.379 Z0.234598 E0.0199032
G1 F1200.00 X117.574 Y110.881 Z0.222686 E0.0189705
G1 F1200.00 X117.616 Y110.378 Z0.209884 E0.0179446
G1 F1200.00 X117.624 Y109.874 Z0.196695 E0.0168659
G1 F1200.00 X117.599 Y109.370 Z0.183635 E0.0157766
G1 F1200.00 X117.541 Y108.870 Z0.171217 E0.0147196
G1 F1200.00 X117.450 Y108.374 Z0.159928 E0.0137362
G1 F1200.00 X117.326 Y107.885 Z0.150212 E0.0128651
G1 F1200.00 X117.170 Y107.405 Z0.142450 E0.0121405
G1 F1200.00 X116.983 Y106.937 Z0.136946 E0.0115908
G1 F1200.00 X116.765 Y106.482 Z0.133916 E0.0112375
G1 F1200.00 X116.518 Y106.043 Z0.133479 E0.0110946
G1 F1200.00 X116.242 Y105.621 Z0.135653 E0.0111676
G1 F1200.00 X115.939 Y105.218 Z0.140351 E0.0114537
G1 F1200.00 X115.610 Y104.836 Z0.147390 E0.0119416
G1 F1200.00 X115.256 Y104.476 Z0.156494 E0.0126122
G1 F1200.00 X114.880 Y104.141 Z0.167305 E0.0134392
G1 F1200.00 X114.482 Y103.831 Z0.179398 E0.0143901
G1 F1200.00 X114.064 Y103.549 Z0.192301 E0.0154277
G1 F1200.00 X113.629 Y103.294 Z0.205505 E0.0165111
G1 F1200.00 X113.178 Y103.069 Z0.218493 E0.0175979
G1 F1200.00 X112.713 Y102.874 Z0.230756 E0.0186455
G1 F1200.00 X112.236 Y102.710 Z0.241811 E0.0196127
G1 F1200.00 X111.749 Y102.578 Z0.251226 E0.0204616
G1 F1200.00 X111.255 Y102.479 Z0.258631 E0.0211589
G1 F1200.00 X110.755 Y102.412 Z0.263736 E0.0216772
G1 F1200.00 X110.252 Y102.379 Z0.266339 E0.0219962
G1 F1200.00 X109.748 Y102.379 Z0.266339 E0.0221033
G1 F1200.00 X109.245 Y102.412 Z0.263736 E0.0219943
G1 F1200.00 X108.745 Y102.479 Z0.258632 E0.0216736
G1 F1200.00 X108.251 Y102.578 Z0.251227 E0.0211537
G1 F1200.00 X107.764 Y102.710 Z0.241812 E0.0204551
G1 F1200.00 X107.287 Y102.874 Z0.230757 E0.0196050
G1 F1200.00 X106.822 Y103.069 Z0.218494 E0.0186369
G1 F1200.00 X106.371 Y103.294 Z0.205506 E0.0175889
G1 F1200.00 X105.936 Y103.549 Z0.192302 E0.0165019
G1 F1200.00 X105.518 Y103.831 Z0.179399 E0.0154186
G1 F1200.00 X105.120 Y104.141 Z0.167306 E0.0143816
G1 F1200.00 X104.744 Y104.476 Z0.156495 E0.0134316
G1 F1200.00 X104.390 Y104.836 Z0.147391 E0.0126058
G1 F1200.00 X104.061 Y105.218 Z0.140352 E0.0119367
G1 F1200.00 X103.758 Y105.621 Z0.135653 E0.0114504
G1 F1200.00 X103.482 Y106.043 Z0.133479 E0.0111661
G1 F1200.00 X103.235 Y106.482 Z0.133916 E0.0110949
G1 F1200.00 X103.017 Y106.937 Z0.136945 E0.0112397
G1 F1200.00 X102.830 Y107.405 Z0.142449 E0.0115947
G1 F1200.00 X102.674 Y107.885 Z0.150211 E0.0121460
G1 F1200.00 X102.550 Y108.374 Z0.159927 E0.0128719
G1 F1200.00 X102.459 Y108.869 Z0.171216 E0.0137441
G1 F1200.00 X102.401 Y109.370 Z0.183634 E0.0147283
G1 F1200.00 X102.376 Y109.874 Z0.196694 E0.0157858
G1 F1200.00 X102.384 Y110.378 Z0.209883 E0.0168751
G1 F1200.00 X102.426 Y110.881 Z0.222685 E0.0179536
G1 F1200.00 X102.501 Y111.379 Z0.234597 E0.0189788
G1 F1200.00 X102.608 Y111.872 Z0.245151 E0.0199106
G1 F1200.00 X102.748 Y112.356 Z0.253934 E0.0207124
G1 F1200.00 X102.920 Y112.830 Z0.260600 E0.0213527
G1 F1200.00 X103.122 Y113.292 Z0.264888 E0.0218064
G1 F1200.00 X103.355 Y113.739 Z0.266630 E0.0220558
G1 F1200.00 X103.617 Y114.170 Z0.265758 E0.0220909
G1 F1200.00 X103.906 Y114.583 Z0.262305 E0.0219105
G1 F1200.00 X104.222 Y114.976 Z0.256407 E0.0215216
G1 F1200.00 X104.564 Y115.347 Z0.248296 E0.0209395
G1 F1200.00 X104.929 Y115.694 Z0.238289 E0.0201870
G1 F1200.00 X105.317 Y116.017 Z0.226781 E0.0192937
G1 F1200.00 X105.725 Y116.314 Z0.214221 E0.0182945
G1 F1200.00 X106.151 Y116.582 Z0.201103 E0.0172288
G1 F1200.00 X106.595 Y116.822 Z0.187942 E0.0161383
G1 F1200.00 X107.053 Y117.032 Z0.175254 E0.0150658
G1 F1200.00 X107.524 Y117.212 Z0.163538 E0.0140534
G1 F1200.00 X108.006 Y117.360 Z0.153252 E0.0131409
G1 F1200.00 X108.497 Y117.475 Z0.144800 E0.0123639
G1 F1200.00 X108.994 Y117.558 Z0.138514 E0.0117532
G1 F1200.00 X109.496 Y117.608 Z0.134642 E0.0113325
G1 F1200.00 X110.000 Y117.625 Z0.133333 E0.0111184
G1 F1200.00 X110.000 Y118.021 Z0.133333 E0.0111132
G1 F1200.00 X110.504 Y118.005 Z0.134514 E0.0111140
G1 F1200.00 X111.005 Y117.958 Z0.138015 E0.0113090
G1 F1200.00 X111.503 Y117.879 Z0.143711 E0.0116914
G1 F1200.00 X111.995 Y117.769 Z0.151402 E0.0122476
G1 F1200.00 X112.479 Y117.628 Z0.160814 E0.0129578
G1 F1200.00 X112.953 Y117.458 Z0.171615 E0.0137971
G1 F1200.00 X113.415 Y117.257 Z0.183421 E0.0147355
G1 F1200.00 X113.864 Y117.029 Z0.195814 E0.0157398
G1 F1200.00 X114.298 Y116.772 Z0.208355 E0.0167746
G1 F1200.00 X114.715 Y116.489 Z0.220601 E0.0178031
G1 F1200.00 X115.113 Y116.180 Z0.232117 E0.0187889
G1 F1200.00 X115.491 Y115.847 Z0.242495 E0.0196970
G1 F1200.00 X115.847 Y115.491 Z0.251367 E0.0204954
G1 F1200.00 X116.180 Y115.113 Z0.258420 E0.0211556
G1 F1200.00 X116.489 Y114.715 Z0.263404 E0.0216544
G1 F1200.00 X116.772 Y114.298 Z0.266141 E0.0219741
G1 F1200.00 X117.029 Y113.864 Z0.266535 E0.0221033
G1 F1200.00 X117.257 Y113.415 Z0.264572 E0.0220374
G1 F1200.00 X117.458 Y112.953 Z0.260322 E0.0217788
G1 F1200.00 X117.628 Y112.479 Z0.253935 E0.0213367
G1 F1200.00 X117.769 Y111.995 Z0.245637 E0.0207267
G1 F1200.00 X117.879 Y111.503 Z0.235722 E0.0199704
G1 F1200.00 X117.958 Y111.005 Z0.224542 E0.0190946
G1 F1200.00 X118.005 Y110.504 Z0.212492 E0.0181304
G1 F1200.00 X118.021 Y110.000 Z0.200000 E0.0171118
G1 F1200.00 X118.005 Y109.496 Z0.187508 E0.0160751
G1 F1200.00 X117.958 Y108.995 Z0.175459 E0.0150568
G1 F1200.00 X117.879 Y108.497 Z0.164278 E0.0140932
G1 F1200.00 X117.769 Y108.005 Z0.154364 E0.0132182
G1 F1200.00 X117.628 Y107.521 Z0.146066 E0.0124630
G1 F1200.00 X117.458 Y107.047 Z0.139678 E0.0118542
G1 F1200.00 X117.257 Y106.585 Z0.135428 E0.0114135
G1 F1200.00 X117.029 Y106.136 Z0.133465 E0.0111564
G1 F1200.00 X116.772 Y105.702 Z0.133859 E0.0110920
G1 F1200.00 X116.489 Y105.285 Z0.136596 E0.0112227
G1 F1200.00 X116.180 Y104.887 Z0.141579 E0.0115438
G1 F1200.00 X115.847 Y104.509 Z0.148632 E0.0120440
G1 F1200.00 X115.491 Y104.153 Z0.157505 E0.0127054
G1 F1200.00 X115.113 Y103.820 Z0.167883 E0.0135047
G1 F1200.00 X114.715 Y103.511 Z0.179398 E0.0144136
G1 F1200.00 X114.298 Y103.228 Z0.191644 E0.0153999
G1 F1200.00 X113.864 Y102.971 Z0.204186 E0.0164285
G1 F1200.00 X113.415 Y102.743 Z0.216579 E0.0174632
G1 F1200.00 X112.953 Y102.542 Z0.228385 E0.0184672
G1 F1200.00 X112.479 Y102.372 Z0.239185 E0.0194050
G1 F1200.00 X111.995 Y102.231 Z0.248598 E0.0202433
G1 F1200.00 X111.503 Y102.121 Z0.256288 E0.0209524
G1 F1200.00 X111.005 Y102.042 Z0.261985 E0.0215073
G1 F1200.00 X110.504 Y101.995 Z0.265486 E0.0218883
G1 F1200.00 X110.000 Y101.979 Z0.266667 E0.0220818
G1 F1200.00 X109.496 Y101.995 Z0.265486 E0.0220810
G1 F1200.00 X108.995 Y102.042 Z0.261985 E0.0218860
G1 F1200.00 X108.497 Y102.121 Z0.256289 E0.0215036
G1 F1200.00 X108.005 Y102.231 Z0.248598 E0.0209475
G1 F1200.00 X107.521 Y102.372 Z0.239186 E0.0202372
G1 F1200.00 X107.047 Y102.542 Z0.228386 E0.0193980
G1 F1200.00 X106.585 Y102.743 Z0.216580 E0.0184596
G1 F1200.00 X106.136 Y102.971 Z0.204187 E0.0174552
G1 F1200.00 X105.702 Y103.228 Z0.191645 E0.0164205
G1 F1200.00 X105.285 Y103.511 Z0.179399 E0.0153920
G1 F1200.00 X104.887 Y103.820 Z0.167884 E0.0144062
G1 F1200.00 X104.509 Y104.153 Z0.157506 E0.0134980
G1 F1200.00 X104.153 Y104.509 Z0.148633 E0.0126997
G1 F1200.00 X103.820 Y104.887 Z0.141580 E0.0120394
G1 F1200.00 X103.511 Y105.285 Z0.136596 E0.0115406
G1 F1200.00 X103.228 Y105.702 Z0.133859 E0.0112210
G1 F1200.00 X102.971 Y106.136 Z0.133465 E0.0110918
G1 F1200.00 X102.743 Y106.585 Z0.135428 E0.0111576
G1 F1200.00 X102.542 Y107.047 Z0.139678 E0.0114162
G1 F1200.00 X102.372 Y107.521 Z0.146065 E0.0118583
G1 F1200.00 X102.231 Y108.005 Z0.154363 E0.0124683
G1 F1200.00 X102.121 Y108.497 Z0.164278 E0.0132246
G1 F1200.00 X102.042 Y108.995 Z0.175458 E0.0141004
G1 F1200.00 X101.995 Y109.496 Z0.187507 E0.0150646
G1 F1200.00 X101.979 Y110.000 Z0.199999 E0.0160831
G1 F1200.00 X101.995 Y110.504 Z0.212491 E0.0171199
G1 F1200.00 X102.042 Y111.005 Z0.224541 E0.0181381
G1 F1200.00 X102.121 Y111.503 Z0.235721 E0.0191018
G1 F1200.00 X102.231 Y111.995 Z0.245636 E0.0199768
G1 F1200.00 X102.372 Y112.479 Z0.253934 E0.0207320
G1 F1200.00 X102.542 Y112.953 Z0.260321 E0.0213408
G1 F1200.00 X102.743 Y113.415 Z0.264572 E0.0217816
G1 F1200.00 X102.971 Y113.864 Z0.266535 E0.0220387
G1 F1200.00 X103.228 Y114.298 Z0.266141 E0.0221030
G1 F1200.00 X103.511 Y114.714 Z0.263404 E0.0219723
G1 F1200.00 X103.820 Y115.113 Z0.258421 E0.0216512
G1 F1200.00 X104.153 Y115.491 Z0.251368 E0.0211511
G1 F1200.00 X104.509 Y115.847 Z0.242496 E0.0204897
G1 F1200.00 X104.887 Y116.180 Z0.232118 E0.0196903
G1 F1200.00 X105.285 Y116.489 Z0.220602 E0.0187815
G1 F1200.00 X105.702 Y116.772 Z0.208357 E0.0177952
G1 F1200.00 X106.136 Y117.029 Z0.195815 E0.0167665
G1 F1200.00 X106.585 Y117.257 Z0.183422 E0.0157319
G1 F1200.00 X107.047 Y117.458 Z0.171616 E0.0147279
G1 F1200.00 X107.521 Y117.628 Z0.160815 E0.0137901
G1 F1200.00 X108.005 Y117.769 Z0.151403 E0.0129518
G1 F1200.00 X108.497 Y117.879 Z0.143712 E0.0122426
G1 F1200.00 X108.995 Y117.958 Z0.138015 E0.0116877
G1 F1200.00 X109.496 Y118.005 Z0.134514 E0.0113068
G1 F1200.00 X110.000 Y118.021 Z0.133333 E0.0111132
G1 F1200.00 X110.000 Y118.417 Z0.133333 E0.0111088
G1 F1200.00 X110.503 Y118.402 Z0.134405 E0.0111095
G1 F1200.00 X111.005 Y118.356 Z0.137584 E0.0112865
G1 F1200.00 X111.503 Y118.281 Z0.142770 E0.0116342
G1 F1200.00 X111.995 Y118.177 Z0.149795 E0.0121415
G1 F1200.00 X112.481 Y118.043 Z0.158434 E0.0127920
G1 F1200.00 X112.957 Y117.880 Z0.168409 E0.0135648
G1 F1200.00 X113.423 Y117.689 Z0.179399 E0.0144350
G1 F1200.00 X113.877 Y117.471 Z0.191051 E0.0153748
G1 F1200.00 X114.317 Y117.225 Z0.202991 E0.0163539
G1 F1200.00 X114.741 Y116.954 Z0.214835 E0.0173408
G1 F1200.00 X115.149 Y116.658 Z0.226202 E0.0183038
G1 F1200.00 X115.538 Y116.338 Z0.236726 E0.0192119
G1 F1200.00 X115.907 Y115.996 Z0.246071 E0.0200361
G1 F1200.00 X116.255 Y115.632 Z0.253934 E0.0207497
G1 F1200.00 X116.580 Y115.248 Z0.260065 E0.0213299
G1 F1200.00 X116.882 Y114.845 Z0.264264 E0.0217579
G1 F1200.00 X117.160 Y114.425 Z0.266398 E0.0220201
G1 F1200.00 X117.412 Y113.988 Z0.266398 E0.0221081
G1 F1200.00 X117.637 Y113.538 Z0.264264 E0.0220189
G1 F1200.00 X117.835 Y113.075 Z0.260065 E0.0217554
G1 F1200.00 X118.005 Y112.601 Z0.253935 E0.0213262
G1 F1200.00 X118.146 Y112.118 Z0.246071 E0.0207450
G1 F1200.00 X118.258 Y111.627 Z0.236727 E0.0200305
G1 F1200.00 X118.340 Y111.130 Z0.226202 E0.0192056
G1 F1200.00 X118.393 Y110.629 Z0.214835 E0.0182970
G1 F1200.00 X118.416 Y110.126 Z0.202991 E0.0173337
G1 F1200.00 X118.408 Y109.622 Z0.191051 E0.0163467
G1 F1200.00 X118.371 Y109.120 Z0.179399 E0.0153678
G1 F1200.00 X118.303 Y108.621 Z0.168409 E0.0144284
G1 F1200.00 X118.206 Y108.127 Z0.158434 E0.0135588
G1 F1200.00 X118.079 Y107.640 Z0.149795 E0.0127868
G1 F1200.00 X117.923 Y107.161 Z0.142770 E0.0121373
G1 F1200.00 X117.739 Y106.692 Z0.137584 E0.0116311
G1 F1200.00 X117.528 Y106.235 Z0.134405 E0.0112846
G1 F1200.00 X117.289 Y105.792 Z0.133333 E0.0111088
G1 F1200.00 X117.024 Y105.363 Z0.134405 E0.0111095
G1 F1200.00 X116.734 Y104.952 Z0.137584 E0.0112865
G1 F1200.00 X116.420 Y104.558 Z0.142770 E0.0116342
G1 F1200.00 X116.084 Y104.184 Z0.149795 E0.0121415
G1 F1200.00 X115.725 Y103.830 Z0.158434 E0.0127919
G1 F1200.00 X115.346 Y103.499 Z0.168408 E0.0135647
G1 F1200.00 X114.947 Y103.191 Z0.179398 E0.0144350
G1 F1200.00 X114.531 Y102.907 Z0.191051 E0.0153748
G1 F1200.00 X114.099 Y102.649 Z0.202991 E0.0163538
G1 F1200.00 X113.652 Y102.417 Z0.214834 E0.0173407
G1 F1200.00 X113.192 Y102.212 Z0.226201 E0.0183037
G1 F1200.00 X112.720 Y102.035 Z0.236726 E0.0192119
G1 F1200.00 X112.239 Y101.887 Z0.246070 E0.0200361
G1 F1200.00 X111.750 Y101.767 Z0.253934 E0.0207497
G1 F1200.00 X111.254 Y101.677 Z0.260064 E0.0213299
G1 F1200.00 X110.754 Y101.617 Z0.264264 E0.0217579
G1 F1200.00 X110.252 Y101.587 Z0.266398 E0.0220201
G1 F1200.00 X109.748 Y101.587 Z0.266398 E0.0221081
G1 F1200.00 X109.246 Y101.617 Z0.264264 E0.0220189
G1 F1200.00 X108.746 Y101.677 Z0.260065 E0.0217554
G1 F1200.00 X108.250 Y101.767 Z0.253935 E0.0213262
G1 F1200.00 X107.761 Y101.887 Z0.246071 E0.0207450
G1 F1200.00 X107.280 Y102.035 Z0.236727 E0.0200305
G1 F1200.00 X106.808 Y102.212 Z0.226202 E0.0192057
G1 F1200.00 X106.348 Y102.417 Z0.214835 E0.0182970
G1 F1200.00 X105.901 Y102.649 Z0.202992 E0.0173337
G1 F1200.00 X105.469 Y102.907 Z0.191052 E0.0163467
G1 F1200.00 X105.053 Y103.191 Z0.179399 E0.0153679
G1 F1200.00 X104.654 Y103.499 Z0.168409 E0.0144285
G1 F1200.00 X104.275 Y103.830 Z0.158435 E0.0135588
G1 F1200.00 X103.916 Y104.184 Z0.149796 E0.0127868
G1 F1200.00 X103.580 Y104.558 Z0.142770 E0.0121373
G1 F1200.00 X103.266 Y104.951 Z0.137585 E0.0116311
G1 F1200.00 X102.976 Y105.363 Z0.134405 E0.0112846
G1 F1200.00 X102.711 Y105.792 Z0.133333 E0.0111088
G1 F1200.00 X102.472 Y106.235 Z0.134405 E0.0111095
G1 F1200.00 X102.261 Y106.692 Z0.137584 E0.0112865
G1 F1200.00 X102.077 Y107.161 Z0.142770 E0.0116342
G1 F1200.00 X101.921 Y107.640 Z0.149795 E0.0121415
G1 F1200.00 X101.794 Y108.127 Z0.158433 E0.0127919
G1 F1200.00 X101.697 Y108.621 Z0.168408 E0.0135647
G1 F1200.00 X101.629 Y109.120 Z0.179398 E0.0144350
G1 F1200.00 X101.592 Y109.622 Z0.191050 E0.0153747
G1 F1200.00 X101.584 Y110.126 Z0.202990 E0.0163538
G1 F1200.00 X101.607 Y110.629 Z0.214834 E0.0173407
G1 F1200.00 X101.660 Y111.130 Z0.226201 E0.0183037
G1 F1200.00 X101.742 Y111.627 Z0.236726 E0.0192119
G1 F1200.00 X101.854 Y112.117 Z0.246070 E0.0200360
G1 F1200.00 X101.995 Y112.601 Z0.253934 E0.0207497
G1 F1200.00 X102.165 Y113.075 Z0.260064 E0.0213298
G1 F1200.00 X102.363 Y113.538 Z0.264264 E0.0217579
G1 F1200.00 X102.588 Y113.988 Z0.266398 E0.0220201
G1 F1200.00 X102.840 Y114.424 Z0.266398 E0.0221081
G1 F1200.00 X103.118 Y114.845 Z0.264264 E0.0220189
G1 F1200.00 X103.420 Y115.248 Z0.260065 E0.0217554
G1 F1200.00 X103.745 Y115.632 Z0.253935 E0.0213262
G1 F1200.00 X104.093 Y115.996 Z0.246072 E0.0207450
G1 F1200.00 X104.462 Y116.338 Z0.236727 E0.0200305
G1 F1200.00 X104.851 Y116.658 Z0.226203 E0.0192057
G1 F1200.00 X105.259 Y116.954 Z0.214836 E0.0182970
G1 F1200.00 X105.683 Y117.225 Z0.202992 E0.0173337
G1 F1200.00 X106.123 Y117.470 Z0.191052 E0.0163468
G1 F1200.00 X106.577 Y117.689 Z0.179400 E0.0153679
G1 F1200.00 X107.043 Y117.880 Z0.168410 E0.0144285
G1 F1200.00 X107.519 Y118.043 Z0.158435 E0.0135588
G1 F1200.00 X108.005 Y118.177 Z0.149796 E0.0127868
G1 F1200.00 X108.497 Y118.281 Z0.142771 E0.0121373
G1 F1200.00 X108.995 Y118.356 Z0.137585 E0.0116312
G1 F1200.00 X109.497 Y118.402 Z0.134405 E0.0112846
G1 F1200.00 X110.000 Y118.417 Z0.133333 E0.0111088
G1 F1200.00 X110.000 Y118.812 Z0.133333 E0.0111050
G1 F1200.00 X110.503 Y118.798 Z0.134310 E0.0111055
G1 F1200.00 X111.005 Y118.755 Z0.137210 E0.0112669
G1 F1200.00 X111.503 Y118.683 Z0.141950 E0.0115845
G1 F1200.00 X111.996 Y118.583 Z0.148391 E0.0120489
G1 F1200.00 X112.483 Y118.456 Z0.156343 E0.0126465
G1 F1200.00 X112.961 Y118.300 Z0.165573 E0.0133599
G1 F1200.00 X113.430 Y118.117 Z0.175813 E0.0141681
G1 F1200.00 X113.888 Y117.908 Z0.186761 E0.0150475
G1 F1200.00 X114.333 Y117.673 Z0.198096 E0.0159723
G1 F1200.00 X114.764 Y117.414 Z0.209488 E0.0169154
G1 F1200.00 X115.180 Y117.129 Z0.220601 E0.0178491
G1 F1200.00 X115.578 Y116.822 Z0.231111 E0.0187463
G1 F1200.00 X115.959 Y116.493 Z0.240710 E0.0195804
G1 F1200.00 X116.320 Y116.142 Z0.249116 E0.0203272
G1 F1200.00 X116.660 Y115.771 Z0.256083 E0.0209648
G1 F1200.00 X116.979 Y115.381 Z0.261408 E0.0214744
G1 F1200.00 X117.274 Y114.974 Z0.264934 E0.0218412
G1 F1200.00 X117.547 Y114.551 Z0.266558 E0.0220543
G1 F1200.00 X117.794 Y114.113 Z0.266232 E0.0221077
G1 F1200.00 X118.016 Y113.661 Z0.263966 E0.0219996
G1 F1200.00 X118.212 Y113.197 Z0.259827 E0.0217332
G1 F1200.00 X118.381 Y112.723 Z0.253935 E0.0213165
G1 F1200.00 X118.523 Y112.240 Z0.246463 E0.0207615
G1 F1200.00 X118.637 Y111.750 Z0.237630 E0.0200845
G1 F1200.00 X118.723 Y111.254 Z0.227695 E0.0193054
G1 F1200.00 X118.780 Y110.754 Z0.216948 E0.0184470
G1 F1200.00 X118.809 Y110.252 Z0.205705 E0.0175344
G1 F1200.00 X118.809 Y109.748 Z0.194295 E0.0165944
G1 F1200.00 X118.780 Y109.246 Z0.183052 E0.0156544
G1 F1200.00 X118.723 Y108.746 Z0.172306 E0.0147421
G1 F1200.00 X118.637 Y108.250 Z0.162371 E0.0138841
G1 F1200.00 X118.523 Y107.760 Z0.153538 E0.0131056
G1 F1200.00 X118.381 Y107.277 Z0.146066 E0.0124294
G1 F1200.00 X118.212 Y106.803 Z0.140174 E0.0118753
G1 F1200.00 X118.016 Y106.339 Z0.136034 E0.0114595
G1 F1200.00 X117.794 Y105.888 Z0.133768 E0.0111942
G1 F1200.00 X117.547 Y105.449 Z0.133442 E0.0110872
G1 F1200.00 X117.274 Y105.026 Z0.135066 E0.0111416
G1 F1200.00 X116.979 Y104.619 Z0.138592 E0.0113558
G1 F1200.00 X116.660 Y104.229 Z0.143916 E0.0117236
G1 F1200.00 X116.320 Y103.858 Z0.150884 E0.0122341
G1 F1200.00 X115.959 Y103.507 Z0.159290 E0.0128724
G1 F1200.00 X115.578 Y103.178 Z0.168888 E0.0136199
G1 F1200.00 X115.180 Y102.871 Z0.179398 E0.0144545
G1 F1200.00 X114.764 Y102.586 Z0.190512 E0.0153520
G1 F1200.00 X114.333 Y102.327 Z0.201903 E0.0162859
G1 F1200.00 X113.888 Y102.092 Z0.213239 E0.0172290
G1 F1200.00 X113.430 Y101.883 Z0.224187 E0.0181536
G1 F1200.00 X112.961 Y101.700 Z0.234426 E0.0190325
G1 F1200.00 X112.483 Y101.544 Z0.243657 E0.0198402
G1 F1200.00 X111.996 Y101.417 Z0.251609 E0.0205529
G1 F1200.00 X111.503 Y101.317 Z0.258049 E0.0211497
G1 F1200.00 X111.005 Y101.245 Z0.262789 E0.0216131
G1 F1200.00 X110.503 Y101.202 Z0.265690 E0.0219297
G1 F1200.00 X110.000 Y101.188 Z0.266667 E0.0220900
G1 F1200.00 X109.497 Y101.202 Z0.265690 E0.0220895
G1 F1200.00 X108.995 Y101.245 Z0.262790 E0.0219281
G1 F1200.00 X108.497 Y101.317 Z0.258050 E0.0216105
G1 F1200.00 X108.004 Y101.417 Z0.251610 E0.0211461
G1 F1200.00 X107.517 Y101.544 Z0.243658 E0.0205485
G1 F1200.00 X107.039 Y101.700 Z0.234427 E0.0198351
G1 F1200.00 X106.570 Y101.883 Z0.224188 E0.0190269
G1 F1200.00 X106.112 Y102.092 Z0.213240 E0.0181476
G1 F1200.00 X105.667 Y102.327 Z0.201904 E0.0172228
G1 F1200.00 X105.236 Y102.586 Z0.190513 E0.0162797
G1 F1200.00 X104.820 Y102.871 Z0.179399 E0.0153459
G1 F1200.00 X104.422 Y103.178 Z0.168889 E0.0144488
G1 F1200.00 X104.041 Y103.507 Z0.159291 E0.0136146
G1 F1200.00 X103.680 Y103.858 Z0.150884 E0.0128678
G1 F1200.00 X103.340 Y104.229 Z0.143917 E0.0122303
G1 F1200.00 X103.021 Y104.619 Z0.138592 E0.0117206
G1 F1200.00 X102.726 Y105.026 Z0.135066 E0.0113539
G1 F1200.00 X102.453 Y105.449 Z0.133442 E0.0111407
G1 F1200.00 X102.206 Y105.887 Z0.133768 E0.0110874
G1 F1200.00 X101.984 Y106.339 Z0.136034 E0.0111954
G1 F1200.00 X101.788 Y106.803 Z0.140173 E0.0114618
G1 F1200.00 X101.619 Y107.277 Z0.146065 E0.0118785
G1 F1200.00 X101.477 Y107.760 Z0.153537 E0.0124335
G1 F1200.00 X101.363 Y108.250 Z0.162370 E0.0131104
G1 F1200.00 X101.277 Y108.746 Z0.172305 E0.0138895
G1 F1200.00 X101.220 Y109.246 Z0.183051 E0.0147480
G1 F1200.00 X101.191 Y109.748 Z0.194294 E0.0156606
G1 F1200.00 X101.191 Y110.252 Z0.205704 E0.0166006
G1 F1200.00 X101.220 Y110.754 Z0.216947 E0.0175406
G1 F1200.00 X101.277 Y111.254 Z0.227694 E0.0184529
G1 F1200.00 X101.363 Y111.750 Z0.237629 E0.0193109
G1 F1200.00 X101.477 Y112.240 Z0.246462 E0.0200894
G1 F1200.00 X101.619 Y112.723 Z0.253934 E0.0207656
G1 F1200.00 X101.788 Y113.197 Z0.259826 E0.0213197
G1 F1200.00 X101.984 Y113.661 Z0.263966 E0.0217355
G1 F1200.00 X102.206 Y114.112 Z0.266232 E0.0220008
G1 F1200.00 X102.453 Y114.551 Z0.266558 E0.0221078
G1 F1200.00 X102.726 Y114.974 Z0.264934 E0.0220534
G1 F1200.00 X103.021 Y115.381 Z0.261409 E0.0218392
G1 F1200.00 X103.340 Y115.771 Z0.256084 E0.0214715
G1 F1200.00 X103.680 Y116.142 Z0.249117 E0.0209610
G1 F1200.00 X104.041 Y116.493 Z0.240711 E0.0203226
G1 F1200.00 X104.422 Y116.822 Z0.231112 E0.0195752
G1 F1200.00 X104.820 Y117.129 Z0.220602 E0.0187405
G1 F1200.00 X105.236 Y117.414 Z0.209489 E0.0178431
G1 F1200.00 X105.667 Y117.673 Z0.198097 E0.0169091
G1 F1200.00 X106.112 Y117.908 Z0.186762 E0.0159661
G1 F1200.00 X106.570 Y118.117 Z0.175814 E0.0150415
G1 F1200.00 X107.039 Y118.300 Z0.165574 E0.0141625
G1 F1200.00 X107.517 Y118.456 Z0.156343 E0.0133549
G1 F1200.00 X108.004 Y118.583 Z0.148391 E0.0126422
G1 F1200.00 X108.497 Y118.683 Z0.141951 E0.0120454
G1 F1200.00 X108.995 Y118.755 Z0.137211 E0.0115819
G1 F1200.00 X109.497 Y118.798 Z0.134310 E0.0112654
G1 F1200.00 X110.000 Y118.812 Z0.133333 E0.0111050
G1 F1200.00 X110.000 Y119.208 Z0.133333 E0.0111016
G1 F1200.00 X110.503 Y119.195 Z0.134227 E0.0111021
G1 F1200.00 X111.004 Y119.153 Z0.136884 E0.0112499
G1 F1200.00 X111.503 Y119.085 Z0.141232 E0.0115410
G1 F1200.00 X111.996 Y118.989 Z0.147156 E0.0119676
G1 F1200.00 X112.484 Y118.867 Z0.154496 E0.0125184
G1 F1200.00 X112.965 Y118.718 Z0.163057 E0.0131785
G1 F1200.00 X113.437 Y118.543 Z0.172607 E0.0139303
G1 F1200.00 X113.898 Y118.343 Z0.182892 E0.0147536
G1 F1200.00 X114.348 Y118.117 Z0.193635 E0.0156263
G1 F1200.00 X114.784 Y117.868 Z0.204549 E0.0165250
G1 F1200.00 X115.207 Y117.595 Z0.215341 E0.0174257
G1 F1200.00 X115.614 Y117.299 Z0.225722 E0.0183041
G1 F1200.00 X116.004 Y116.982 Z0.235414 E0.0191369
G1 F1200.00 X116.377 Y116.643 Z0.244156 E0.0199015
G1 F1200.00 X116.730 Y116.285 Z0.251714 E0.0205776
G1 F1200.00 X117.063 Y115.908 Z0.257886 E0.0211470
G1 F1200.00 X117.375 Y115.514 Z0.262507 E0.0215944
G1 F1200.00 X117.665 Y115.103 Z0.265451 E0.0219079
G1 F1200.00 X117.932 Y114.677 Z0.266642 E0.0220791
G1 F1200.00 X118.176 Y114.236 Z0.266046 E0.0221033
G1 F1200.00 X118.395 Y113.784 Z0.263679 E0.0219799
G1 F1200.00 X118.589 Y113.320 Z0.259606 E0.0217122
G1 F1200.00 X118.758 Y112.846 Z0.253935 E0.0213075
G1 F1200.00 X118.900 Y112.363 Z0.246818 E0.0207764
G1 F1200.00 X119.016 Y111.874 Z0.238446 E0.0201334
G1 F1200.00 X119.105 Y111.378 Z0.229043 E0.0193956
G1 F1200.00 X119.166 Y110.879 Z0.218862 E0.0185827
G1 F1200.00 X119.201 Y110.377 Z0.208175 E0.0177167
G1 F1200.00 X119.207 Y109.874 Z0.197269 E0.0168206
G1 F1200.00 X119.187 Y109.372 Z0.186437 E0.0159186
G1 F1200.00 X119.139 Y108.871 Z0.175967 E0.0150348
G1 F1200.00 X119.064 Y108.373 Z0.166143 E0.0141928
G1 F1200.00 X118.961 Y107.881 Z0.157225 E0.0134153
G1 F1200.00 X118.832 Y107.395 Z0.149455 E0.0127232
G1 F1200.00 X118.677 Y106.916 Z0.143039 E0.0121348
G1 F1200.00 X118.495 Y106.447 Z0.138150 E0.0116661
G1 F1200.00 X118.289 Y105.988 Z0.134919 E0.0113296
G1 F1200.00 X118.057 Y105.542 Z0.133433 E0.0111343
G1 F1200.00 X117.802 Y105.108 Z0.133731 E0.0110855
G1 F1200.00 X117.523 Y104.690 Z0.135805 E0.0111844
G1 F1200.00 X117.222 Y104.287 Z0.139601 E0.0114284
G1 F1200.00 X116.899 Y103.901 Z0.145015 E0.0118110
G1 F1200.00 X116.556 Y103.533 Z0.151903 E0.0123219
G1 F1200.00 X116.193 Y103.185 Z0.160081 E0.0129474
G1 F1200.00 X115.811 Y102.857 Z0.169329 E0.0136707
G1 F1200.00 X115.413 Y102.550 Z0.179398 E0.0144725
G1 F1200.00 X114.998 Y102.266 Z0.190021 E0.0153313
G1 F1200.00 X114.568 Y102.004 Z0.200910 E0.0162240
G1 F1200.00 X114.124 Y101.767 Z0.211775 E0.0171267
G1 F1200.00 X113.669 Y101.554 Z0.222325 E0.0180152
G1 F1200.00 X113.202 Y101.366 Z0.232276 E0.0188657
G1 F1200.00 X112.726 Y101.204 Z0.241362 E0.0196555
G1 F1200.00 X112.241 Y101.069 Z0.249339 E0.0203632
G1 F1200.00 X111.750 Y100.960 Z0.255994 E0.0209700
G1 F1200.00 X111.254 Y100.877 Z0.261147 E0.0214596
G1 F1200.00 X110.754 Y100.823 Z0.264662 E0.0218189
G1 F1200.00 X110.252 Y100.795 Z0.266443 E0.0220382
G1 F1200.00 X109.749 Y100.795 Z0.266443 E0.0221117
G1 F1200.00 X109.246 Y100.823 Z0.264662 E0.0220373
G1 F1200.00 X108.746 Y100.877 Z0.261148 E0.0218171
G1 F1200.00 X108.250 Y100.960 Z0.255994 E0.0214570
G1 F1200.00 X107.759 Y101.069 Z0.249340 E0.0209667
G1 F1200.00 X107.274 Y101.204 Z0.241363 E0.0203592
G1 F1200.00 X106.798 Y101.366 Z0.232277 E0.0196509
G1 F1200.00 X106.331 Y101.554 Z0.222326 E0.0188607
G1 F1200.00 X105.876 Y101.767 Z0.211776 E0.0180099
G1 F1200.00 X105.432 Y102.004 Z0.200911 E0.0171212
G1 F1200.00 X105.002 Y102.266 Z0.190022 E0.0162185
G1 F1200.00 X104.588 Y102.550 Z0.179399 E0.0153259
G1 F1200.00 X104.189 Y102.857 Z0.169330 E0.0144674
G1 F1200.00 X103.807 Y103.185 Z0.160082 E0.0136660
G1 F1200.00 X103.444 Y103.533 Z0.151904 E0.0129432
G1 F1200.00 X103.101 Y103.901 Z0.145016 E0.0123184
G1 F1200.00 X102.778 Y104.287 Z0.139601 E0.0118082
G1 F1200.00 X102.477 Y104.690 Z0.135806 E0.0114265
G1 F1200.00 X102.198 Y105.108 Z0.133731 E0.0111833
G1 F1200.00 X101.943 Y105.542 Z0.133433 E0.0110853
G1 F1200.00 X101.711 Y105.988 Z0.134919 E0.0111351
G1 F1200.00 X101.505 Y106.447 Z0.138150 E0.0113313
G1 F1200.00 X101.323 Y106.916 Z0.143038 E0.0116686
G1 F1200.00 X101.168 Y107.395 Z0.149454 E0.0121381
G1 F1200.00 X101.039 Y107.881 Z0.157224 E0.0127271
G1 F1200.00 X100.936 Y108.373 Z0.166142 E0.0134198
G1 F1200.00 X100.861 Y108.871 Z0.175966 E0.0141978
G1 F1200.00 X100.813 Y109.372 Z0.186435 E0.0150400
G1 F1200.00 X100.793 Y109.874 Z0.197268 E0.0159241
G1 F1200.00 X100.799 Y110.377 Z0.208174 E0.0168261
G1 F1200.00 X100.834 Y110.879 Z0.218861 E0.0177221
G1 F1200.00 X100.895 Y111.378 Z0.229042 E0.0185879
G1 F1200.00 X100.984 Y111.873 Z0.238445 E0.0194003
G1 F1200.00 X101.100 Y112.363 Z0.246817 E0.0201376
G1 F1200.00 X101.242 Y112.845 Z0.253934 E0.0207800
G1 F1200.00 X101.411 Y113.319 Z0.259605 E0.0213103
G1 F1200.00 X101.605 Y113.784 Z0.263679 E0.0217143
G1 F1200.00 X101.824 Y114.236 Z0.266046 E0.0219811
G1 F1200.00 X102.068 Y114.677 Z0.266642 E0.0221036
G1 F1200.00 X102.335 Y115.103 Z0.265452 E0.0220785
G1 F1200.00 X102.625 Y115.514 Z0.262507 E0.0219065
G1 F1200.00 X102.937 Y115.908 Z0.257887 E0.0215921
G1 F1200.00 X103.270 Y116.285 Z0.251715 E0.0211439
G1 F1200.00 X103.623 Y116.643 Z0.244156 E0.0205738
G1 F1200.00 X103.996 Y116.982 Z0.235415 E0.0198971
G1 F1200.00 X104.386 Y117.299 Z0.225723 E0.0191320
G1 F1200.00 X104.793 Y117.595 Z0.215343 E0.0182989
G1 F1200.00 X105.215 Y117.868 Z0.204550 E0.0174202
G1 F1200.00 X105.652 Y118.117 Z0.193636 E0.0165195
G1 F1200.00 X106.102 Y118.343 Z0.182893 E0.0156208
G1 F1200.00 X106.563 Y118.543 Z0.172608 E0.0147484
G1 F1200.00 X107.035 Y118.718 Z0.163058 E0.0139255
G1 F1200.00 X107.516 Y118.867 Z0.154497 E0.0131742
G1 F1200.00 X108.003 Y118.989 Z0.147157 E0.0125147
G1 F1200.00 X108.497 Y119.085 Z0.141233 E0.0119647
G1 F1200.00 X108.996 Y119.153 Z0.136884 E0.0115388
G1 F1200.00 X109.497 Y119.195 Z0.134227 E0.0112485
G1 F1200.00 X110.000 Y119.208 Z0.133333 E0.0111016
G1 F1200.00 X110.000 Y119.604 Z0.133333 E0.0110987
G1 F1200.00 X110.503 Y119.591 Z0.134154 E0.0110991
G1 F1200.00 X111.004 Y119.552 Z0.136596 E0.0112348
G1 F1200.00 X111.502 Y119.486 Z0.140600 E0.0115027
G1 F1200.00 X111.997 Y119.394 Z0.146066 E0.0118959
G1 F1200.00 X112.486 Y119.277 Z0.152860 E0.0124050
G1 F1200.00 X112.968 Y119.134 Z0.160814 E0.0130173
G1 F1200.00 X113.442 Y118.966 Z0.169734 E0.0137177
G1 F1200.00 X113.906 Y118.774 Z0.179399 E0.0144890
G1 F1200.00 X114.360 Y118.557 Z0.189571 E0.0153123
G1 F1200.00 X114.802 Y118.317 Z0.200000 E0.0161672
G1 F1200.00 X115.231 Y118.055 Z0.210429 E0.0170327
G1 F1200.00 X115.645 Y117.770 Z0.220601 E0.0178875
G1 F1200.00 X116.044 Y117.464 Z0.230266 E0.0187105
G1 F1200.00 X116.426 Y117.137 Z0.239186 E0.0194815
G1 F1200.00 X116.791 Y116.791 Z0.247140 E0.0201815
G1 F1200.00 X117.137 Y116.426 Z0.253934 E0.0207932
G1 F1200.00 X117.464 Y116.044 Z0.259400 E0.0213017
G1 F1200.00 X117.770 Y115.645 Z0.263404 E0.0216942
G1 F1200.00 X118.055 Y115.231 Z0.265846 E0.0219613
G1 F1200.00 X118.317 Y114.802 Z0.266667 E0.0220963
G1 F1200.00 X118.557 Y114.360 Z0.265846 E0.0220960
G1 F1200.00 X118.774 Y113.906 Z0.263404 E0.0219602
G1 F1200.00 X118.966 Y113.442 Z0.259401 E0.0216924
G1 F1200.00 X119.134 Y112.968 Z0.253935 E0.0212991
G1 F1200.00 X119.277 Y112.486 Z0.247141 E0.0207900
G1 F1200.00 X119.394 Y111.997 Z0.239186 E0.0201778
G1 F1200.00 X119.486 Y111.502 Z0.230266 E0.0194773
G1 F1200.00 X119.552 Y111.004 Z0.220601 E0.0187060
G1 F1200.00 X119.591 Y110.503 Z0.210429 E0.0178827
G1 F1200.00 X119.604 Y110.000 Z0.200000 E0.0170278
G1 F1200.00 X119.591 Y109.497 Z0.189571 E0.0161623
G1 F1200.00 X119.552 Y108.996 Z0.179399 E0.0153075
G1 F1200.00 X119.486 Y108.498 Z0.169734 E0.0144845
G1 F1200.00 X119.394 Y108.003 Z0.160815 E0.0137135
G1 F1200.00 X119.277 Y107.514 Z0.152860 E0.0130135
G1 F1200.00 X119.134 Y107.032 Z0.146066 E0.0124018
G1 F1200.00 X118.966 Y106.558 Z0.140600 E0.0118934
G1 F1200.00 X118.774 Y106.094 Z0.136596 E0.0115008
G1 F1200.00 X118.557 Y105.640 Z0.134154 E0.0112337
G1 F1200.00 X118.317 Y105.198 Z0.133333 E0.0110987
G1 F1200.00 X118.055 Y104.769 Z0.134154 E0.0110991
G1 F1200.00 X117.770 Y104.355 Z0.136596 E0.0112348
G1 F1200.00 X117.464 Y103.956 Z0.140599 E0.0115027
G1 F1200.00 X117.137 Y103.574 Z0.146065 E0.0118959
G1 F1200.00 X116.791 Y103.209 Z0.152859 E0.0124050
G1 F1200.00 X116.426 Y102.863 Z0.160814 E0.0130172
G1 F1200.00 X116.044 Y102.536 Z0.169734 E0.0137177
G1 F1200.00 X115.645 Y102.230 Z0.179398 E0.0144890
G1 F1200.00 X115.231 Y101.945 Z0.189571 E0.0153123
G1 F1200.00 X114.802 Y101.683 Z0.200000 E0.0161672
G1 F1200.00 X114.360 Y101.443 Z0.210429 E0.0170327
G1 F1200.00 X113.906 Y101.226 Z0.220601 E0.0178875
G1 F1200.00 X113.442 Y101.034 Z0.230266 E0.0187105
G1 F1200.00 X112.968 Y100.866 Z0.239185 E0.0194815
G1 F1200.00 X112.486 Y100.723 Z0.247140 E0.0201815
G1 F1200.00 X111.997 Y100.606 Z0.253934 E0.0207932
G1 F1200.00 X111.502 Y100.514 Z0.259400 E0.0213016
G1 F1200.00 X111.004 Y100.448 Z0.263404 E0.0216942
G1 F1200.00 X110.503 Y100.409 Z0.265846 E0.0219613
G1 F1200.00 X110.000 Y100.396 Z0.266667 E0.0220963
G1 F1200.00 X109.497 Y100.409 Z0.265846 E0.0220960
G1 F1200.00 X108.996 Y100.448 Z0.263404 E0.0219602
G1 F1200.00 X108.498 Y100.514 Z0.259401 E0.0216924
G1 F1200.00 X108.003 Y100.606 Z0.253935 E0.0212991
G1 F1200.00 X107.514 Y100.723 Z0.247141 E0.0207901
G1 F1200.00 X107.032 Y100.866 Z0.239186 E0.0201778
G1 F1200.00 X106.558 Y101.034 Z0.230267 E0.0194774
G1 F1200.00 X106.094 Y101.226 Z0.220602 E0.0187060
G1 F1200.00 X105.640 Y101.443 Z0.210430 E0.0178828
G1 F1200.00 X105.198 Y101.683 Z0.200001 E0.0170278
G1 F1200.00 X104.769 Y101.945 Z0.189572 E0.0161623
G1 F1200.00 X104.355 Y102.230 Z0.179399 E0.0153076
G1 F1200.00 X103.956 Y102.536 Z0.169735 E0.0144845
G1 F1200.00 X103.574 Y102.863 Z0.160815 E0.0137135
G1 F1200.00 X103.209 Y103.209 Z0.152860 E0.0130135
G1 F1200.00 X102.863 Y103.574 Z0.146066 E0.0124018
G1 F1200.00 X102.536 Y103.956 Z0.140600 E0.0118934
G1 F1200.00 X102.230 Y104.355 Z0.136596 E0.0115008
G1 F1200.00 X101.945 Y104.769 Z0.134154 E0.0112337
G1 F1200.00 X101.683 Y105.198 Z0.133333 E0.0110987
G1 F1200.00 X101.443 Y105.640 Z0.134154 E0.0110991
G1 F1200.00 X101.226 Y106.094 Z0.136596 E0.0112348
G1 F1200.00 X101.034 Y106.558 Z0.140599 E0.0115026
G1 F1200.00 X100.866 Y107.032 Z0.146065 E0.0118959
G1 F1200.00 X100.723 Y107.514 Z0.152859 E0.0124050
G1 F1200.00 X100.606 Y108.003 Z0.160814 E0.0130172
G1 F1200.00 X100.514 Y108.498 Z0.169733 E0.0137177
G1 F1200.00 X100.448 Y108.996 Z0.179398 E0.0144890
G1 F1200.00 X100.409 Y109.497 Z0.189570 E0.0153123
G1 F1200.00 X100.396 Y110.000 Z0.199999 E0.0161672
G1 F1200.00 X100.409 Y110.503 Z0.210428 E0.0170327
G1 F1200.00 X100.448 Y111.004 Z0.220600 E0.0178875
G1 F1200.00 X100.514 Y111.502 Z0.230265 E0.0187105
G1 F1200.00 X100.606 Y111.997 Z0.239185 E0.0194815
G1 F1200.00 X100.723 Y112.486 Z0.247140 E0.0201815
G1 F1200.00 X100.866 Y112.968 Z0.253934 E0.0207932
G1 F1200.00 X101.034 Y113.442 Z0.259400 E0.0213016
G1 F1200.00 X101.226 Y113.906 Z0.263403 E0.0216942
G1 F1200.00 X101.443 Y114.360 Z0.265846 E0.0219613
G1 F1200.00 X101.683 Y114.802 Z0.266667 E0.0220963
G1 F1200.00 X101.945 Y115.231 Z0.265846 E0.0220960
G1 F1200.00 X102.230 Y115.645 Z0.263404 E0.0219602
G1 F1200.00 X102.536 Y116.044 Z0.259401 E0.0216924
G1 F1200.00 X102.863 Y116.426 Z0.253935 E0.0212991
G1 F1200.00 X103.209 Y116.791 Z0.247141 E0.0207901
G1 F1200.00 X103.574 Y117.137 Z0.239186 E0.0201778
G1 F1200.00 X103.956 Y117.464 Z0.230267 E0.0194774
G1 F1200.00 X104.355 Y117.770 Z0.220602 E0.0187060
G1 F1200.00 X104.769 Y118.055 Z0.210430 E0.0178828
G1 F1200.00 X105.198 Y118.317 Z0.200001 E0.0170279
G1 F1200.00 X105.640 Y118.557 Z0.189572 E0.0161624
G1 F1200.00 X106.094 Y118.774 Z0.179400 E0.0153076
G1 F1200.00 X106.558 Y118.966 Z0.169735 E0.0144846
G1 F1200.00 X107.032 Y119.134 Z0.160815 E0.0137136
G1 F1200.00 X107.514 Y119.277 Z0.152860 E0.0130136
G1 F1200.00 X108.003 Y119.394 Z0.146066 E0.0124018
G1 F1200.00 X108.498 Y119.486 Z0.140600 E0.0118934
G1 F1200.00 X108.996 Y119.552 Z0.136597 E0.0115008
G1 F1200.00 X109.497 Y119.591 Z0.134154 E0.0112337
G1 F1200.00 X110.000 Y119.604 Z0.133333 E0.0110987
G1 F1200.00 X110.000 Y120.000 Z0.133333 E0.0110961
G1 F1200.00 X110.502 Y119.987 Z0.134090 E0.0110964
G1 F1200.00 X111.004 Y119.950 Z0.136342 E0.0112216
G1 F1200.00 X111.502 Y119.887 Z0.140040 E0.0114688
G1 F1200.00 X111.997 Y119.799 Z0.145098 E0.0118324
G1 F1200.00 X112.487 Y119.686 Z0.151402 E0.0123041
G1 F1200.00 X112.970 Y119.549 Z0.158809 E0.0128734
G1 F1200.00 X113.446 Y119.387 Z0.167151 E0.0135271
G1 F1200.00 X113.914 Y119.202 Z0.176239 E0.0142505
G1 F1200.00 X114.371 Y118.994 Z0.185866 E0.0150272
G1 F1200.00 X114.818 Y118.763 Z0.195814 E0.0158395
G1 F1200.00 X115.252 Y118.510 Z0.205857 E0.0166690
G1 F1200.00 X115.673 Y118.235 Z0.215767 E0.0174969
G1 F1200.00 X116.079 Y117.940 Z0.225319 E0.0183044
G1 F1200.00 X116.471 Y117.624 Z0.234296 E0.0190732
G1 F1200.00 X116.845 Y117.290 Z0.242495 E0.0197857
G1 F1200.00 X117.203 Y116.937 Z0.249729 E0.0204259
G1 F1200.00 X117.543 Y116.566 Z0.255835 E0.0209792
G1 F1200.00 X117.863 Y116.179 Z0.260674 E0.0214331
G1 F1200.00 X118.163 Y115.776 Z0.264135 E0.0217772
G1 F1200.00 X118.443 Y115.358 Z0.266141 E0.0220038
G1 F1200.00 X118.702 Y114.927 Z0.266646 E0.0221076
G1 F1200.00 X118.938 Y114.484 Z0.265638 E0.0220864
G1 F1200.00 X119.152 Y114.029 Z0.263140 E0.0219406
G1 F1200.00 X119.343 Y113.564 Z0.259209 E0.0216735
G1 F1200.00 X119.511 Y113.090 Z0.253935 E0.0212913
G1 F1200.00 X119.654 Y112.608 Z0.247436 E0.0208025
G1 F1200.00 X119.773 Y112.120 Z0.239861 E0.0202182
G1 F1200.00 X119.867 Y111.626 Z0.231380 E0.0195518
G1 F1200.00 X119.936 Y111.129 Z0.222188 E0.0188183
G1 F1200.00 X119.980 Y110.628 Z0.212492 E0.0180345
G1 F1200.00 X119.999 Y110.126 Z0.202513 E0.0172180
G1 F1200.00 X119.993 Y109.623 Z0.192477 E0.0163874
G1 F1200.00 X119.961 Y109.122 Z0.182611 E0.0155616
G1 F1200.00 X119.905 Y108.622 Z0.173140 E0.0147593
G1 F1200.00 X119.823 Y108.126 Z0.164278 E0.0139987
G1 F1200.00 X119.716 Y107.635 Z0.156228 E0.0132972
G1 F1200.00 X119.585 Y107.150 Z0.149171 E0.0126705
G1 F1200.00 X119.430 Y106.672 Z0.143267 E0.0121329
G1 F1200.00 X119.251 Y106.202 Z0.138651 E0.0116967
G1 F1200.00 X119.048 Y105.742 Z0.135428 E0.0113717
G1 F1200.00 X118.823 Y105.293 Z0.133670 E0.0111653
G1 F1200.00 X118.575 Y104.856 Z0.133418 E0.0110822
G1 F1200.00 X118.306 Y104.431 Z0.134676 E0.0111243
G1 F1200.00 X118.016 Y104.021 Z0.137418 E0.0112906
G1 F1200.00 X117.705 Y103.626 Z0.141579 E0.0115774
G1 F1200.00 X117.375 Y103.247 Z0.147067 E0.0119781
G1 F1200.00 X117.027 Y102.885 Z0.153756 E0.0124836
G1 F1200.00 X116.660 Y102.541 Z0.161495 E0.0130825
G1 F1200.00 X116.277 Y102.215 Z0.170107 E0.0137612
G1 F1200.00 X115.878 Y101.910 Z0.179398 E0.0145043
G1 F1200.00 X115.464 Y101.625 Z0.189157 E0.0152949
G1 F1200.00 X115.036 Y101.361 Z0.199162 E0.0161150
G1 F1200.00 X114.596 Y101.119 Z0.209186 E0.0169461
G1 F1200.00 X114.144 Y100.899 Z0.219001 E0.0177693
G1 F1200.00 X113.681 Y100.702 Z0.228385 E0.0185658
G1 F1200.00 X113.209 Y100.529 Z0.237125 E0.0193177
G1 F1200.00 X112.730 Y100.380 Z0.245022 E0.0200079
G1 F1200.00 X112.243 Y100.255 Z0.251897 E0.0206207
G1 F1200.00 X111.750 Y100.154 Z0.257595 E0.0211421
G1 F1200.00 X111.253 Y100.079 Z0.261985 E0.0215604
G1 F1200.00 X110.753 Y100.028 Z0.264968 E0.0218661
G1 F1200.00 X110.251 Y100.003 Z0.266477 E0.0220522
G1 F1200.00 X109.749 Y100.003 Z0.266477 E0.0221145
G1 F1200.00 X109.247 Y100.028 Z0.264969 E0.0220515
G1 F1200.00 X108.747 Y100.079 Z0.261985 E0.0218648
G1 F1200.00 X108.250 Y100.154 Z0.257595 E0.0215585
G1 F1200.00 X107.757 Y100.255 Z0.251898 E0.0211397
G1 F1200.00 X107.271 Y100.380 Z0.245023 E0.0206177
G1 F1200.00 X106.791 Y100.529 Z0.237126 E0.0200045
G1 F1200.00 X106.319 Y100.702 Z0.228386 E0.0193140
G1 F1200.00 X105.856 Y100.899 Z0.219002 E0.0185618
G1 F1200.00 X105.404 Y101.119 Z0.209187 E0.0177650
G1 F1200.00 X104.964 Y101.361 Z0.199163 E0.0169418
G1 F1200.00 X104.536 Y101.625 Z0.189158 E0.0161107
G1 F1200.00 X104.122 Y101.910 Z0.179399 E0.0152907
G1 F1200.00 X103.723 Y102.215 Z0.170108 E0.0145003
G1 F1200.00 X103.340 Y102.541 Z0.161496 E0.0137575
G1 F1200.00 X102.974 Y102.885 Z0.153757 E0.0130792
G1 F1200.00 X102.625 Y103.247 Z0.147068 E0.0124808
G1 F1200.00 X102.295 Y103.626 Z0.141580 E0.0119757
G1 F1200.00 X101.984 Y104.021 Z0.137418 E0.0115756
G1 F1200.00 X101.694 Y104.431 Z0.134676 E0.0112895
G1 F1200.00 X101.425 Y104.856 Z0.133418 E0.0111238
G1 F1200.00 X101.177 Y105.293 Z0.133670 E0.0110824
G1 F1200.00 X100.952 Y105.742 Z0.135428 E0.0111661
G1 F1200.00 X100.749 Y106.202 Z0.138651 E0.0113731
G1 F1200.00 X100.570 Y106.672 Z0.143267 E0.0116987
G1 F1200.00 X100.415 Y107.150 Z0.149170 E0.0121355
G1 F1200.00 X100.284 Y107.635 Z0.156227 E0.0126735
G1 F1200.00 X100.177 Y108.126 Z0.164278 E0.0133006
G1 F1200.00 X100.095 Y108.622 Z0.173139 E0.0140025
G1 F1200.00 X100.039 Y109.121 Z0.182610 E0.0147634
G1 F1200.00 X100.007 Y109.623 Z0.192475 E0.0155658
G1 F1200.00 X100.001 Y110.126 Z0.202512 E0.0163917
G1 F1200.00 X100.020 Y110.628 Z0.212491 E0.0172223
G1 F1200.00 X100.064 Y111.129 Z0.222187 E0.0180386
G1 F1200.00 X100.133 Y111.626 Z0.231380 E0.0188223
G1 F1200.00 X100.227 Y112.120 Z0.239860 E0.0195554
G1 F1200.00 X100.346 Y112.608 Z0.247435 E0.0202215
G1 F1200.00 X100.489 Y113.090 Z0.253934 E0.0208052
G1 F1200.00 X100.657 Y113.564 Z0.259209 E0.0212935
G1 F1200.00 X100.848 Y114.029 Z0.263140 E0.0216752
G1 F1200.00 X101.062 Y114.484 Z0.265637 E0.0219417
G1 F1200.00 X101.298 Y114.927 Z0.266646 E0.0220868
G1 F1200.00 X101.557 Y115.358 Z0.266141 E0.0221074
G1 F1200.00 X101.837 Y115.776 Z0.264135 E0.0220029
G1 F1200.00 X102.137 Y116.179 Z0.260674 E0.0217757
G1 F1200.00 X102.457 Y116.566 Z0.255836 E0.0214310
G1 F1200.00 X102.797 Y116.936 Z0.249730 E0.0209766
G1 F1200.00 X103.154 Y117.290 Z0.242496 E0.0204228
G1 F1200.00 X103.529 Y117.624 Z0.234297 E0.0197822
G1 F1200.00 X103.921 Y117.940 Z0.225319 E0.0190693
G1 F1200.00 X104.327 Y118.235 Z0.215768 E0.0183003
G1 F1200.00 X104.748 Y118.510 Z0.205858 E0.0174927
G1 F1200.00 X105.182 Y118.763 Z0.195815 E0.0166647
G1 F1200.00 X105.629 Y118.994 Z0.185867 E0.0158352
G1 F1200.00 X106.086 Y119.202 Z0.176240 E0.0150230
G1 F1200.00 X106.554 Y119.387 Z0.167152 E0.0142466
G1 F1200.00 X107.030 Y119.549 Z0.158810 E0.0135235
G1 F1200.00 X107.513 Y119.686 Z0.151403 E0.0128702
G1 F1200.00 X108.003 Y119.799 Z0.145098 E0.0123014
G1 F1200.00 X108.498 Y119.887 Z0.140040 E0.0118302
G1 F1200.00 X108.996 Y119.950 Z0.136343 E0.0114672
G1 F1200.00 X109.498 Y119.987 Z0.134090 E0.0112206
G1 F1200.00 X110.000 Y120.000 Z0.133333 E0.0110961
;LAYER 1
;TYPE SKIN
G1 F1200.00 X110.000 Y110.500 Z0.266667 E0.0165698
G1 F1200.00 X110.476 Y110.155 Z0.507869 E0.0168494
G1 F1200.00 X110.294 Y109.595 Z0.358797 E0.0162177
G1 F1200.00 X109.706 Y109.595 Z0.358799 E0.0169602
G1 F1200.00 X109.524 Y110.155 Z0.507868 E0.0163904
G1 F1200.00 X110.000 Y110.500 Z0.266667 E0.0165698
G1 F1200.00 X110.000 Y110.896 Z0.266667 E0.0141174
G1 F1200.00 X110.527 Y110.725 Z0.441202 E0.0147472
G1 F1200.00 X110.852 Y110.277 Z0.507869 E0.0202212
G1 F1200.00 X110.852 Y109.723 Z0.292131 E0.0162083
G1 F1200.00 X110.527 Y109.275 Z0.358797 E0.0132144
G1 F1200.00 X110.000 Y109.104 Z0.533333 E0.0190776
G1 F1200.00 X109.473 Y109.275 Z0.358799 E0.0184479
G1 F1200.00 X109.148 Y109.723 Z0.292130 E0.0129738
G1 F1200.00 X109.148 Y110.277 Z0.507868 E0.0169867
G1 F1200.00 X109.473 Y110.725 Z0.441204 E0.0199807
G1 F1200.00 X110.000 Y110.896 Z0.266667 E0.0141174
G1 F1200.00 X110.000 Y111.292 Z0.266667 E0.0127299
G1 F1200.00 X110.525 Y111.180 Z0.358798 E0.0129890
G1 F1200.00 X110.960 Y110.864 Z0.507869 E0.0182350
G1 F1200.00 X111.228 Y110.399 Z0.507869 E0.0212180
G1 F1200.00 X111.285 Y109.865 Z0.358798 E0.0178157
G1 F1200.00 X111.119 Y109.354 Z0.266667 E0.0127299
G1 F1200.00 X110.759 Y108.955 Z0.358797 E0.0129890
G1 F1200.00 X110.269 Y108.737 Z0.507868 E0.0182350
G1 F1200.00 X109.731 Y108.737 Z0.507870 E0.0212180
G1 F1200.00 X109.241 Y108.955 Z0.358799 E0.0178157
G1 F1200.00 X108.881 Y109.354 Z0.266667 E0.0127299
G1 F1200.00 X108.715 Y109.865 Z0.358796 E0.0129890
G1 F1200.00 X108.772 Y110.399 Z0.507868 E0.0182349
G1 F1200.00 X109.040 Y110.864 Z0.507870 E0.0212180
G1 F1200.00 X109.475 Y111.180 Z0.358800 E0.0178157
G1 F1200.00 X110.000 Y111.292 Z0.266667 E0.0127299
G1 F1200.00 X110.000 Y111.688 Z0.266667 E0.0120878
G1 F1200.00 X110.521 Y111.605 Z0.321629 E0.0122093
G1 F1200.00 X110.992 Y111.365 Z0.441202 E0.0159486
G1 F1200.00 X111.365 Y110.992 Z0.526807 E0.0202229
G1 F1200.00 X111.605 Y110.521 Z0.507869 E0.0215083
G1 F1200.00 X111.687 Y110.000 Z0.400001 E0.0187452
G1 F1200.00 X111.605 Y109.479 Z0.292131 E0.0142114
G1 F1200.00 X111.365 Y109.008 Z0.273192 E0.0116448
G1 F1200.00 X110.992 Y108.635 Z0.358797 E0.0131614
G1 F1200.00 X110.521 Y108.395 Z0.478371 E0.0175108
G1 F1200.00 X110.000 Y108.313 Z0.533333 E0.0211072
G1 F1200.00 X109.479 Y108.395 Z0.478372 E0.0209858
G1 F1200.00 X109.008 Y108.635 Z0.358799 E0.0172465
G1 F1200.00 X108.635 Y109.008 Z0.273193 E0.0129722
G1 F1200.00 X108.395 Y109.479 Z0.292130 E0.0116867
G1 F1200.00 X108.313 Y110.000 Z0.399998 E0.0144498
G1 F1200.00 X108.395 Y110.521 Z0.507868 E0.0189836
G1 F1200.00 X108.635 Y110.992 Z0.526808 E0.0215502
G1 F1200.00 X109.008 Y111.365 Z0.441204 E0.0200337
G1 F1200.00 X109.479 Y111.605 Z0.321630 E0.0156843
G1 F1200.00 X110.000 Y111.687 Z0.266667 E0.0120878
G1 F1200.00 X110.000 Y112.083 Z0.266667 E0.0117516
G1 F1200.00 X110.518 Y112.018 Z0.302804 E0.0118163
G1 F1200.00 X111.004 Y111.826 Z0.391628 E0.0144728
G1 F1200.00 X111.426 Y111.519 Z0.484990 E0.0182810
G1 F1200.00 X111.759 Y111.116 Z0.532282 E0.0211766
G1 F1200.00 X111.981 Y110.644 Z0.507869 E0.0215901
G1 F1200.00 X112.079 Y110.131 Z0.424985 E0.0192973
G1 F1200.00 X112.046 Y109.610 Z0.328557 E0.0155410
G1 F1200.00 X111.885 Y109.113 Z0.270856 E0.0123575
G1 F1200.00 X111.605 Y108.672 Z0.283159 E0.0114723
G1 F1200.00 X111.225 Y108.315 Z0.358797 E0.0133653
G1 F1200.00 X110.767 Y108.063 Z0.456770 E0.0170103
G1 F1200.00 X110.261 Y107.933 Z0.523970 E0.0204317
G1 F1200.00 X109.739 Y107.933 Z0.523971 E0.0217746
G1 F1200.00 X109.233 Y108.063 Z0.456772 E0.0203113
G1 F1200.00 X108.775 Y108.315 Z0.358799 E0.0168348
G1 F1200.00 X108.395 Y108.672 Z0.283160 E0.0132298
G1 F1200.00 X108.115 Y109.113 Z0.270855 E0.0114502
G1 F1200.00 X107.954 Y109.610 Z0.328555 E0.0124608
G1 F1200.00 X107.921 Y110.131 Z0.424983 E0.0157138
G1 F1200.00 X108.019 Y110.644 Z0.507868 E0.0194458
G1 F1200.00 X108.241 Y111.116 Z0.532282 E0.0216338
G1 F1200.00 X108.574 Y111.519 Z0.484991 E0.0210919
G1 F1200.00 X108.996 Y111.826 Z0.391630 E0.0181137
G1 F1200.00 X109.482 Y112.018 Z0.302806 E0.0143137
G1 F1200.00 X110.000 Y112.083 Z0.266667 E0.0117516
G1 F1200.00 X110.000 Y112.479 Z0.266667 E0.0115561
G1 F1200.00 X110.515 Y112.425 Z0.292131 E0.0115941
G1 F1200.00 X111.008 Y112.265 Z0.358798 E0.0135432
G1 F1200.00 X111.457 Y112.006 Z0.441202 E0.0166590
G1 F1200.00 X111.842 Y111.659 Z0.507869 E0.0197513
G1 F1200.00 X112.147 Y111.240 Z0.533333 E0.0216389
G1 F1200.00 X112.358 Y110.766 Z0.507869 E0.0216010
G1 F1200.00 X112.466 Y110.259 Z0.441203 E0.0196518
G1 F1200.00 X112.466 Y109.741 Z0.358798 E0.0165361
G1 F1200.00 X112.358 Y109.234 Z0.292131 E0.0134438
G1 F1200.00 X112.147 Y108.760 Z0.266667 E0.0115561
G1 F1200.00 X111.842 Y108.341 Z0.292131 E0.0115941
G1 F1200.00 X111.457 Y107.994 Z0.358797 E0.0135432
G1 F1200.00 X111.008 Y107.735 Z0.441201 E0.0166589
G1 F1200.00 X110.515 Y107.575 Z0.507868 E0.0197512
G1 F1200.00 X110.000 Y107.521 Z0.533333 E0.0216389
G1 F1200.00 X109.485 Y107.575 Z0.507870 E0.0216010
G1 F1200.00 X108.992 Y107.735 Z0.441203 E0.0196519
G1 F1200.00 X108.543 Y107.994 Z0.358799 E0.0165361
G1 F1200.00 X108.158 Y108.341 Z0.292132 E0.0134438
G1 F1200.00 X107.853 Y108.760 Z0.266667 E0.0115561
G1 F1200.00 X107.642 Y109.234 Z0.292130 E0.0115940
G1 F1200.00 X107.534 Y109.741 Z0.358796 E0.0135431
G1 F1200.00 X107.534 Y110.259 Z0.441201 E0.0166589
G1 F1200.00 X107.642 Y110.766 Z0.507868 E0.0197512
G1 F1200.00 X107.853 Y111.240 Z0.533333 E0.0216389
G1 F1200.00 X108.158 Y111.659 Z0.507870 E0.0216010
G1 F1200.00 X108.543 Y112.006 Z0.441204 E0.0196519
G1 F1200.00 X108.992 Y112.265 Z0.358800 E0.0165361
G1 F1200.00 X109.485 Y112.425 Z0.292132 E0.0134438
G1 F1200.00 X110.000 Y112.479 Z0.266667 E0.0115561
G1 F1200.00 X110.000 Y112.875 Z0.266667 E0.0114330
G1 F1200.00 X110.513 Y112.829 Z0.285540 E0.0114570
G1 F1200.00 X111.010 Y112.692 Z0.336817 E0.0129362
G1 F1200.00 X111.475 Y112.468 Z0.405982 E0.0154519
G1 F1200.00 X111.892 Y112.165 Z0.473453 E0.0182920
G1 F1200.00 X112.248 Y111.793 Z0.520129 E0.0206523
G1 F1200.00 X112.532 Y111.362 Z0.532797 E0.0218648
G1 F1200.00 X112.734 Y110.888 Z0.507869 E0.0215860
G1 F1200.00 X112.849 Y110.386 Z0.452404 E0.0198950
G1 F1200.00 X112.872 Y109.871 Z0.382103 E0.0172705
G1 F1200.00 X112.803 Y109.360 Z0.316869 E0.0144554
G1 F1200.00 X112.644 Y108.870 Z0.275169 E0.0122468
G1 F1200.00 X112.399 Y108.416 Z0.268809 E0.0112699
G1 F1200.00 X112.078 Y108.013 Z0.299590 E0.0118012
G1 F1200.00 X111.690 Y107.674 Z0.358797 E0.0136904
G1 F1200.00 X111.247 Y107.410 Z0.429669 E0.0164026
G1 F1200.00 X110.765 Y107.229 Z0.492141 E0.0191699
G1 F1200.00 X110.258 Y107.137 Z0.528528 E0.0212091
G1 F1200.00 X109.742 Y107.137 Z0.528529 E0.0219426
G1 F1200.00 X109.235 Y107.229 Z0.492143 E0.0211630
G1 F1200.00 X108.753 Y107.410 Z0.429671 E0.0190909
G1 F1200.00 X108.310 Y107.674 Z0.358799 E0.0163128
G1 F1200.00 X107.922 Y108.013 Z0.299591 E0.0136154
G1 F1200.00 X107.601 Y108.416 Z0.268810 E0.0117622
G1 F1200.00 X107.356 Y108.870 Z0.275168 E0.0112779
G1 F1200.00 X107.197 Y109.360 Z0.316867 E0.0122996
G1 F1200.00 X107.128 Y109.871 Z0.382101 E0.0145380
G1 F1200.00 X107.151 Y110.386 Z0.452402 E0.0173595
G1 F1200.00 X107.266 Y110.888 Z0.507868 E0.0199652
G1 F1200.00 X107.468 Y111.362 Z0.532796 E0.0216176
G1 F1200.00 X107.752 Y111.793 Z0.520130 E0.0218487
G1 F1200.00 X108.108 Y112.165 Z0.473455 E0.0205932
G1 F1200.00 X108.525 Y112.468 Z0.405984 E0.0182066
G1 F1200.00 X108.990 Y112.692 Z0.336819 E0.0153644
G1 F1200.00 X109.487 Y112.829 Z0.285541 E0.0128713
G1 F1200.00 X110.000 Y112.875 Z0.266667 E0.0114331
G1 F1200.00 X110.000 Y113.271 Z0.266667 E0.0113508
G1 F1200.00 X110.512 Y113.231 Z0.281199 E0.0113667
G1 F1200.00 X111.011 Y113.111 Z0.321629 E0.0125229
G1 F1200.00 X111.485 Y112.914 Z0.379142 E0.0145672
G1 F1200.00 X111.923 Y112.646 Z0.441202 E0.0170542
G1 F1200.00 X112.313 Y112.313 Z0.494281 E0.0194415
G1 F1200.00 X112.646 Y111.923 Z0.526807 E0.0212090
G1 F1200.00 X112.914 Y111.485 Z0.531692 E0.0219712
G1 F1200.00 X113.111 Y111.011 Z0.507869 E0.0215620
G1 F1200.00 X113.231 Y110.512 Z0.460532 E0.0200706
G1 F1200.00 X113.271 Y110.000 Z0.400001 E0.0178221
G1 F1200.00 X113.231 Y109.488 Z0.339468 E0.0153067
G1 F1200.00 X113.111 Y108.989 Z0.292131 E0.0130727
G1 F1200.00 X112.914 Y108.515 Z0.268308 E0.0116070
G1 F1200.00 X112.646 Y108.077 Z0.273192 E0.0112292
G1 F1200.00 X112.313 Y107.687 Z0.305719 E0.0120216
G1 F1200.00 X111.923 Y107.354 Z0.358797 E0.0138115
G1 F1200.00 X111.485 Y107.086 Z0.420857 E0.0162087
G1 F1200.00 X111.011 Y106.889 Z0.478371 E0.0186907
G1 F1200.00 X110.512 Y106.769 Z0.518800 E0.0207164
G1 F1200.00 X110.000 Y106.729 Z0.533333 E0.0218442
G1 F1200.00 X109.488 Y106.769 Z0.518801 E0.0218283
G1 F1200.00 X108.989 Y106.889 Z0.478372 E0.0206722
G1 F1200.00 X108.515 Y107.086 Z0.420859 E0.0186278
G1 F1200.00 X108.077 Y107.354 Z0.358799 E0.0161409
G1 F1200.00 X107.687 Y107.687 Z0.305720 E0.0137535
G1 F1200.00 X107.354 Y108.077 Z0.273193 E0.0119861
G1 F1200.00 X107.086 Y108.515 Z0.268308 E0.0112239
G1 F1200.00 X106.889 Y108.989 Z0.292130 E0.0116330
G1 F1200.00 X106.769 Y109.488 Z0.339467 E0.0131244
G1 F1200.00 X106.729 Y110.000 Z0.399998 E0.0153729
G1 F1200.00 X106.769 Y110.512 Z0.460531 E0.0178883
G1 F1200.00 X106.889 Y111.011 Z0.507868 E0.0201223
G1 F1200.00 X107.086 Y111.485 Z0.531692 E0.0215880
G1 F1200.00 X107.354 Y111.923 Z0.526808 E0.0219658
G1 F1200.00 X107.687 Y112.313 Z0.494282 E0.0211734
G1 F1200.00 X108.077 Y112.646 Z0.441204 E0.0193836
G1 F1200.00 X108.515 Y112.914 Z0.379144 E0.0169863
G1 F1200.00 X108.989 Y113.111 Z0.321630 E0.0145044
G1 F1200.00 X109.488 Y113.231 Z0.281200 E0.0124787
G1 F1200.00 X110.000 Y113.271 Z0.266667 E0.0113509
G1 F1200.00 X110.000 Y113.667 Z0.266667 E0.0112933
G1 F1200.00 X110.510 Y113.631 Z0.278194 E0.0113043
G1 F1200.00 X111.011 Y113.525 Z0.310783 E0.0122306
G1 F1200.00 X111.491 Y113.350 Z0.358798 E0.0139119
G1 F1200.00 X111.943 Y113.110 Z0.413937 E0.0160576
G1 F1200.00 X112.357 Y112.809 Z0.466666 E0.0182967
G1 F1200.00 X112.725 Y112.453 Z0.507869 E0.0202420
G1 F1200.00 X113.040 Y112.050 Z0.530420 E0.0215571
G1 F1200.00 X113.296 Y111.607 Z0.530420 E0.0220146
G1 F1200.00 X113.487 Y111.133 Z0.507869 E0.0215355
G1 F1200.00 X113.611 Y110.637 Z0.466667 E0.0202026
G1 F1200.00 X113.664 Y110.128 Z0.413938 E0.0182463
G1 F1200.00 X113.647 Y109.617 Z0.358798 E0.0160049
G1 F1200.00 X113.558 Y109.113 Z0.310783 E0.0138660
G1 F1200.00 X113.400 Y108.626 Z0.278194 E0.0121994
G1 F1200.00 X113.175 Y108.167 Z0.266667 E0.0112933
G1 F1200.00 X112.889 Y107.743 Z0.278194 E0.0113043
G1 F1200.00 X112.547 Y107.362 Z0.310782 E0.0122305
G1 F1200.00 X112.155 Y107.034 Z0.358797 E0.0139119
G1 F1200.00 X111.721 Y106.763 Z0.413936 E0.0160576
G1 F1200.00 X111.254 Y106.554 Z0.466666 E0.0182967
G1 F1200.00 X110.762 Y106.413 Z0.507868 E0.0202419
G1 F1200.00 X110.256 Y106.342 Z0.530419 E0.0215570
G1 F1200.00 X109.744 Y106.342 Z0.530420 E0.0220146
G1 F1200.00 X109.238 Y106.413 Z0.507870 E0.0215355
G1 F1200.00 X108.746 Y106.554 Z0.466668 E0.0202026
G1 F1200.00 X108.279 Y106.763 Z0.413938 E0.0182463
G1 F1200.00 X107.845 Y107.034 Z0.358799 E0.0160050
G1 F1200.00 X107.453 Y107.362 Z0.310784 E0.0138660
G1 F1200.00 X107.111 Y107.743 Z0.278194 E0.0121994
G1 F1200.00 X106.825 Y108.167 Z0.266667 E0.0112933
G1 F1200.00 X106.600 Y108.626 Z0.278193 E0.0113043
G1 F1200.00 X106.442 Y109.113 Z0.310781 E0.0122305
G1 F1200.00 X106.353 Y109.617 Z0.358796 E0.0139119
G1 F1200.00 X106.336 Y110.128 Z0.413936 E0.0160576
G1 F1200.00 X106.389 Y110.637 Z0.466665 E0.0182966
G1 F1200.00 X106.513 Y111.133 Z0.507868 E0.0202419
G1 F1200.00 X106.704 Y111.607 Z0.530419 E0.0215570
G1 F1200.00 X106.960 Y112.050 Z0.530420 E0.0220146
G1 F1200.00 X107.275 Y112.453 Z0.507870 E0.0215355
G1 F1200.00 X107.643 Y112.809 Z0.466668 E0.0202026
G1 F1200.00 X108.057 Y113.110 Z0.413939 E0.0182463
G1 F1200.00 X108.509 Y113.350 Z0.358800 E0.0160050
G1 F1200.00 X108.989 Y113.525 Z0.310784 E0.0138661
G1 F1200.00 X109.490 Y113.631 Z0.278195 E0.0121994
G1 F1200.00 X110.000 Y113.667 Z0.266667 E0.0112933
G1 F1200.00 X110.000 Y114.062 Z0.266667 E0.0112514
G1 F1200.00 X110.509 Y114.030 Z0.276030 E0.0112593
G1 F1200.00 X111.010 Y113.935 Z0.302804 E0.0120170
G1 F1200.00 X111.496 Y113.777 Z0.343229 E0.0134179
G1 F1200.00 X111.957 Y113.560 Z0.391628 E0.0152655
G1 F1200.00 X112.388 Y113.287 Z0.441202 E0.0173001
G1 F1200.00 X112.781 Y112.961 Z0.484990 E0.0192360
G1 F1200.00 X113.130 Y112.590 Z0.516841 E0.0208014
G1 F1200.00 X113.430 Y112.177 Z0.532282 E0.0217763
G1 F1200.00 X113.676 Y111.730 Z0.529145 E0.0220239
G1 F1200.00 X113.864 Y111.255 Z0.507869 E0.0215094
G1 F1200.00 X113.991 Y110.761 Z0.471444 E0.0203050
G1 F1200.00 X114.054 Y110.255 Z0.424985 E0.0185799
G1 F1200.00 X114.054 Y109.745 Z0.375016 E0.0165764
G1 F1200.00 X113.991 Y109.239 Z0.328557 E0.0145759
G1 F1200.00 X113.864 Y108.745 Z0.292131 E0.0128593
G1 F1200.00 X113.676 Y108.270 Z0.270856 E0.0116677
G1 F1200.00 X113.430 Y107.823 Z0.267718 E0.0111685
G1 F1200.00 X113.130 Y107.410 Z0.283159 E0.0114317
G1 F1200.00 X112.781 Y107.039 Z0.315010 E0.0124205
G1 F1200.00 X112.388 Y106.713 Z0.358797 E0.0139960
G1 F1200.00 X111.957 Y106.440 Z0.408371 E0.0159368
G1 F1200.00 X111.496 Y106.223 Z0.456770 E0.0179704
G1 F1200.00 X111.010 Y106.065 Z0.497195 E0.0198112
G1 F1200.00 X110.509 Y105.970 Z0.523970 E0.0212006
G1 F1200.00 X110.000 Y105.938 Z0.533333 E0.0219436
G1 F1200.00 X109.491 Y105.970 Z0.523971 E0.0219357
G1 F1200.00 X108.990 Y106.065 Z0.497197 E0.0211781
G1 F1200.00 X108.505 Y106.223 Z0.456772 E0.0197771
G1 F1200.00 X108.043 Y106.440 Z0.408373 E0.0179296
G1 F1200.00 X107.612 Y106.713 Z0.358799 E0.0158950
G1 F1200.00 X107.219 Y107.039 Z0.315011 E0.0139591
G1 F1200.00 X106.870 Y107.410 Z0.283160 E0.0123937
G1 F1200.00 X106.570 Y107.823 Z0.267718 E0.0114187
G1 F1200.00 X106.324 Y108.270 Z0.270855 E0.0111711
G1 F1200.00 X106.136 Y108.745 Z0.292130 E0.0116856
G1 F1200.00 X106.009 Y109.239 Z0.328555 E0.0128900
G1 F1200.00 X105.946 Y109.745 Z0.375014 E0.0146150
G1 F1200.00 X105.946 Y110.255 Z0.424983 E0.0166185
G1 F1200.00 X106.009 Y110.761 Z0.471442 E0.0186191
G1 F1200.00 X106.136 Y111.255 Z0.507868 E0.0203357
G1 F1200.00 X106.324 Y111.730 Z0.529144 E0.0215273
G1 F1200.00 X106.570 Y112.177 Z0.532282 E0.0220265
G1 F1200.00 X106.870 Y112.590 Z0.516842 E0.0217633
G1 F1200.00 X107.219 Y112.961 Z0.484991 E0.0207745
G1 F1200.00 X107.612 Y113.287 Z0.441204 E0.0191991
G1 F1200.00 X108.043 Y113.560 Z0.391630 E0.0172583
G1 F1200.00 X108.504 Y113.777 Z0.343231 E0.0152247
G1 F1200.00 X108.990 Y113.935 Z0.302806 E0.0133839
G1 F1200.00 X109.491 Y114.030 Z0.276031 E0.0119944
G1 F1200.00 X110.000 Y114.062 Z0.266667 E0.0112515
G1 F1200.00 X110.000 Y114.458 Z0.266667 E0.0112201
G1 F1200.00 X110.508 Y114.429 Z0.274421 E0.0112259
G1 F1200.00 X111.010 Y114.342 Z0.296781 E0.0118565
G1 F1200.00 X111.498 Y114.199 Z0.331147 E0.0130386
G1 F1200.00 X111.967 Y114.001 Z0.373521 E0.0146346
G1 F1200.00 X112.410 Y113.751 Z0.418975 E0.0164588
G1 F1200.00 X112.822 Y113.451 Z0.462222 E0.0182993
G1 F1200.00 X113.197 Y113.107 Z0.498232 E0.0199417
G1 F1200.00 X113.531 Y112.722 Z0.522816 E0.0211953
